%
(1003)
(T2  D=3.175 CR=0 - ZMIN=-11 - flat end mill)
G90 G94
G17
G21
G28 G91 Z0
G90

(2D Contour bottom 2)
M9
T2 M6
S10000 M3
G54
M8
G0 X68.94 Y106.744
Z11
G1 Z2.818 F333.3
X68.948 Z2.747
X68.971 Y106.743 Z2.68
X69.009 Y106.741 Z2.62
X69.059 Y106.739 Z2.569
X69.119 Y106.737 Z2.531
X69.186 Y106.734 Z2.508
X69.257 Y106.731 Z2.5
X69.574 Y106.717 F100
G3 X69.905 Y107.02 I0.014 J0.317
G1 X69.94 Y107.818 Z2.472 F33
G2 X69.941 Y107.828 I1.586 J-0.07
G1 X70.063 Y110.248 Z2.387
G2 X70.064 Y110.259 I1.585 J-0.08
G1 X70.203 Y112.688 Z2.302
G2 X70.204 Y112.699 Z2.301 I1.585 J-0.091
G1 X70.361 Y115.134 Z2.216
G2 X70.362 Y115.146 I1.584 J-0.102
G1 X70.538 Y117.589 Z2.13
G2 Y117.601 I1.583 J-0.114
G1 X70.733 Y120.051 Z2.044
G2 X70.734 Y120.063 I1.583 J-0.126
G1 X70.948 Y122.518 Z1.958
G2 X70.949 Y122.53 Z1.957 I1.582 J-0.138
G1 X71.183 Y124.992 Z1.871
G2 X71.184 Y125.005 Z1.87 I1.58 J-0.15
G1 X71.439 Y127.472 Z1.784
G2 X71.44 Y127.485 Z1.783 I1.579 J-0.163
G1 X71.715 Y129.957 Z1.696
G2 X71.717 Y129.969 I1.578 J-0.176
G1 X72.013 Y132.446 Z1.609
G2 X72.015 Y132.46 Z1.608 I1.576 J-0.188
G1 X72.332 Y134.941 Z1.521
G2 X72.334 Y134.955 I1.575 J-0.201
G1 X72.673 Y137.441 Z1.433
G2 X72.675 Y137.454 Z1.432 I1.573 J-0.215
G1 X73.036 Y139.944 Z1.345
G2 X73.038 Y139.957 Z1.344 I1.571 J-0.228
G1 X73.421 Y142.45 Z1.256
G2 X73.423 Y142.463 I1.569 J-0.241
G1 X73.829 Y144.961 Z1.167
G2 X73.831 Y144.975 I1.567 J-0.254
G1 X74.259 Y147.476 Z1.078
G2 X74.261 Y147.489 I1.565 J-0.268
G1 X74.711 Y149.993 Z0.989
G2 X74.714 Y150.006 Z0.988 I1.562 J-0.281
G1 X75.187 Y152.513 Z0.899
G2 X75.189 Y152.526 I1.56 J-0.294
G1 X75.685 Y155.037 Z0.809
G2 X75.687 Y155.051 I1.557 J-0.307
G1 X76.206 Y157.564 Z0.719
G2 X76.208 Y157.577 I1.555 J-0.321
G1 X76.749 Y160.093 Z0.629
G2 X76.752 Y160.106 Z0.628 I1.552 J-0.334
G1 X77.316 Y162.625 Z0.538
G2 X77.319 Y162.638 I1.549 J-0.347
G1 X77.905 Y165.159 Z0.448
G2 X77.908 Y165.172 Z0.447 I1.546 J-0.36
G1 X78.518 Y167.696 Z0.356
G2 X78.521 Y167.708 I1.543 J-0.373
G1 X79.153 Y170.235 Z0.265
G2 X79.156 Y170.248 Z0.264 I1.54 J-0.385
G1 X79.811 Y172.777 Z0.173
G2 X79.814 Y172.789 I1.537 J-0.398
G1 X80.492 Y175.32 Z0.081
G2 X80.495 Y175.333 I1.534 J-0.41
G1 X81.195 Y177.867 Z-0.011
G2 X81.199 Y177.879 I1.53 J-0.423
G1 X81.921 Y180.415 Z-0.103
G2 X81.925 Y180.427 Z-0.104 I1.527 J-0.435
G1 X82.67 Y182.965 Z-0.196
G2 X82.674 Y182.977 Z-0.197 I1.523 J-0.447
G1 X83.442 Y185.518 Z-0.289
G2 X83.445 Y185.53 Z-0.29 I1.52 J-0.459
G1 X84.236 Y188.073 Z-0.383
G2 X84.24 Y188.085 I1.516 J-0.471
G1 X85.053 Y190.63 Z-0.477
G2 X85.057 Y190.642 I1.512 J-0.483
G1 X85.372 Y191.604 Z-0.512
X80.823 Y192.848 Z-0.677
X80.785 Y192.858 Z-0.678
X80.762 Y192.862 Z-0.679
X80.747 Y192.865 Z-0.68
X80.731 Y192.867
X80.715 Y192.868 Z-0.681
X80.699
X80.683 Z-0.682
X80.658 Y192.866 Z-0.683
X80.633 Y192.864 Z-0.684
X80.627 Y192.863
X80.603 Y192.858 Z-0.685
X80.582 Y192.853 Z-0.686
X80.57 Y192.849
X80.55 Y192.843 Z-0.687
X80.54 Y192.838
X80.523 Y192.831 Z-0.688
X80.499 Y192.819 Z-0.689
X80.484 Y192.811
X80.477 Y192.807 Z-0.69
X80.459 Y192.794
X80.438 Y192.779 Z-0.691
X80.43 Y192.773 Z-0.692
X80.418 Y192.762
X80.397 Y192.742 Z-0.693
X80.388 Y192.732 Z-0.694
X80.379 Y192.722
X80.364 Y192.703 Z-0.695
X80.336 Y192.664 Z-0.697
X80.137 Y192.386 Z-0.709
G2 X80.101 Y192.337 Z-0.711 I-1.291 J0.924
G1 X79.899 Y192.077 Z-0.722
G2 X79.858 Y192.027 Z-0.724 I-1.255 J0.973
G1 X79.658 Y191.789 Z-0.735
G2 X79.61 Y191.735 Z-0.738 I-1.214 J1.023
G1 X79.411 Y191.519 Z-0.748
G2 X79.352 Y191.458 Z-0.751 I-1.166 J1.077
G1 X79.153 Y191.265 Z-0.761
G2 X79.087 Y191.204 Z-0.764 I-1.107 J1.138
G1 X78.89 Y191.033 Z-0.773
G2 X78.807 Y190.966 Z-0.777 I-1.041 J1.199
G1 X78.611 Y190.818 Z-0.785
G2 X78.522 Y190.755 Z-0.789 I-0.958 J1.266
G1 X78.328 Y190.628 Z-0.797
G2 X78.214 Y190.56 Z-0.802 I-0.869 J1.329
G1 X78.022 Y190.456 Z-0.809
G2 X77.901 Y190.398 Z-0.814 I-0.755 J1.397
G1 X77.71 Y190.315 Z-0.821
G2 X77.565 Y190.26 Z-0.827 I-0.634 J1.455
G1 X77.376 Y190.199 Z-0.834
G2 X77.221 Y190.157 Z-0.839 I-0.489 J1.51
G1 X77.035 Y190.117 Z-0.846
G2 X76.865 Y190.09 Z-0.852 I-0.334 J1.552
G1 X76.682 Y190.071 Z-0.858
G2 X76.501 Y190.063 Z-0.865 I-0.164 J1.579
G1 X76.32 Y190.065 Z-0.871
G2 X76.142 Y190.077 Z-0.877 I0.018 J1.587
G1 X75.965 Y190.099 Z-0.884
G2 X75.778 Y190.133 Z-0.89 I0.196 J1.575
G1 X75.605 Y190.176 Z-0.896
G2 X75.448 Y190.224 Z-0.902 I0.383 J1.541
G1 X75.279 Y190.285 Z-0.908
G2 X75.115 Y190.355 Z-0.915 I0.54 J1.493
G1 X74.951 Y190.436 Z-0.921
G2 X74.812 Y190.514 Z-0.927 I0.705 J1.423
G1 X74.655 Y190.613 Z-0.933
G2 X74.534 Y190.697 Z-0.938 I0.844 J1.345
G1 X74.382 Y190.813 Z-0.945
G2 X74.272 Y190.906 Z-0.95 I0.965 J1.261
G1 X74.127 Y191.039 Z-0.957
G2 X74.032 Y191.134 Z-0.962 I1.075 J1.168
G1 X73.895 Y191.283 Z-0.969
G2 X73.812 Y191.382 Z-0.973 I1.17 J1.073
G1 X73.684 Y191.547 Z-0.98
G2 X73.617 Y191.64 Z-0.984 I1.254 J0.974
G1 X73.498 Y191.818 Z-0.992
G2 X73.436 Y191.919 Z-0.996 I1.321 J0.881
G1 X73.328 Y192.111 Z-1.004
G2 X73.277 Y192.208 Z-1.008 I1.382 J0.78
G1 X73.18 Y192.412 Z-1.015
G2 X73.136 Y192.512 Z-1.019 I1.433 J0.683
G1 X73.051 Y192.729 Z-1.027
G2 X73.017 Y192.825 Z-1.031 I1.477 J0.583
G1 X72.944 Y193.05 Z-1.039
G2 X72.915 Y193.153 Z-1.043 I1.511 J0.486
G1 X72.857 Y193.388 Z-1.051
G2 X72.835 Y193.489 Z-1.055 I1.54 J0.383
G1 X72.791 Y193.732 Z-1.064
G2 X72.776 Y193.834 Z-1.067 I1.562 J0.282
G1 X72.748 Y194.084 Z-1.076
G2 X72.739 Y194.188 Z-1.08 I1.577 J0.18
G1 X72.727 Y194.444 Z-1.089
G2 X72.725 Y194.548 Z-1.092 I1.586 J0.076
G1 X72.73 Y194.808 Z-1.101
G2 X72.735 Y194.913 Z-1.105 I1.587 J-0.028
G1 X72.757 Y195.178 Z-1.114
G2 X72.77 Y195.283 Z-1.118 I1.582 J-0.133
G1 X72.81 Y195.55 Z-1.127
G2 X72.829 Y195.653 Z-1.131 I1.57 J-0.238
G1 X72.889 Y195.922 Z-1.141
G2 X72.915 Y196.026 Z-1.144 I1.55 J-0.341
G1 X72.994 Y196.295 Z-1.154
G2 X73.026 Y196.394 Z-1.158 I1.524 J-0.445
G1 X73.124 Y196.663 Z-1.168
G2 X73.163 Y196.759 Z-1.171 I1.491 J-0.544
G1 X73.281 Y197.027 Z-1.182
G2 X73.326 Y197.121 Z-1.185 I1.453 J-0.64
G1 X73.464 Y197.386 Z-1.196
G2 X73.513 Y197.473 Z-1.199 I1.408 J-0.734
G1 X73.672 Y197.735 Z-1.21
G2 X73.725 Y197.818 Z-1.213 I1.359 J-0.821
G1 X73.904 Y198.076 Z-1.224
G2 X73.961 Y198.153 Z-1.228 I1.305 J-0.904
G1 X74.159 Y198.406 Z-1.239
G2 X74.22 Y198.478 Z-1.242 I1.248 J-0.981
G1 X74.438 Y198.725 Z-1.254
G2 X74.498 Y198.789 Z-1.257 I1.188 J-1.053
G1 X74.737 Y199.03 Z-1.269
G2 X74.799 Y199.089 Z-1.272 I1.128 J-1.117
G1 X75.057 Y199.323 Z-1.284
G2 X75.123 Y199.379 Z-1.287 I1.066 J-1.176
G1 X75.4 Y199.604 Z-1.299
G2 X75.458 Y199.65 Z-1.302 I1.001 J-1.232
G1 X75.754 Y199.868 Z-1.315
G2 X75.819 Y199.913 Z-1.318 I0.942 J-1.278
G1 X76.133 Y200.121 Z-1.331
G2 X76.195 Y200.161 Z-1.333 I0.877 J-1.323
G1 X76.527 Y200.359 Z-1.347
G2 X76.587 Y200.393 Z-1.349 I0.815 J-1.363
G1 X76.935 Y200.581 Z-1.363
G2 X76.992 Y200.61 Z-1.365 I0.754 J-1.397
G1 X77.356 Y200.788 Z-1.379
G2 X77.417 Y200.817 Z-1.382 I0.697 J-1.426
G1 X77.797 Y200.983 Z-1.396
G2 X77.855 Y201.007 Z-1.398 I0.636 J-1.455
G1 X78.25 Y201.161 Z-1.413
G2 X78.309 Y201.182 Z-1.415 I0.578 J-1.479
G1 X78.717 Y201.323 Z-1.43
G2 X78.77 Y201.341 Z-1.432 I0.518 J-1.5
G1 X79.191 Y201.47 Z-1.448
G2 X79.246 Y201.485 Z-1.45 I0.465 J-1.518
G1 X79.679 Y201.601 Z-1.465
G2 X79.731 Y201.614 Z-1.467 I0.411 J-1.533
G1 X80.175 Y201.717 Z-1.483
G2 X80.232 Y201.73 Z-1.485 I0.359 J-1.546
G1 X80.687 Y201.818 Z-1.501
G2 X80.735 Y201.826 Z-1.503 I0.302 J-1.559
G1 X81.199 Y201.901 Z-1.52
G2 X81.255 Y201.909 Z-1.522 I0.253 J-1.567
G1 X81.727 Y201.968 Z-1.538
G2 X81.776 Y201.974 Z-1.54 I0.197 J-1.575
G1 X82.255 Y202.019 Z-1.557
G2 X82.306 Y202.022 Z-1.558 I0.148 J-1.581
G1 X82.792 Y202.052 Z-1.575
G2 X82.844 Y202.055 Z-1.577 I0.098 J-1.584
G1 X83.335 Y202.069 Z-1.594
G2 X83.384 Y202.07 Z-1.596 I0.045 J-1.587
G1 X83.88 Y202.068 Z-1.613
G2 X83.93 Z-1.615 I-0.003 J-1.587
G1 X84.429 Y202.051 Z-1.633
G2 X84.48 Y202.048 Z-1.634 I-0.054 J-1.587
G1 X84.981 Y202.015 Z-1.652
G2 X85.034 Y202.011 Z-1.654 I-0.104 J-1.584
G1 X85.537 Y201.961 Z-1.671
G2 X85.586 Y201.955 Z-1.673 I-0.157 J-1.58
G1 X86.09 Y201.889 Z-1.691
G2 X86.139 Y201.882 Z-1.693 I-0.206 J-1.574
G1 X86.642 Y201.8 Z-1.71
G2 X86.697 Y201.79 Z-1.712 I-0.255 J-1.567
G1 X87.199 Y201.69 Z-1.73
G2 X87.248 Y201.679 Z-1.732 I-0.31 J-1.557
G1 X87.748 Y201.563 Z-1.75
G2 X87.8 Y201.551 Z-1.752 I-0.359 J-1.546
G1 X88.297 Y201.418 Z-1.77
G2 X88.348 Y201.403 Z-1.772 I-0.41 J-1.534
G1 X88.842 Y201.253 Z-1.79
G2 X88.893 Y201.236 Z-1.792 I-0.461 J-1.519
G1 X89.382 Y201.069 Z-1.81
G2 X89.436 Y201.05 Z-1.812 I-0.513 J-1.502
G1 X89.92 Y200.865 Z-1.83
G2 X89.971 Y200.845 Z-1.832 I-0.566 J-1.483
G1 X90.45 Y200.643 Z-1.85
G2 X90.501 Y200.62 Z-1.852 I-0.617 J-1.463
G1 X90.973 Y200.401 Z-1.87
G2 X91.025 Y200.376 Z-1.872 I-0.668 J-1.44
G1 X91.491 Y200.139 Z-1.89
G2 X91.54 Y200.112 Z-1.892 I-0.721 J-1.415
G1 X91.998 Y199.858 Z-1.91
G2 X92.049 Y199.828 Z-1.912 I-0.77 J-1.388
G1 X92.499 Y199.556 Z-1.931
G2 X92.547 Y199.526 Z-1.933 I-0.822 J-1.358
G1 X92.988 Y199.237 Z-1.951
G2 X93.038 Y199.203 Z-1.953 I-0.87 J-1.328
G1 X93.47 Y198.896 Z-1.972
G2 X93.516 Y198.862 Z-1.974 I-0.92 J-1.294
G1 X93.939 Y198.538 Z-1.992
G2 X93.986 Y198.5 Z-1.995 I-0.966 J-1.26
G1 X94.399 Y198.158 Z-2.013
G2 X94.444 Y198.119 Z-2.015 I-1.013 J-1.222
G1 X94.847 Y197.759 Z-2.034
G2 X94.889 Y197.72 Z-2.036 I-1.058 J-1.183
G1 X95.281 Y197.343 Z-2.055
G2 X95.322 Y197.302 Z-2.057 I-1.101 J-1.144
G1 X95.703 Y196.908 Z-2.076
G2 X95.743 Y196.865 Z-2.078 I-1.141 J-1.103
G1 X96.112 Y196.453 Z-2.098
G2 X96.151 Y196.409 Z-2.1 I-1.182 J-1.06
G1 X96.509 Y195.979 Z-2.119
G2 X96.544 Y195.935 Z-2.121 I-1.22 J-1.016
G1 X96.89 Y195.488 Z-2.141
G2 X96.923 Y195.444 Z-2.143 I-1.255 J-0.972
G1 X97.257 Y194.98 Z-2.163
G2 X97.289 Y194.935 Z-2.165 I-1.288 J-0.928
G1 X97.61 Y194.454 Z-2.185
G2 X97.64 Y194.407 Z-2.187 I-1.319 J-0.883
G1 X97.95 Y193.908 Z-2.207
G2 X97.976 Y193.863 Z-2.209 I-1.349 J-0.836
G1 X98.273 Y193.347 Z-2.23
G2 X98.299 Y193.301 Z-2.232 I-1.376 J-0.791
G1 X98.582 Y192.767 Z-2.253
G2 X98.605 Y192.723 Z-2.255 I-1.402 J-0.745
G1 X98.875 Y192.173 Z-2.276
G2 X98.897 Y192.127 Z-2.278 I-1.424 J-0.701
G1 X99.154 Y191.559 Z-2.3
G2 X99.173 Y191.516 Z-2.301 I-1.446 J-0.655
G1 X99.417 Y190.932 Z-2.323
G2 X99.435 Y190.888 Z-2.325 I-1.465 J-0.612
G1 X99.665 Y190.286 Z-2.348
G2 X99.681 Y190.244 Z-2.349 I-1.482 J-0.568
G1 X99.898 Y189.626 Z-2.372
G2 X99.912 Y189.585 Z-2.374 I-1.498 J-0.526
G1 X100.115 Y188.95 Z-2.397
G2 X100.128 Y188.908 Z-2.398 I-1.512 J-0.485
G1 X100.318 Y188.255 Z-2.422
G2 X100.329 Y188.217 Z-2.424 I-1.524 J-0.443
G1 X100.505 Y187.549 Z-2.448
G2 X100.515 Y187.509 Z-2.449 I-1.535 J-0.405
G1 X100.677 Y186.824 Z-2.474
G2 X100.685 Y186.786 Z-2.475 I-1.545 J-0.366
G1 X100.834 Y186.084 Z-2.5
G2 X100.841 Y186.048 Z-2.501 I-1.553 J-0.328
G1 X100.975 Y185.329 Z-2.527
G2 X100.982 Y185.294 Z-2.528 I-1.56 J-0.292
G1 X101.102 Y184.559 Z-2.554
G2 X101.108 Y184.525 Z-2.555 I-1.566 J-0.257
G1 X101.214 Y183.774 Z-2.582
G2 X101.219 Y183.742 Z-2.583 I-1.572 J-0.223
G1 X101.312 Y182.974 Z-2.61
G2 X101.315 Y182.942 Z-2.611 I-1.576 J-0.191
G1 X101.394 Y182.157 Z-2.639
G2 X101.397 Y182.126 Z-2.64 I-1.58 J-0.159
G1 X101.462 Y181.325 Z-2.668
G2 X101.464 Y181.296 Z-2.669 I-1.582 J-0.128
G1 X101.515 Y180.48 Z-2.697
G2 X101.516 Y180.452 Z-2.698 I-1.584 J-0.099
G1 X101.553 Y179.618 Z-2.728
G2 X101.554 Y179.59 I-1.586 J-0.071
G1 X101.578 Y178.741 Z-2.758
G2 Y178.715 Z-2.759 I-1.587 J-0.043
G1 X101.587 Y177.85 Z-2.789
G2 Y177.825 Z-2.79 I-1.587 J-0.017
G1 X101.583 Y176.943 Z-2.821
G2 X101.582 Y176.918 Z-2.822 I-1.587 J0.008
G1 X101.564 Y176.021 Z-2.853
G2 X101.563 Y175.998 Z-2.854 I-1.587 J0.033
G1 X101.531 Y175.084 Z-2.886
G2 X101.53 Y175.061 Z-2.887 I-1.586 J0.056
G1 X101.483 Y174.132 Z-2.919
G2 X101.482 Y174.11 Z-2.92 I-1.586 J0.079
G1 X101.422 Y173.164 Z-2.953
G2 X101.421 Y173.143 Z-2.954 I-1.584 J0.101
G1 X101.347 Y172.181 Z-2.987
G2 X101.345 Y172.161 Z-2.988 I-1.583 J0.122
G1 X101.257 Y171.184 Z-3.022
G2 X101.255 Y171.164 Z-3.023 I-1.581 J0.142
G1 X101.162 Y170.251 Z-3.055
Y100.241 Z-5.5
Y0 F300
G2 X99.574 Y-1.587 I-1.587
G1 X12.074
G2 Y16.588 J9.088
X21.088 Y8.659 J-9.088
G1 X21.916 Y8.65
X23.051
X24.17 Y8.661
X25.275 Y8.684
X26.366 Y8.719
X27.441 Y8.765
X28.502 Y8.823
X29.548 Y8.892
X30.58 Y8.973
X31.596 Y9.066
X32.598 Y9.17
X33.584 Y9.286
X34.556 Y9.413
X35.513 Y9.552
X36.456 Y9.703
X37.383 Y9.865
X38.295 Y10.038
X39.192 Y10.223
X40.074 Y10.419
X40.942 Y10.627
X41.794 Y10.846
X42.632 Y11.077
X43.454 Y11.319
X44.262 Y11.572
X45.054 Y11.837
X45.832 Y12.112
X46.595 Y12.4
X47.343 Y12.698
X48.076 Y13.008
X48.794 Y13.329
X49.498 Y13.661
X50.187 Y14.004
X50.862 Y14.358
X51.521 Y14.724
X52.167 Y15.1
X52.798 Y15.488
X53.415 Y15.887
X54.018 Y16.297
X54.606 Y16.718
X55.181 Y17.15
X55.742 Y17.593
X56.289 Y18.048
X56.823 Y18.513
X57.343 Y18.99
X57.85 Y19.478
X58.344 Y19.977
X58.824 Y20.488
X59.292 Y21.01
X59.747 Y21.543
X60.189 Y22.088
X60.619 Y22.644
X61.036 Y23.211
X61.441 Y23.79
X61.834 Y24.381
X62.214 Y24.983
X62.583 Y25.597
X62.94 Y26.222
X63.286 Y26.859
X63.619 Y27.508
X63.942 Y28.168
X64.253 Y28.84
X64.553 Y29.523
X64.843 Y30.218
X65.121 Y30.925
X65.388 Y31.643
X65.645 Y32.372
X65.892 Y33.112
X66.128 Y33.864
X66.355 Y34.627
X66.571 Y35.401
X66.778 Y36.186
X66.975 Y36.982
X67.162 Y37.789
X67.341 Y38.606
X67.51 Y39.434
X67.671 Y40.272
X67.822 Y41.116
X68.101 Y42.848
X68.348 Y44.614
X68.564 Y46.419
X68.752 Y48.262
X68.914 Y50.14
X69.051 Y52.053
X69.164 Y54
X69.257 Y55.979
X69.332 Y57.989
X69.389 Y60.03
X69.431 Y62.099
X69.461 Y64.195
X69.479 Y66.317
X69.491 Y70.64
X69.482 Y75.052
X69.467 Y79.546
Y79.549
X69.46 Y84.113
Y84.121
X69.473 Y88.748
G2 Y88.758 I1.587 J-0.004
G1 X69.517 Y93.441
G2 X69.518 Y93.451 I1.587 J-0.015
G1 X69.555 Y95.811
Y95.819
X69.605 Y98.191
Y98.199
X69.667 Y100.582
Y100.591
X69.743 Y102.984
Y102.994
X69.834 Y105.396
Y105.406
X69.94 Y107.818
G2 X69.941 Y107.828 I1.586 J-0.07
G1 X70.063 Y110.248
G2 X70.064 Y110.259 I1.585 J-0.08
G1 X70.203 Y112.688
G2 X70.204 Y112.699 I1.585 J-0.091
G1 X70.361 Y115.134
G2 X70.362 Y115.146 I1.584 J-0.102
G1 X70.538 Y117.589
G2 Y117.601 I1.583 J-0.114
G1 X70.733 Y120.051
G2 X70.734 Y120.063 I1.583 J-0.126
G1 X70.948 Y122.518
G2 X70.949 Y122.53 I1.582 J-0.138
G1 X71.183 Y124.992
G2 X71.184 Y125.005 I1.58 J-0.15
G1 X71.439 Y127.472
G2 X71.44 Y127.485 I1.579 J-0.163
G1 X71.715 Y129.957
G2 X71.717 Y129.969 I1.578 J-0.176
G1 X72.013 Y132.446
G2 X72.015 Y132.46 I1.576 J-0.188
G1 X72.332 Y134.941
G2 X72.334 Y134.955 I1.575 J-0.201
G1 X72.673 Y137.441
G2 X72.675 Y137.454 I1.573 J-0.215
G1 X73.036 Y139.944
G2 X73.038 Y139.957 I1.571 J-0.228
G1 X73.421 Y142.45
G2 X73.423 Y142.463 I1.569 J-0.241
G1 X73.829 Y144.961
G2 X73.831 Y144.975 I1.567 J-0.254
G1 X74.259 Y147.476
G2 X74.261 Y147.489 I1.565 J-0.268
G1 X74.711 Y149.993
G2 X74.714 Y150.006 I1.562 J-0.281
G1 X75.187 Y152.513
G2 X75.189 Y152.526 I1.56 J-0.294
G1 X75.685 Y155.037
G2 X75.687 Y155.051 I1.557 J-0.307
G1 X76.206 Y157.564
G2 X76.208 Y157.577 I1.555 J-0.321
G1 X76.749 Y160.093
G2 X76.752 Y160.106 I1.552 J-0.334
G1 X77.316 Y162.625
G2 X77.319 Y162.638 I1.549 J-0.347
G1 X77.905 Y165.159
G2 X77.908 Y165.172 I1.546 J-0.36
G1 X78.518 Y167.696
G2 X78.521 Y167.708 I1.543 J-0.373
G1 X79.153 Y170.235
G2 X79.156 Y170.248 I1.54 J-0.385
G1 X79.811 Y172.777
G2 X79.814 Y172.789 I1.537 J-0.398
G1 X80.492 Y175.32
G2 X80.495 Y175.333 I1.534 J-0.41
G1 X81.195 Y177.867
G2 X81.199 Y177.879 I1.53 J-0.423
G1 X81.921 Y180.415
G2 X81.925 Y180.427 I1.527 J-0.435
G1 X82.67 Y182.965
G2 X82.674 Y182.977 I1.523 J-0.447
G1 X83.442 Y185.518
G2 X83.445 Y185.53 I1.52 J-0.459
G1 X84.236 Y188.073
G2 X84.24 Y188.085 I1.516 J-0.471
G1 X85.053 Y190.63
G2 X85.057 Y190.642 I1.512 J-0.483
G1 X85.372 Y191.604
X80.823 Y192.848
X80.785 Y192.858
X80.762 Y192.862
X80.747 Y192.865
X80.731 Y192.867
X80.715 Y192.868
X80.699
X80.683
X80.658 Y192.866
X80.633 Y192.864
X80.627 Y192.863
X80.603 Y192.858
X80.582 Y192.853
X80.57 Y192.849
X80.55 Y192.843
X80.54 Y192.838
X80.523 Y192.831
X80.499 Y192.819
X80.484 Y192.811
X80.477 Y192.807
X80.459 Y192.794
X80.438 Y192.779
X80.43 Y192.773
X80.418 Y192.762
X80.397 Y192.742
X80.388 Y192.732
X80.379 Y192.722
X80.364 Y192.703
X80.336 Y192.664
X80.137 Y192.386
G2 X80.101 Y192.337 I-1.291 J0.924
G1 X79.899 Y192.077
G2 X79.858 Y192.027 I-1.255 J0.973
G1 X79.658 Y191.789
G2 X79.61 Y191.735 I-1.214 J1.023
G1 X79.411 Y191.519
G2 X79.352 Y191.458 I-1.166 J1.077
G1 X79.153 Y191.265
G2 X79.087 Y191.204 I-1.107 J1.138
G1 X78.89 Y191.033
G2 X78.807 Y190.966 I-1.041 J1.199
G1 X78.611 Y190.818
G2 X78.522 Y190.755 I-0.958 J1.266
G1 X78.328 Y190.628
G2 X78.214 Y190.56 I-0.869 J1.329
G1 X78.022 Y190.456
G2 X77.901 Y190.398 I-0.755 J1.397
G1 X77.71 Y190.315
G2 X77.565 Y190.26 I-0.634 J1.455
G1 X77.376 Y190.199
G2 X77.221 Y190.157 I-0.489 J1.51
G1 X77.035 Y190.117
G2 X76.865 Y190.09 I-0.334 J1.552
G1 X76.682 Y190.071
G2 X76.501 Y190.063 I-0.164 J1.579
G1 X76.32 Y190.065
G2 X76.142 Y190.077 I0.018 J1.587
G1 X75.965 Y190.099
G2 X75.778 Y190.133 I0.196 J1.575
G1 X75.605 Y190.176
G2 X75.448 Y190.224 I0.383 J1.541
G1 X75.279 Y190.285
G2 X75.115 Y190.355 I0.54 J1.493
G1 X74.951 Y190.436
G2 X74.812 Y190.514 I0.705 J1.423
G1 X74.655 Y190.613
G2 X74.534 Y190.697 I0.844 J1.345
G1 X74.382 Y190.813
G2 X74.272 Y190.906 I0.965 J1.261
G1 X74.127 Y191.039
G2 X74.032 Y191.134 I1.075 J1.168
G1 X73.895 Y191.283
G2 X73.812 Y191.382 I1.17 J1.073
G1 X73.684 Y191.547
G2 X73.617 Y191.64 I1.254 J0.974
G1 X73.498 Y191.818
G2 X73.436 Y191.919 I1.321 J0.881
G1 X73.328 Y192.111
G2 X73.277 Y192.208 I1.382 J0.78
G1 X73.18 Y192.412
G2 X73.136 Y192.512 I1.433 J0.683
G1 X73.051 Y192.729
G2 X73.017 Y192.825 I1.477 J0.583
G1 X72.944 Y193.05
G2 X72.915 Y193.153 I1.511 J0.486
G1 X72.857 Y193.388
G2 X72.835 Y193.489 I1.54 J0.383
G1 X72.791 Y193.732
G2 X72.776 Y193.834 I1.562 J0.282
G1 X72.748 Y194.084
G2 X72.739 Y194.188 I1.577 J0.18
G1 X72.727 Y194.444
G2 X72.725 Y194.548 I1.586 J0.076
G1 X72.73 Y194.808
G2 X72.735 Y194.913 I1.587 J-0.028
G1 X72.757 Y195.178
G2 X72.77 Y195.283 I1.582 J-0.133
G1 X72.81 Y195.55
G2 X72.829 Y195.653 I1.57 J-0.238
G1 X72.889 Y195.922
G2 X72.915 Y196.026 I1.55 J-0.341
G1 X72.994 Y196.295
G2 X73.026 Y196.394 I1.524 J-0.445
G1 X73.124 Y196.663
G2 X73.163 Y196.759 I1.491 J-0.544
G1 X73.281 Y197.027
G2 X73.326 Y197.121 I1.453 J-0.64
G1 X73.464 Y197.386
G2 X73.513 Y197.473 I1.408 J-0.734
G1 X73.672 Y197.735
G2 X73.725 Y197.818 I1.359 J-0.821
G1 X73.904 Y198.076
G2 X73.961 Y198.153 I1.305 J-0.904
G1 X74.159 Y198.406
G2 X74.22 Y198.478 I1.248 J-0.981
G1 X74.438 Y198.725
G2 X74.498 Y198.789 I1.188 J-1.053
G1 X74.737 Y199.03
G2 X74.799 Y199.089 I1.128 J-1.117
G1 X75.057 Y199.323
G2 X75.123 Y199.379 I1.066 J-1.176
G1 X75.4 Y199.604
G2 X75.458 Y199.65 I1.001 J-1.232
G1 X75.754 Y199.868
G2 X75.819 Y199.913 I0.942 J-1.278
G1 X76.133 Y200.121
G2 X76.195 Y200.161 I0.877 J-1.323
G1 X76.527 Y200.359
G2 X76.587 Y200.393 I0.815 J-1.363
G1 X76.935 Y200.581
G2 X76.992 Y200.61 I0.754 J-1.397
G1 X77.356 Y200.788
G2 X77.417 Y200.817 I0.697 J-1.426
G1 X77.797 Y200.983
G2 X77.855 Y201.007 I0.636 J-1.455
G1 X78.25 Y201.161
G2 X78.309 Y201.182 I0.578 J-1.479
G1 X78.717 Y201.323
G2 X78.77 Y201.341 I0.518 J-1.5
G1 X79.191 Y201.47
G2 X79.246 Y201.485 I0.465 J-1.518
G1 X79.679 Y201.601
G2 X79.731 Y201.614 I0.411 J-1.533
G1 X80.175 Y201.717
G2 X80.232 Y201.73 I0.359 J-1.546
G1 X80.687 Y201.818
G2 X80.735 Y201.826 I0.302 J-1.559
G1 X81.199 Y201.901
G2 X81.255 Y201.909 I0.253 J-1.567
G1 X81.727 Y201.968
G2 X81.776 Y201.974 I0.197 J-1.575
G1 X82.255 Y202.019
G2 X82.306 Y202.022 I0.148 J-1.581
G1 X82.792 Y202.052
G2 X82.844 Y202.055 I0.098 J-1.584
G1 X83.335 Y202.069
G2 X83.384 Y202.07 I0.045 J-1.587
G1 X83.88 Y202.068
G2 X83.93 I-0.003 J-1.587
G1 X84.429 Y202.051
G2 X84.48 Y202.048 I-0.054 J-1.587
G1 X84.981 Y202.015
G2 X85.034 Y202.011 I-0.104 J-1.584
G1 X85.537 Y201.961
G2 X85.586 Y201.955 I-0.157 J-1.58
G1 X86.09 Y201.889
G2 X86.139 Y201.882 I-0.206 J-1.574
G1 X86.642 Y201.8
G2 X86.697 Y201.79 I-0.255 J-1.567
G1 X87.199 Y201.69
G2 X87.248 Y201.679 I-0.31 J-1.557
G1 X87.748 Y201.563
G2 X87.8 Y201.551 I-0.359 J-1.546
G1 X88.297 Y201.418
G2 X88.348 Y201.403 I-0.41 J-1.534
G1 X88.842 Y201.253
G2 X88.893 Y201.236 I-0.461 J-1.519
G1 X89.382 Y201.069
G2 X89.436 Y201.05 I-0.513 J-1.502
G1 X89.92 Y200.865
G2 X89.971 Y200.845 I-0.566 J-1.483
G1 X90.45 Y200.643
G2 X90.501 Y200.62 I-0.617 J-1.463
G1 X90.973 Y200.401
G2 X91.025 Y200.376 I-0.668 J-1.44
G1 X91.491 Y200.139
G2 X91.54 Y200.112 I-0.721 J-1.415
G1 X91.998 Y199.858
G2 X92.049 Y199.828 I-0.77 J-1.388
G1 X92.499 Y199.556
G2 X92.547 Y199.526 I-0.822 J-1.358
G1 X92.988 Y199.237
G2 X93.038 Y199.203 I-0.87 J-1.328
G1 X93.47 Y198.896
G2 X93.516 Y198.862 I-0.92 J-1.294
G1 X93.939 Y198.538
G2 X93.986 Y198.5 I-0.966 J-1.26
G1 X94.399 Y198.158
G2 X94.444 Y198.119 I-1.013 J-1.222
G1 X94.847 Y197.759
G2 X94.889 Y197.72 I-1.058 J-1.183
G1 X95.281 Y197.343
G2 X95.322 Y197.302 I-1.101 J-1.144
G1 X95.703 Y196.908
G2 X95.743 Y196.865 I-1.141 J-1.103
G1 X96.112 Y196.453
G2 X96.151 Y196.409 I-1.182 J-1.06
G1 X96.509 Y195.979
G2 X96.544 Y195.935 I-1.22 J-1.016
G1 X96.89 Y195.488
G2 X96.923 Y195.444 I-1.255 J-0.972
G1 X97.257 Y194.98
G2 X97.289 Y194.935 I-1.288 J-0.928
G1 X97.61 Y194.454
G2 X97.64 Y194.407 I-1.319 J-0.883
G1 X97.95 Y193.908
G2 X97.976 Y193.863 I-1.349 J-0.836
G1 X98.273 Y193.347
G2 X98.299 Y193.301 I-1.376 J-0.791
G1 X98.582 Y192.767
G2 X98.605 Y192.723 I-1.402 J-0.745
G1 X98.875 Y192.173
G2 X98.897 Y192.127 I-1.424 J-0.701
G1 X99.154 Y191.559
G2 X99.173 Y191.516 I-1.446 J-0.655
G1 X99.417 Y190.932
G2 X99.435 Y190.888 I-1.465 J-0.612
G1 X99.665 Y190.286
G2 X99.681 Y190.244 I-1.482 J-0.568
G1 X99.898 Y189.626
G2 X99.912 Y189.585 I-1.498 J-0.526
G1 X100.115 Y188.95
G2 X100.128 Y188.908 I-1.512 J-0.485
G1 X100.318 Y188.255
G2 X100.329 Y188.217 I-1.524 J-0.443
G1 X100.505 Y187.549
G2 X100.515 Y187.509 I-1.535 J-0.405
G1 X100.677 Y186.824
G2 X100.685 Y186.786 I-1.545 J-0.366
G1 X100.834 Y186.084
G2 X100.841 Y186.048 I-1.553 J-0.328
G1 X100.975 Y185.329
G2 X100.982 Y185.294 I-1.56 J-0.292
G1 X101.102 Y184.559
G2 X101.108 Y184.525 I-1.566 J-0.257
G1 X101.214 Y183.774
G2 X101.219 Y183.742 I-1.572 J-0.223
G1 X101.312 Y182.974
G2 X101.315 Y182.942 I-1.576 J-0.191
G1 X101.394 Y182.157
G2 X101.397 Y182.126 I-1.58 J-0.159
G1 X101.462 Y181.325
G2 X101.464 Y181.296 I-1.582 J-0.128
G1 X101.515 Y180.48
G2 X101.516 Y180.452 I-1.584 J-0.099
G1 X101.553 Y179.618
G2 X101.554 Y179.59 I-1.586 J-0.071
G1 X101.578 Y178.741
G2 Y178.715 I-1.587 J-0.043
G1 X101.587 Y177.85
G2 Y177.825 I-1.587 J-0.017
G1 X101.583 Y176.943
G2 X101.582 Y176.918 I-1.587 J0.008
G1 X101.564 Y176.021
G2 X101.563 Y175.998 I-1.587 J0.033
G1 X101.531 Y175.084
G2 X101.53 Y175.061 I-1.586 J0.056
G1 X101.483 Y174.132
G2 X101.482 Y174.11 I-1.586 J0.079
G1 X101.422 Y173.164
G2 X101.421 Y173.143 I-1.584 J0.101
G1 X101.347 Y172.181
G2 X101.345 Y172.161 I-1.583 J0.122
G1 X101.257 Y171.184
G2 X101.255 Y171.164 I-1.581 J0.142
G1 X101.162 Y170.251
Y100.241
Y0 Z-9 F33
G2 X99.574 Y-1.587 Z-9.088 I-1.587
G1 X44.809 Z-11
X12.074 F300
G2 Y16.588 J9.088
X21.088 Y8.659 J-9.088
G1 X21.916 Y8.65
X23.051
X24.17 Y8.661
X25.275 Y8.684
X26.366 Y8.719
X27.441 Y8.765
X28.502 Y8.823
X29.548 Y8.892
X30.58 Y8.973
X31.596 Y9.066
X32.598 Y9.17
X33.584 Y9.286
X34.556 Y9.413
X35.513 Y9.552
X36.456 Y9.703
X37.383 Y9.865
X38.295 Y10.038
X39.192 Y10.223
X40.074 Y10.419
X40.942 Y10.627
X41.794 Y10.846
X42.632 Y11.077
X43.454 Y11.319
X44.262 Y11.572
X45.054 Y11.837
X45.832 Y12.112
X46.595 Y12.4
X47.343 Y12.698
X48.076 Y13.008
X48.794 Y13.329
X49.498 Y13.661
X50.187 Y14.004
X50.862 Y14.358
X51.521 Y14.724
X52.167 Y15.1
X52.798 Y15.488
X53.415 Y15.887
X54.018 Y16.297
X54.606 Y16.718
X55.181 Y17.15
X55.742 Y17.593
X56.289 Y18.048
X56.823 Y18.513
X57.343 Y18.99
X57.85 Y19.478
X58.344 Y19.977
X58.824 Y20.488
X59.292 Y21.01
X59.747 Y21.543
X60.189 Y22.088
X60.619 Y22.644
X61.036 Y23.211
X61.441 Y23.79
X61.834 Y24.381
X62.214 Y24.983
X62.583 Y25.597
X62.94 Y26.222
X63.286 Y26.859
X63.619 Y27.508
X63.942 Y28.168
X64.253 Y28.84
X64.553 Y29.523
X64.843 Y30.218
X65.121 Y30.925
X65.388 Y31.643
X65.645 Y32.372
X65.892 Y33.112
X66.128 Y33.864
X66.355 Y34.627
X66.571 Y35.401
X66.778 Y36.186
X66.975 Y36.982
X67.162 Y37.789
X67.341 Y38.606
X67.51 Y39.434
X67.671 Y40.272
X67.822 Y41.116
X68.101 Y42.848
X68.348 Y44.614
X68.564 Y46.419
X68.752 Y48.262
X68.914 Y50.14
X69.051 Y52.053
X69.164 Y54
X69.257 Y55.979
X69.332 Y57.989
X69.389 Y60.03
X69.431 Y62.099
X69.461 Y64.195
X69.479 Y66.317
X69.491 Y70.64
X69.482 Y75.052
X69.467 Y79.546
Y79.549
X69.46 Y84.113
Y84.121
X69.473 Y88.748
G2 Y88.758 I1.587 J-0.004
G1 X69.517 Y93.441
G2 X69.518 Y93.451 I1.587 J-0.015
G1 X69.555 Y95.811
Y95.819
X69.605 Y98.191
Y98.199
X69.667 Y100.582
Y100.591
X69.743 Y102.984
Y102.994
X69.834 Y105.396
Y105.406
X69.94 Y107.818
G2 X69.941 Y107.828 I1.586 J-0.07
G1 X70.063 Y110.248
G2 X70.064 Y110.259 I1.585 J-0.08
G1 X70.203 Y112.688
G2 X70.204 Y112.699 I1.585 J-0.091
G1 X70.361 Y115.134
G2 X70.362 Y115.146 I1.584 J-0.102
G1 X70.538 Y117.589
G2 Y117.601 I1.583 J-0.114
G1 X70.733 Y120.051
G2 X70.734 Y120.063 I1.583 J-0.126
G1 X70.948 Y122.518
G2 X70.949 Y122.53 I1.582 J-0.138
G1 X71.183 Y124.992
G2 X71.184 Y125.005 I1.58 J-0.15
G1 X71.439 Y127.472
G2 X71.44 Y127.485 I1.579 J-0.163
G1 X71.715 Y129.957
G2 X71.717 Y129.969 I1.578 J-0.176
G1 X72.013 Y132.446
G2 X72.015 Y132.46 I1.576 J-0.188
G1 X72.332 Y134.941
G2 X72.334 Y134.955 I1.575 J-0.201
G1 X72.673 Y137.441
G2 X72.675 Y137.454 I1.573 J-0.215
G1 X73.036 Y139.944
G2 X73.038 Y139.957 I1.571 J-0.228
G1 X73.421 Y142.45
G2 X73.423 Y142.463 I1.569 J-0.241
G1 X73.829 Y144.961
G2 X73.831 Y144.975 I1.567 J-0.254
G1 X74.259 Y147.476
G2 X74.261 Y147.489 I1.565 J-0.268
G1 X74.711 Y149.993
G2 X74.714 Y150.006 I1.562 J-0.281
G1 X75.187 Y152.513
G2 X75.189 Y152.526 I1.56 J-0.294
G1 X75.685 Y155.037
G2 X75.687 Y155.051 I1.557 J-0.307
G1 X76.206 Y157.564
G2 X76.208 Y157.577 I1.555 J-0.321
G1 X76.749 Y160.093
G2 X76.752 Y160.106 I1.552 J-0.334
G1 X77.316 Y162.625
G2 X77.319 Y162.638 I1.549 J-0.347
G1 X77.905 Y165.159
G2 X77.908 Y165.172 I1.546 J-0.36
G1 X78.518 Y167.696
G2 X78.521 Y167.708 I1.543 J-0.373
G1 X79.153 Y170.235
G2 X79.156 Y170.248 I1.54 J-0.385
G1 X79.811 Y172.777
G2 X79.814 Y172.789 I1.537 J-0.398
G1 X80.492 Y175.32
G2 X80.495 Y175.333 I1.534 J-0.41
G1 X81.195 Y177.867
G2 X81.199 Y177.879 I1.53 J-0.423
G1 X81.921 Y180.415
G2 X81.925 Y180.427 I1.527 J-0.435
G1 X82.67 Y182.965
G2 X82.674 Y182.977 I1.523 J-0.447
G1 X83.442 Y185.518
G2 X83.445 Y185.53 I1.52 J-0.459
G1 X84.236 Y188.073
G2 X84.24 Y188.085 I1.516 J-0.471
G1 X85.053 Y190.63
G2 X85.057 Y190.642 I1.512 J-0.483
G1 X85.372 Y191.604
X80.823 Y192.848
X80.785 Y192.858
X80.762 Y192.862
X80.747 Y192.865
X80.731 Y192.867
X80.715 Y192.868
X80.699
X80.683
X80.658 Y192.866
X80.633 Y192.864
X80.627 Y192.863
X80.603 Y192.858
X80.582 Y192.853
X80.57 Y192.849
X80.55 Y192.843
X80.54 Y192.838
X80.523 Y192.831
X80.499 Y192.819
X80.484 Y192.811
X80.477 Y192.807
X80.459 Y192.794
X80.438 Y192.779
X80.43 Y192.773
X80.418 Y192.762
X80.397 Y192.742
X80.388 Y192.732
X80.379 Y192.722
X80.364 Y192.703
X80.336 Y192.664
X80.137 Y192.386
G2 X80.101 Y192.337 I-1.291 J0.924
G1 X79.899 Y192.077
G2 X79.858 Y192.027 I-1.255 J0.973
G1 X79.658 Y191.789
G2 X79.61 Y191.735 I-1.214 J1.023
G1 X79.411 Y191.519
G2 X79.352 Y191.458 I-1.166 J1.077
G1 X79.153 Y191.265
G2 X79.087 Y191.204 I-1.107 J1.138
G1 X78.89 Y191.033
G2 X78.807 Y190.966 I-1.041 J1.199
G1 X78.611 Y190.818
G2 X78.522 Y190.755 I-0.958 J1.266
G1 X78.328 Y190.628
G2 X78.214 Y190.56 I-0.869 J1.329
G1 X78.022 Y190.456
G2 X77.901 Y190.398 I-0.755 J1.397
G1 X77.71 Y190.315
G2 X77.565 Y190.26 I-0.634 J1.455
G1 X77.376 Y190.199
G2 X77.221 Y190.157 I-0.489 J1.51
G1 X77.035 Y190.117
G2 X76.865 Y190.09 I-0.334 J1.552
G1 X76.682 Y190.071
G2 X76.501 Y190.063 I-0.164 J1.579
G1 X76.32 Y190.065
G2 X76.142 Y190.077 I0.018 J1.587
G1 X75.965 Y190.099
G2 X75.778 Y190.133 I0.196 J1.575
G1 X75.605 Y190.176
G2 X75.448 Y190.224 I0.383 J1.541
G1 X75.279 Y190.285
G2 X75.115 Y190.355 I0.54 J1.493
G1 X74.951 Y190.436
G2 X74.812 Y190.514 I0.705 J1.423
G1 X74.655 Y190.613
G2 X74.534 Y190.697 I0.844 J1.345
G1 X74.382 Y190.813
G2 X74.272 Y190.906 I0.965 J1.261
G1 X74.127 Y191.039
G2 X74.032 Y191.134 I1.075 J1.168
G1 X73.895 Y191.283
G2 X73.812 Y191.382 I1.17 J1.073
G1 X73.684 Y191.547
G2 X73.617 Y191.64 I1.254 J0.974
G1 X73.498 Y191.818
G2 X73.436 Y191.919 I1.321 J0.881
G1 X73.328 Y192.111
G2 X73.277 Y192.208 I1.382 J0.78
G1 X73.18 Y192.412
G2 X73.136 Y192.512 I1.433 J0.683
G1 X73.051 Y192.729
G2 X73.017 Y192.825 I1.477 J0.583
G1 X72.944 Y193.05
G2 X72.915 Y193.153 I1.511 J0.486
G1 X72.857 Y193.388
G2 X72.835 Y193.489 I1.54 J0.383
G1 X72.791 Y193.732
G2 X72.776 Y193.834 I1.562 J0.282
G1 X72.748 Y194.084
G2 X72.739 Y194.188 I1.577 J0.18
G1 X72.727 Y194.444
G2 X72.725 Y194.548 I1.586 J0.076
G1 X72.73 Y194.808
G2 X72.735 Y194.913 I1.587 J-0.028
G1 X72.757 Y195.178
G2 X72.77 Y195.283 I1.582 J-0.133
G1 X72.81 Y195.55
G2 X72.829 Y195.653 I1.57 J-0.238
G1 X72.889 Y195.922
G2 X72.915 Y196.026 I1.55 J-0.341
G1 X72.994 Y196.295
G2 X73.026 Y196.394 I1.524 J-0.445
G1 X73.124 Y196.663
G2 X73.163 Y196.759 I1.491 J-0.544
G1 X73.281 Y197.027
G2 X73.326 Y197.121 I1.453 J-0.64
G1 X73.464 Y197.386
G2 X73.513 Y197.473 I1.408 J-0.734
G1 X73.672 Y197.735
G2 X73.725 Y197.818 I1.359 J-0.821
G1 X73.904 Y198.076
G2 X73.961 Y198.153 I1.305 J-0.904
G1 X74.159 Y198.406
G2 X74.22 Y198.478 I1.248 J-0.981
G1 X74.438 Y198.725
G2 X74.498 Y198.789 I1.188 J-1.053
G1 X74.737 Y199.03
G2 X74.799 Y199.089 I1.128 J-1.117
G1 X75.057 Y199.323
G2 X75.123 Y199.379 I1.066 J-1.176
G1 X75.4 Y199.604
G2 X75.458 Y199.65 I1.001 J-1.232
G1 X75.754 Y199.868
G2 X75.819 Y199.913 I0.942 J-1.278
G1 X76.133 Y200.121
G2 X76.195 Y200.161 I0.877 J-1.323
G1 X76.527 Y200.359
G2 X76.587 Y200.393 I0.815 J-1.363
G1 X76.935 Y200.581
G2 X76.992 Y200.61 I0.754 J-1.397
G1 X77.356 Y200.788
G2 X77.417 Y200.817 I0.697 J-1.426
G1 X77.797 Y200.983
G2 X77.855 Y201.007 I0.636 J-1.455
G1 X78.25 Y201.161
G2 X78.309 Y201.182 I0.578 J-1.479
G1 X78.717 Y201.323
G2 X78.77 Y201.341 I0.518 J-1.5
G1 X79.191 Y201.47
G2 X79.246 Y201.485 I0.465 J-1.518
G1 X79.679 Y201.601
G2 X79.731 Y201.614 I0.411 J-1.533
G1 X80.175 Y201.717
G2 X80.232 Y201.73 I0.359 J-1.546
G1 X80.687 Y201.818
G2 X80.735 Y201.826 I0.302 J-1.559
G1 X81.199 Y201.901
G2 X81.255 Y201.909 I0.253 J-1.567
G1 X81.727 Y201.968
G2 X81.776 Y201.974 I0.197 J-1.575
G1 X82.255 Y202.019
G2 X82.306 Y202.022 I0.148 J-1.581
G1 X82.792 Y202.052
G2 X82.844 Y202.055 I0.098 J-1.584
G1 X83.335 Y202.069
G2 X83.384 Y202.07 I0.045 J-1.587
G1 X83.88 Y202.068
G2 X83.93 I-0.003 J-1.587
G1 X84.429 Y202.051
G2 X84.48 Y202.048 I-0.054 J-1.587
G1 X84.981 Y202.015
G2 X85.034 Y202.011 I-0.104 J-1.584
G1 X85.537 Y201.961
G2 X85.586 Y201.955 I-0.157 J-1.58
G1 X86.09 Y201.889
G2 X86.139 Y201.882 I-0.206 J-1.574
G1 X86.642 Y201.8
G2 X86.697 Y201.79 I-0.255 J-1.567
G1 X87.199 Y201.69
G2 X87.248 Y201.679 I-0.31 J-1.557
G1 X87.748 Y201.563
G2 X87.8 Y201.551 I-0.359 J-1.546
G1 X88.297 Y201.418
G2 X88.348 Y201.403 I-0.41 J-1.534
G1 X88.842 Y201.253
G2 X88.893 Y201.236 I-0.461 J-1.519
G1 X89.382 Y201.069
G2 X89.436 Y201.05 I-0.513 J-1.502
G1 X89.92 Y200.865
G2 X89.971 Y200.845 I-0.566 J-1.483
G1 X90.45 Y200.643
G2 X90.501 Y200.62 I-0.617 J-1.463
G1 X90.973 Y200.401
G2 X91.025 Y200.376 I-0.668 J-1.44
G1 X91.491 Y200.139
G2 X91.54 Y200.112 I-0.721 J-1.415
G1 X91.998 Y199.858
G2 X92.049 Y199.828 I-0.77 J-1.388
G1 X92.499 Y199.556
G2 X92.547 Y199.526 I-0.822 J-1.358
G1 X92.988 Y199.237
G2 X93.038 Y199.203 I-0.87 J-1.328
G1 X93.47 Y198.896
G2 X93.516 Y198.862 I-0.92 J-1.294
G1 X93.939 Y198.538
G2 X93.986 Y198.5 I-0.966 J-1.26
G1 X94.399 Y198.158
G2 X94.444 Y198.119 I-1.013 J-1.222
G1 X94.847 Y197.759
G2 X94.889 Y197.72 I-1.058 J-1.183
G1 X95.281 Y197.343
G2 X95.322 Y197.302 I-1.101 J-1.144
G1 X95.703 Y196.908
G2 X95.743 Y196.865 I-1.141 J-1.103
G1 X96.112 Y196.453
G2 X96.151 Y196.409 I-1.182 J-1.06
G1 X96.509 Y195.979
G2 X96.544 Y195.935 I-1.22 J-1.016
G1 X96.89 Y195.488
G2 X96.923 Y195.444 I-1.255 J-0.972
G1 X97.257 Y194.98
G2 X97.289 Y194.935 I-1.288 J-0.928
G1 X97.61 Y194.454
G2 X97.64 Y194.407 I-1.319 J-0.883
G1 X97.95 Y193.908
G2 X97.976 Y193.863 I-1.349 J-0.836
G1 X98.273 Y193.347
G2 X98.299 Y193.301 I-1.376 J-0.791
G1 X98.582 Y192.767
G2 X98.605 Y192.723 I-1.402 J-0.745
G1 X98.875 Y192.173
G2 X98.897 Y192.127 I-1.424 J-0.701
G1 X99.154 Y191.559
G2 X99.173 Y191.516 I-1.446 J-0.655
G1 X99.417 Y190.932
G2 X99.435 Y190.888 I-1.465 J-0.612
G1 X99.665 Y190.286
G2 X99.681 Y190.244 I-1.482 J-0.568
G1 X99.898 Y189.626
G2 X99.912 Y189.585 I-1.498 J-0.526
G1 X100.115 Y188.95
G2 X100.128 Y188.908 I-1.512 J-0.485
G1 X100.318 Y188.255
G2 X100.329 Y188.217 I-1.524 J-0.443
G1 X100.505 Y187.549
G2 X100.515 Y187.509 I-1.535 J-0.405
G1 X100.677 Y186.824
G2 X100.685 Y186.786 I-1.545 J-0.366
G1 X100.834 Y186.084
G2 X100.841 Y186.048 I-1.553 J-0.328
G1 X100.975 Y185.329
G2 X100.982 Y185.294 I-1.56 J-0.292
G1 X101.102 Y184.559
G2 X101.108 Y184.525 I-1.566 J-0.257
G1 X101.214 Y183.774
G2 X101.219 Y183.742 I-1.572 J-0.223
G1 X101.312 Y182.974
G2 X101.315 Y182.942 I-1.576 J-0.191
G1 X101.394 Y182.157
G2 X101.397 Y182.126 I-1.58 J-0.159
G1 X101.462 Y181.325
G2 X101.464 Y181.296 I-1.582 J-0.128
G1 X101.515 Y180.48
G2 X101.516 Y180.452 I-1.584 J-0.099
G1 X101.553 Y179.618
G2 X101.554 Y179.59 I-1.586 J-0.071
G1 X101.578 Y178.741
G2 Y178.715 I-1.587 J-0.043
G1 X101.587 Y177.85
G2 Y177.825 I-1.587 J-0.017
G1 X101.583 Y176.943
G2 X101.582 Y176.918 I-1.587 J0.008
G1 X101.564 Y176.021
G2 X101.563 Y175.998 I-1.587 J0.033
G1 X101.531 Y175.084
G2 X101.53 Y175.061 I-1.586 J0.056
G1 X101.483 Y174.132
G2 X101.482 Y174.11 I-1.586 J0.079
G1 X101.422 Y173.164
G2 X101.421 Y173.143 I-1.584 J0.101
G1 X101.347 Y172.181
G2 X101.345 Y172.161 I-1.583 J0.122
G1 X101.257 Y171.184
G2 X101.255 Y171.164 I-1.581 J0.142
G1 X101.162 Y170.251
Y0
G2 X99.574 Y-1.587 I-1.587
G1 X44.809
G3 X44.492 Y-1.905 J-0.317 F100
G1 Y-2.223
G19 G2 Y-2.54 Z-10.683 K0.318
G0 Z11
G17
M9
G28 G91 Z0
G28 X0 Y0
M30
%
