%
(1001)
(T3  D=13 CR=0 - ZMIN=-3 - face mill)
G90 G94
G17
G21
G28 G91 Z0
G90

(2D Pocket1)
M9
T3 M6
S10000 M3
G54
M8
G0 X39.13 Y-7.831
Z10
Z5
G1 Z-1.7 F300
G19 G3 Y-6.531 Z-3 J1.3
G1 Y-6.393
Y206.388
Y206.439
G3 Y207.739 Z-1.7 K1.3
G0 Z5
X45.3 Y-7.759
G1 Z-1.83 F300
X45.301 Y-7.752 Z-1.961
X45.304 Y-7.73 Z-2.09
X45.31 Y-7.694 Z-2.216
X45.318 Y-7.645 Z-2.338
X45.328 Y-7.582 Z-2.452
X45.34 Y-7.507 Z-2.559
X45.353 Y-7.421 Z-2.657
X45.369 Y-7.324 Z-2.745
X45.385 Y-7.218 Z-2.821
X45.403 Y-7.105 Z-2.884
X45.422 Y-6.985 Z-2.934
X45.442 Y-6.861 Z-2.971
X45.462 Y-6.733 Z-2.993
X45.483 Y-6.603 Z-3
X45.484 Y-6.596
G17 G3 X45.5 Y-6.392 I-1.284 J0.203
G1 Y200
Y206.389
G3 X45.484 Y206.592 I-1.3
G1 X45.476 Y206.642
X45.455 Y206.777 Z-2.993
X45.434 Y206.909 Z-2.972
X45.413 Y207.039 Z-2.936
X45.393 Y207.165 Z-2.888
X45.374 Y207.284 Z-2.826
X45.357 Y207.397 Z-2.752
X45.34 Y207.501 Z-2.666
X45.325 Y207.596 Z-2.57
X45.312 Y207.681 Z-2.464
X45.3 Y207.754 Z-2.35
X45.29 Y207.815 Z-2.229
X45.283 Y207.863 Z-2.102
X45.277 Y207.898 Z-1.97
X45.274 Y207.919 Z-1.836
X45.273 Y207.926 Z-1.7
G0 Z5
X32.87 Y207.835
G1 Z-1.7 F300
G19 G2 Y206.535 Z-3 J-1.3
G1 Y206.397
Y-6.384
Y-6.435
G2 Y-7.735 Z-1.7 K1.3
G0 Z5
X26.7 Y207.759
G1 Z-1.83 F300
X26.699 Y207.752 Z-1.961
X26.696 Y207.73 Z-2.09
X26.69 Y207.694 Z-2.216
X26.682 Y207.645 Z-2.338
X26.672 Y207.582 Z-2.452
X26.66 Y207.507 Z-2.559
X26.647 Y207.421 Z-2.657
X26.631 Y207.324 Z-2.745
X26.615 Y207.218 Z-2.821
X26.597 Y207.105 Z-2.884
X26.578 Y206.985 Z-2.934
X26.558 Y206.861 Z-2.971
X26.538 Y206.733 Z-2.993
X26.517 Y206.603 Z-3
X26.516 Y206.596
G17 G3 X26.5 Y206.392 I1.284 J-0.203
G1 Y0
Y-6.389
G3 X26.516 Y-6.592 I1.3
G1 X26.524 Y-6.642
X26.545 Y-6.777 Z-2.993
X26.566 Y-6.909 Z-2.972
X26.587 Y-7.039 Z-2.936
X26.607 Y-7.165 Z-2.888
X26.626 Y-7.284 Z-2.826
X26.643 Y-7.397 Z-2.752
X26.66 Y-7.501 Z-2.666
X26.675 Y-7.596 Z-2.57
X26.688 Y-7.681 Z-2.464
X26.7 Y-7.754 Z-2.35
X26.71 Y-7.815 Z-2.229
X26.717 Y-7.863 Z-2.102
X26.723 Y-7.898 Z-1.97
X26.726 Y-7.919 Z-1.836
X26.727 Y-7.926 Z-1.7
G0 Z10
X160.705 Y207.829
Z5
G1 Z-1.7 F300
G19 G2 Y206.529 Z-3 J-1.3
G1 Y206.391
Y-6.39
Y-6.441
G2 Y-7.741 Z-1.7 K1.3
G0 Z5
X154.2 Y207.751
G1 Z-1.83 F300
X154.199 Y207.743 Z-1.961
X154.196 Y207.722 Z-2.09
X154.19 Y207.686 Z-2.216
X154.182 Y207.636 Z-2.338
X154.172 Y207.573 Z-2.452
X154.16 Y207.498 Z-2.559
X154.147 Y207.412 Z-2.657
X154.131 Y207.315 Z-2.745
X154.115 Y207.21 Z-2.821
X154.097 Y207.096 Z-2.884
X154.078 Y206.977 Z-2.934
X154.058 Y206.852 Z-2.971
X154.038 Y206.724 Z-2.993
X154.017 Y206.595 Z-3
X154.016 Y206.587
G17 G3 X154 Y206.384 I1.284 J-0.203
G1 Y-6.389
G3 X154.016 Y-6.592 I1.3
G1 X154.024 Y-6.642
X154.045 Y-6.777 Z-2.993
X154.066 Y-6.909 Z-2.972
X154.087 Y-7.039 Z-2.936
X154.107 Y-7.165 Z-2.888
X154.126 Y-7.284 Z-2.826
X154.143 Y-7.397 Z-2.752
X154.16 Y-7.501 Z-2.666
X154.175 Y-7.596 Z-2.57
X154.188 Y-7.681 Z-2.464
X154.2 Y-7.754 Z-2.35
X154.21 Y-7.815 Z-2.229
X154.217 Y-7.863 Z-2.102
X154.223 Y-7.898 Z-1.97
X154.226 Y-7.919 Z-1.836
X154.227 Y-7.926 Z-1.7
G0 Z5
X167.295 Y-7.825
G1 Z-1.7 F300
G19 G3 Y-6.525 Z-3 J1.3
G1 Y-6.387
Y206.394
Y206.445
G3 Y207.745 Z-1.7 K1.3
G0 Z5
X173.8 Y-7.751
G1 Z-1.83 F300
X173.801 Y-7.743 Z-1.961
X173.804 Y-7.722 Z-2.09
X173.81 Y-7.686 Z-2.216
X173.818 Y-7.636 Z-2.338
X173.828 Y-7.573 Z-2.452
X173.84 Y-7.498 Z-2.559
X173.853 Y-7.412 Z-2.657
X173.869 Y-7.315 Z-2.745
X173.885 Y-7.21 Z-2.821
X173.903 Y-7.096 Z-2.884
X173.922 Y-6.977 Z-2.934
X173.942 Y-6.852 Z-2.971
X173.962 Y-6.724 Z-2.993
X173.983 Y-6.595 Z-3
X173.984 Y-6.587
G17 G3 X174 Y-6.384 I-1.284 J0.203
G1 Y206.389
G3 X173.984 Y206.592 I-1.3
G1 X173.976 Y206.642
X173.955 Y206.777 Z-2.993
X173.934 Y206.909 Z-2.972
X173.913 Y207.039 Z-2.936
X173.893 Y207.165 Z-2.888
X173.874 Y207.284 Z-2.826
X173.857 Y207.397 Z-2.752
X173.84 Y207.501 Z-2.666
X173.825 Y207.596 Z-2.57
X173.812 Y207.681 Z-2.464
X173.8 Y207.754 Z-2.35
X173.79 Y207.815 Z-2.229
X173.783 Y207.863 Z-2.102
X173.777 Y207.898 Z-1.97
X173.774 Y207.919 Z-1.836
X173.773 Y207.926 Z-1.7
G0 Z10
M9
G28 G91 Z0
G28 X0 Y0
M30
%
