%
(1001)
(T2  D=3.175 CR=0 - ZMIN=-30 - flat end mill)
G90 G94
G17
G21
G28 G91 Z0
G90

(2D Contour top)
M9
T2 M6
S10000 M3
G54
M8
G0 X14.637 Y202.656
Z10
Z6
G1 Z2.322 F333
Y202.649 Z2.252
X14.638 Y202.625 Z2.185
X14.64 Y202.587 Z2.124
X14.642 Y202.537 Z2.074
X14.644 Y202.477 Z2.036
X14.647 Y202.41 Z2.013
X14.65 Y202.339 Z2.005
X14.663 Y202.022 F100
G2 X14.358 Y201.692 I-0.317 J-0.013
G1 X14.07 Y201.68 Z1.954 F200
G3 X13.999 Y201.676 Z1.941 I0.064 J-1.586
G1 X13.532 Y201.636 Z1.859
G3 X13.461 Y201.628 Z1.846 I0.135 J-1.582
G1 X12.995 Y201.567 Z1.763
G3 X12.925 Y201.556 Z1.751 I0.206 J-1.574
G1 X12.462 Y201.474 Z1.668
G3 X12.388 Y201.459 Z1.655 I0.277 J-1.563
G1 X11.928 Y201.355 Z1.571
G3 X11.856 Y201.337 Z1.558 I0.35 J-1.548
G1 X11.4 Y201.211 Z1.475
G3 X11.328 Y201.189 Z1.462 I0.423 J-1.53
G1 X10.876 Y201.041 Z1.378
G3 X10.806 Y201.017 Z1.365 I0.495 J-1.508
G1 X10.36 Y200.847 Z1.28
G3 X10.291 Y200.818 Z1.267 I0.565 J-1.484
G1 X9.85 Y200.626 Z1.183
G3 X9.78 Y200.594 Z1.169 I0.634 J-1.455
G1 X9.345 Y200.379 Z1.083
G3 X9.28 Y200.345 Z1.071 I0.704 J-1.423
G1 X8.852 Y200.108 Z0.984
G3 X8.789 Y200.071 Z0.971 I0.769 J-1.389
G1 X8.368 Y199.812 Z0.884
G3 X8.308 Y199.773 Z0.872 I0.832 J-1.352
G1 X7.894 Y199.492 Z0.783
G3 X7.835 Y199.45 Z0.771 I0.892 J-1.313
G1 X7.429 Y199.146 Z0.681
G3 X7.374 Y199.103 Z0.669 I0.952 J-1.271
G1 X6.976 Y198.777 Z0.578
G3 X6.927 Y198.734 Z0.567 I1.006 J-1.228
G1 X6.537 Y198.387 Z0.475
G3 X6.487 Y198.341 Z0.463 I1.056 J-1.185
G1 X6.106 Y197.971 Z0.369
G3 X6.061 Y197.925 Z0.357 I1.106 J-1.139
G1 X5.689 Y197.533 Z0.262
G3 X5.648 Y197.488 Z0.251 I1.152 J-1.093
G1 X5.285 Y197.075 Z0.155
G3 X5.247 Y197.029 Z0.144 I1.193 J-1.048
G1 X4.893 Y196.595 Z0.045
G3 X4.857 Y196.549 Z0.035 I1.231 J-1.002
G1 X4.513 Y196.093 Z-0.066
G3 X4.48 Y196.048 Z-0.076 I1.268 J-0.956
G1 X4.146 Y195.571 Z-0.178
G3 X4.117 Y195.528 Z-0.187 I1.3 J-0.911
G1 X3.793 Y195.031 Z-0.292
G3 X3.765 Y194.987 Z-0.301 I1.329 J-0.868
G1 X3.451 Y194.469 Z-0.408
G3 X3.426 Y194.427 Z-0.417 I1.357 J-0.824
G1 X3.122 Y193.889 Z-0.526
G3 X3.099 Y193.847 Z-0.534 I1.382 J-0.782
G1 X2.805 Y193.289 Z-0.645
G3 X2.785 Y193.249 Z-0.653 I1.404 J-0.74
G1 X2.5 Y192.671 Z-0.767
G3 X2.482 Y192.633 Z-0.774 I1.425 J-0.7
G1 X2.208 Y192.036 Z-0.89
G3 X2.192 Y191.999 Z-0.897 I1.443 J-0.662
G1 X1.928 Y191.383 Z-1.015
G3 X1.914 Y191.347 Z-1.022 I1.459 J-0.625
G1 X1.66 Y190.713 Z-1.142
G3 X1.646 Y190.677 Z-1.149 I1.474 J-0.589
G1 X1.403 Y190.023 Z-1.272
G3 X1.391 Y189.991 Z-1.278 I1.488 J-0.553
G1 X1.159 Y189.32 Z-1.404
G3 X1.148 Y189.287 Z-1.41 I1.5 J-0.521
G1 X0.925 Y188.598 Z-1.537
G3 X0.915 Y188.567 Z-1.543 I1.511 J-0.488
G1 X0.703 Y187.86 Z-1.673
G3 X0.694 Y187.83 Z-1.679 I1.52 J-0.457
G1 X0.492 Y187.106 Z-1.811
G3 X0.484 Y187.078 Z-1.816 I1.529 J-0.427
G1 X0.292 Y186.337 Z-1.951
G3 X0.285 Y186.309 Z-1.956 I1.537 J-0.399
G1 X0.103 Y185.552 Z-2.094
G3 X0.097 Y185.526 Z-2.098 I1.543 J-0.371
G1 X-0.075 Y184.753 Z-2.238
G3 X-0.081 Y184.727 Z-2.243 I1.55 J-0.345
G1 X-0.243 Y183.937 Z-2.385
G3 X-0.248 Y183.913 Z-2.389 I1.555 J-0.319
G1 X-0.4 Y183.108 Z-2.534
G3 X-0.404 Y183.085 Z-2.538 I1.56 J-0.295
G1 X-0.547 Y182.265 Z-2.685
G3 X-0.551 Y182.242 Z-2.689 I1.564 J-0.272
G1 X-0.684 Y181.406 Z-2.838
G3 X-0.687 Y181.385 Z-2.842 I1.568 J-0.249
G1 X-0.81 Y180.535 Z-2.993
G3 X-0.813 Y180.514 Z-2.997 I1.571 J-0.228
G1 X-0.927 Y179.649 Z-3.151
G3 X-0.93 Y179.629 Z-3.154 I1.574 J-0.207
G1 X-1.034 Y178.75 Z-3.31
G3 X-1.036 Y178.731 Z-3.314 I1.576 J-0.187
G1 X-1.131 Y177.838 Z-3.472
G3 X-1.133 Y177.819 Z-3.475 I1.579 J-0.168
G1 X-1.219 Y176.912 Z-3.636
G3 X-1.22 Y176.894 Z-3.639 I1.58 J-0.149
G1 X-1.297 Y175.973 Z-3.802
G3 X-1.298 Y175.948 Z-3.807 I1.582 J-0.131
G1 X-1.424 Y174.067 Z-4.139
G3 X-1.426 Y174.034 Z-4.145 I1.584 J-0.106
G1 X-1.515 Y172.1 Z-4.486
G3 X-1.516 Y172.07 Z-4.492 I1.586 J-0.073
G1 X-1.569 Y170.084 Z-4.842
G3 X-1.57 Y170.055 Z-4.847 I1.587 J-0.043
G1 X-1.577 Y169.215 Z-4.995
Y169.16 Z-5
X-1.57 Y170.055 F300
G2 X-1.569 Y170.084 I1.587 J-0.014
G1 X-1.516 Y172.07
G2 X-1.515 Y172.1 I1.587 J-0.043
G1 X-1.426 Y174.034
G2 X-1.424 Y174.067 I1.586 J-0.073
G1 X-1.298 Y175.948
G2 X-1.297 Y175.973 I1.584 J-0.106
G1 X-1.22 Y176.894
G2 X-1.219 Y176.912 I1.582 J-0.131
G1 X-1.133 Y177.819
G2 X-1.131 Y177.838 I1.58 J-0.149
G1 X-1.036 Y178.731
G2 X-1.034 Y178.75 I1.579 J-0.168
G1 X-0.93 Y179.629
G2 X-0.927 Y179.649 I1.576 J-0.187
G1 X-0.813 Y180.514
G2 X-0.81 Y180.535 I1.574 J-0.207
G1 X-0.687 Y181.385
G2 X-0.684 Y181.406 I1.571 J-0.228
G1 X-0.551 Y182.242
G2 X-0.547 Y182.265 I1.568 J-0.249
G1 X-0.404 Y183.085
G2 X-0.4 Y183.108 I1.564 J-0.272
G1 X-0.248 Y183.913
G2 X-0.243 Y183.937 I1.56 J-0.295
G1 X-0.081 Y184.727
G2 X-0.075 Y184.753 I1.555 J-0.319
G1 X0.097 Y185.526
G2 X0.103 Y185.552 I1.55 J-0.345
G1 X0.285 Y186.309
G2 X0.292 Y186.337 I1.543 J-0.371
G1 X0.484 Y187.078
G2 X0.492 Y187.106 I1.537 J-0.399
G1 X0.694 Y187.83
G2 X0.703 Y187.86 I1.529 J-0.427
G1 X0.915 Y188.567
G2 X0.925 Y188.598 I1.52 J-0.457
G1 X1.148 Y189.287
G2 X1.159 Y189.32 I1.511 J-0.488
G1 X1.391 Y189.991
G2 X1.403 Y190.023 I1.5 J-0.521
G1 X1.646 Y190.677
G2 X1.66 Y190.713 I1.488 J-0.553
G1 X1.914 Y191.347
G2 X1.928 Y191.383 I1.474 J-0.589
G1 X2.192 Y191.999
G2 X2.208 Y192.036 I1.459 J-0.625
G1 X2.482 Y192.633
G2 X2.5 Y192.671 I1.443 J-0.662
G1 X2.785 Y193.249
G2 X2.805 Y193.289 I1.425 J-0.7
G1 X3.099 Y193.847
G2 X3.122 Y193.889 I1.404 J-0.74
G1 X3.426 Y194.427
G2 X3.451 Y194.469 I1.382 J-0.782
G1 X3.765 Y194.987
G2 X3.793 Y195.031 I1.357 J-0.824
G1 X4.117 Y195.528
G2 X4.146 Y195.571 I1.329 J-0.868
G1 X4.48 Y196.048
G2 X4.513 Y196.093 I1.3 J-0.911
G1 X4.857 Y196.549
G2 X4.893 Y196.595 I1.268 J-0.956
G1 X5.247 Y197.029
G2 X5.285 Y197.075 I1.231 J-1.002
G1 X5.648 Y197.488
G2 X5.689 Y197.533 I1.193 J-1.048
G1 X6.061 Y197.925
G2 X6.106 Y197.971 I1.152 J-1.093
G1 X6.487 Y198.341
G2 X6.537 Y198.387 I1.106 J-1.139
G1 X6.927 Y198.734
G2 X6.976 Y198.777 I1.056 J-1.185
G1 X7.374 Y199.103
G2 X7.429 Y199.146 I1.006 J-1.228
G1 X7.835 Y199.45
G2 X7.894 Y199.492 I0.952 J-1.271
G1 X8.308 Y199.773
G2 X8.368 Y199.812 I0.892 J-1.313
G1 X8.789 Y200.071
G2 X8.852 Y200.108 I0.832 J-1.352
G1 X9.28 Y200.345
G2 X9.345 Y200.379 I0.769 J-1.389
G1 X9.78 Y200.594
G2 X9.85 Y200.626 I0.704 J-1.423
G1 X10.291 Y200.818
G2 X10.36 Y200.847 I0.634 J-1.455
G1 X10.806 Y201.017
G2 X10.876 Y201.041 I0.565 J-1.484
G1 X11.328 Y201.189
G2 X11.4 Y201.211 I0.495 J-1.508
G1 X11.856 Y201.337
G2 X11.928 Y201.355 I0.423 J-1.53
G1 X12.388 Y201.459
G2 X12.462 Y201.474 I0.35 J-1.548
G1 X12.925 Y201.556
G2 X12.995 Y201.567 I0.277 J-1.563
G1 X13.461 Y201.628
G2 X13.532 Y201.636 I0.206 J-1.574
G1 X13.999 Y201.676
G2 X14.07 Y201.68 I0.135 J-1.582
G1 X14.539 Y201.699
G2 X14.606 Y201.701 I0.064 J-1.586
G1 X15.075 Y201.699
G2 X15.143 Y201.698 I-0.003 J-1.587
G1 X15.611 Y201.677
G2 X15.679 Y201.672 I-0.071 J-1.586
G1 X16.146 Y201.631
G2 X16.21 Y201.624 I-0.139 J-1.581
G1 X16.675 Y201.564
G2 X16.736 Y201.555 I-0.203 J-1.574
G1 X17.197 Y201.477
G2 X17.259 Y201.466 I-0.265 J-1.565
G1 X17.716 Y201.37
G2 X17.777 Y201.355 I-0.326 J-1.554
G1 X18.229 Y201.241
G2 X18.289 Y201.225 I-0.388 J-1.539
G1 X18.735 Y201.094
G2 X18.791 Y201.076 I-0.447 J-1.523
G1 X19.23 Y200.929
G2 X19.285 Y200.91 I-0.504 J-1.505
G1 X19.716 Y200.748
G2 X19.771 Y200.726 I-0.558 J-1.486
G1 X20.193 Y200.549
G2 X20.249 Y200.524 I-0.614 J-1.464
G1 X20.662 Y200.332
G2 X20.713 Y200.307 I-0.67 J-1.439
G1 X21.115 Y200.102
G2 X21.165 Y200.076 I-0.721 J-1.414
G1 X21.556 Y199.859
G2 X21.609 Y199.827 I-0.771 J-1.388
G1 X21.988 Y199.597
G2 X22.035 Y199.568 I-0.825 J-1.356
G1 X22.4 Y199.328
G2 X22.451 Y199.292 I-0.872 J-1.327
G1 X22.802 Y199.041
G2 X22.85 Y199.006 I-0.923 J-1.291
G1 X23.186 Y198.746
G2 X23.235 Y198.707 I-0.971 J-1.256
G1 X23.556 Y198.438
G2 X23.604 Y198.396 I-1.02 J-1.217
G1 X23.909 Y198.119
G2 X23.956 Y198.075 I-1.067 J-1.175
G1 X24.244 Y197.791
G2 X24.288 Y197.746 I-1.114 J-1.131
G1 X24.559 Y197.457
G2 X24.605 Y197.405 I-1.158 J-1.086
G1 X24.858 Y197.11
G2 X24.902 Y197.057 I-1.205 J-1.034
G1 X25.137 Y196.758
G2 X25.179 Y196.701 I-1.248 J-0.981
G1 X25.396 Y196.399
G2 X25.438 Y196.338 I-1.291 J-0.924
G1 X25.635 Y196.033
G2 X25.674 Y195.969 I-1.333 J-0.863
G1 X25.852 Y195.663
G2 X25.889 Y195.596 I-1.372 J-0.799
G1 X26.048 Y195.29
G2 X26.084 Y195.217 I-1.409 J-0.732
G1 X26.223 Y194.911
G2 X26.256 Y194.834 I-1.444 J-0.659
G1 X26.376 Y194.529
G2 X26.405 Y194.451 I-1.477 J-0.582
G1 X26.506 Y194.149
G2 X26.531 Y194.066 I-1.505 J-0.504
G1 X26.613 Y193.767
G2 X26.635 Y193.68 I-1.531 J-0.421
G1 X26.698 Y193.385
G2 X26.715 Y193.295 I-1.552 J-0.334
G1 X26.76 Y193.005
G2 X26.771 Y192.914 I-1.569 J-0.244
G1 X26.799 Y192.631
G2 X26.805 Y192.535 I-1.58 J-0.153
G1 X26.815 Y192.258
G2 X26.816 Y192.161 I-1.586 J-0.057
G1 X26.809 Y191.893
G2 X26.803 Y191.794 I-1.587 J0.04
G1 X26.781 Y191.534
G2 X26.769 Y191.434 I-1.581 J0.139
G1 X26.731 Y191.184
G2 X26.711 Y191.082 I-1.569 J0.239
G1 X26.659 Y190.843
G2 X26.633 Y190.74 I-1.55 J0.341
G1 X26.566 Y190.512
G2 X26.531 Y190.406 I-1.524 J0.444
G1 X26.452 Y190.191
G2 X26.41 Y190.089 I-1.489 J0.55
G1 X26.318 Y189.886
G2 X26.264 Y189.776 I-1.447 J0.652
G1 X26.161 Y189.588
G2 X26.098 Y189.483 I-1.393 J0.762
G1 X25.985 Y189.309
G2 X25.91 Y189.204 I-1.33 J0.867
G1 X25.787 Y189.045
G2 X25.694 Y188.936 I-1.255 J0.972
G1 X25.562 Y188.794
G2 X25.46 Y188.694 I-1.163 J1.081
G1 X25.32 Y188.568
G2 X25.197 Y188.468 I-1.061 J1.181
G1 X25.049 Y188.36
G2 X24.918 Y188.273 I-0.937 J1.281
G1 X24.763 Y188.182
G2 X24.615 Y188.105 I-0.806 J1.368
G1 X24.455 Y188.032
G2 X24.28 Y187.965 I-0.658 J1.445
G1 X24.114 Y187.912
G2 X23.95 Y187.869 I-0.483 J1.512
G1 X23.779 Y187.834
G2 X23.596 Y187.807 I-0.319 J1.555
G1 X23.42 Y187.792
G2 X23.249 Y187.787 I-0.135 J1.582
G1 X23.07 Y187.791
G2 X22.891 Y187.805 I0.035 J1.587
G1 X22.708 Y187.83
G2 X22.55 Y187.86 I0.215 J1.573
G1 X22.364 Y187.905
G2 X22.213 Y187.949 I0.373 J1.543
G1 X22.024 Y188.015
G2 X21.898 Y188.066 I0.524 J1.499
G1 X21.706 Y188.152
G2 X21.59 Y188.21 I0.65 J1.448
G1 X21.396 Y188.317
G2 X21.295 Y188.377 I0.766 J1.39
G1 X21.099 Y188.505
G2 X21.012 Y188.566 I0.867 J1.33
G1 X20.814 Y188.715
G2 X20.74 Y188.773 I0.953 J1.269
G1 X20.54 Y188.943
G2 X20.477 Y189 I1.027 J1.211
G1 X20.275 Y189.191
G2 X20.221 Y189.245 I1.09 J1.154
G1 X20.017 Y189.457
G2 X19.968 Y189.509 I1.144 J1.1
G1 X19.763 Y189.743
G2 X19.725 Y189.788 I1.193 J1.048
G1 X19.518 Y190.042
G2 X19.482 Y190.087 I1.23 J1.003
G1 X19.274 Y190.362
X19.246 Y190.4
X19.238 Y190.409
X19.226 Y190.422
X19.208 Y190.44
X19.198 Y190.45
X19.186 Y190.459
X19.168 Y190.474
X19.16 Y190.479
X19.144 Y190.489
X19.126 Y190.5
X19.112 Y190.507
X19.09 Y190.518
X19.075 Y190.524
X19.06 Y190.53
X19.042 Y190.536
X19.033 Y190.538
X19.014 Y190.542
X18.986 Y190.548
X18.974 Y190.55
X18.961 Y190.551
X18.94 Y190.552
X18.918
X18.905
X18.893 Y190.551
X18.863 Y190.547
X18.851 Y190.546
X18.84 Y190.543
X18.8 Y190.533
X14.202 Y189.276
X14.517 Y188.314
G2 X14.521 Y188.302 I-1.508 J-0.495
G1 X15.334 Y185.756
G2 X15.338 Y185.744 I-1.512 J-0.483
G1 X16.129 Y183.201
G2 X16.132 Y183.189 I-1.516 J-0.471
G1 X16.9 Y180.648
G2 X16.904 Y180.636 I-1.52 J-0.459
G1 X17.649 Y178.097
G2 X17.653 Y178.085 I-1.523 J-0.447
G1 X18.375 Y175.548
G2 X18.379 Y175.536 I-1.527 J-0.435
G1 X19.079 Y173.002
G2 X19.082 Y172.989 I-1.53 J-0.423
G1 X19.76 Y170.458
G2 X19.763 Y170.446 I-1.534 J-0.41
G1 X20.418 Y167.917
G2 X20.421 Y167.904 I-1.537 J-0.398
G1 X21.053 Y165.377
G2 X21.056 Y165.364 I-1.54 J-0.385
G1 X21.665 Y162.84
G2 X21.668 Y162.828 I-1.543 J-0.372
G1 X22.255 Y160.306
G2 X22.258 Y160.293 I-1.546 J-0.36
G1 X22.821 Y157.774
G2 X22.824 Y157.761 I-1.549 J-0.347
G1 X23.365 Y155.245
G2 X23.368 Y155.231 I-1.552 J-0.334
G1 X23.886 Y152.717
G2 X23.889 Y152.704 I-1.555 J-0.32
G1 X24.384 Y150.194
G2 X24.387 Y150.181 I-1.557 J-0.307
G1 X24.86 Y147.673
G2 X24.862 Y147.66 I-1.56 J-0.294
G1 X25.312 Y145.156
G2 X25.315 Y145.143 I-1.562 J-0.281
G1 X25.742 Y142.642
G2 X25.745 Y142.628 I-1.565 J-0.268
G1 X26.15 Y140.13
G2 X26.152 Y140.117 I-1.567 J-0.254
G1 X26.535 Y137.624
G2 X26.537 Y137.611 I-1.569 J-0.241
G1 X26.898 Y135.121
G2 X26.9 Y135.108 I-1.571 J-0.228
G1 X27.239 Y132.622
G2 X27.241 Y132.608 I-1.573 J-0.215
G1 X27.559 Y130.126
G2 X27.56 Y130.113 I-1.575 J-0.201
G1 X27.857 Y127.636
G2 X27.858 Y127.624 I-1.576 J-0.188
G1 X28.133 Y125.152
G2 X28.135 Y125.139 I-1.578 J-0.176
G1 X28.389 Y122.672
G2 X28.39 Y122.659 I-1.579 J-0.163
G1 X28.624 Y120.197
G2 X28.625 Y120.185 I-1.58 J-0.15
G1 X28.839 Y117.73
G2 X28.841 Y117.718 I-1.581 J-0.138
G1 X29.035 Y115.268
G2 X29.036 Y115.256 I-1.583 J-0.126
G1 X29.212 Y112.813
G2 X29.213 Y112.801 I-1.583 J-0.114
G1 X29.37 Y110.366
G2 Y110.355 I-1.584 J-0.102
G1 X29.51 Y107.927
G2 X29.511 Y107.916 I-1.585 J-0.091
G1 X29.633 Y105.495
G2 Y105.485 I-1.585 J-0.08
G1 X29.74 Y103.074
G2 Y103.064 I-1.586 J-0.07
G1 X29.83 Y100.661
X29.831 Y100.651
X29.907 Y98.259
Y98.25
X29.969 Y95.867
Y95.859
X30.019 Y93.487
Y93.48
X30.056 Y91.12
G2 X30.057 Y91.11 I-1.587 J-0.025
G1 X30.101 Y86.427
G2 Y86.416 I-1.587 J-0.015
G1 X30.115 Y81.79
Y81.783
X30.107 Y77.219
Y77.216
X30.092 Y72.723
X30.084 Y68.311
X30.096 Y63.988
X30.114 Y61.867
X30.144 Y59.77
X30.186 Y57.701
X30.244 Y55.661
X30.318 Y53.651
X30.411 Y51.671
X30.525 Y49.725
X30.662 Y47.812
X30.823 Y45.934
X31.011 Y44.091
X31.228 Y42.286
X31.475 Y40.52
X31.754 Y38.788
X31.905 Y37.944
X32.066 Y37.105
X32.235 Y36.277
X32.414 Y35.46
X32.601 Y34.654
X32.798 Y33.857
X33.005 Y33.072
X33.221 Y32.298
X33.448 Y31.535
X33.684 Y30.783
X33.931 Y30.043
X34.188 Y29.313
X34.455 Y28.595
X34.734 Y27.888
X35.023 Y27.193
X35.323 Y26.51
X35.634 Y25.838
X35.957 Y25.177
X36.291 Y24.528
X36.636 Y23.891
X36.993 Y23.265
X37.362 Y22.651
X37.742 Y22.049
X38.135 Y21.458
X38.54 Y20.879
X38.957 Y20.311
X39.387 Y19.754
X39.829 Y19.209
X40.284 Y18.676
X40.752 Y18.154
X41.232 Y17.643
X41.726 Y17.143
X42.233 Y16.655
X42.753 Y16.177
X43.287 Y15.711
X43.834 Y15.257
X44.395 Y14.813
X44.97 Y14.38
X45.558 Y13.959
X46.161 Y13.548
X46.778 Y13.149
X47.409 Y12.761
X48.054 Y12.384
X48.714 Y12.018
X49.389 Y11.663
X50.078 Y11.319
X50.781 Y10.986
X51.5 Y10.665
X52.233 Y10.355
X52.981 Y10.055
X53.743 Y9.768
X54.521 Y9.491
X55.314 Y9.226
X56.121 Y8.972
X56.943 Y8.729
X57.781 Y8.498
X58.633 Y8.278
X59.5 Y8.07
X60.383 Y7.873
X61.28 Y7.687
X62.192 Y7.513
X63.119 Y7.35
X64.061 Y7.199
X65.018 Y7.059
X65.99 Y6.931
X66.976 Y6.815
X67.978 Y6.71
X68.994 Y6.616
X70.025 Y6.534
X71.071 Y6.464
X72.132 Y6.405
X73.207 Y6.358
X74.297 Y6.322
X75.402 Y6.299
X76.522 Y6.286
X77.656
X78.541 Y6.294
G2 X89.532 Y9.781 I6.459 J-1.294
X85.363 Y-1.577 I-4.532 J-4.781
G3 X89.532 Y9.781 Z-5.241 I-0.363 J6.577 F200
X78.541 Y6.294 Z-5.461 I-4.532 J-4.781
G1 X77.656 Y6.286 Z-5.475
X76.522 Z-5.492
X75.402 Y6.299 Z-5.51
X74.297 Y6.322 Z-5.527
X73.207 Y6.358 Z-5.544
X72.132 Y6.405 Z-5.561
X71.071 Y6.464 Z-5.578
X70.025 Y6.534 Z-5.594
X68.994 Y6.616 Z-5.611
X67.978 Y6.71 Z-5.627
X66.976 Y6.815 Z-5.642
X65.99 Y6.931 Z-5.658
X65.018 Y7.059 Z-5.673
X64.061 Y7.199 Z-5.689
X63.119 Y7.35 Z-5.704
X62.192 Y7.513 Z-5.718
X61.28 Y7.687 Z-5.733
X60.383 Y7.873 Z-5.747
X59.5 Y8.07 Z-5.761
X58.633 Y8.278 Z-5.775
X57.781 Y8.498 Z-5.789
X56.943 Y8.729 Z-5.803
X56.121 Y8.972 Z-5.816
X55.314 Y9.226 Z-5.83
X54.521 Y9.491 Z-5.843
X53.743 Y9.768 Z-5.856
X52.981 Y10.055 Z-5.868
X52.233 Y10.355 Z-5.881
X51.5 Y10.665 Z-5.894
X50.781 Y10.986 Z-5.906
X50.078 Y11.319 Z-5.918
X49.389 Y11.663 Z-5.93
X48.714 Y12.018 Z-5.942
X48.054 Y12.384 Z-5.954
X47.409 Y12.761 Z-5.966
X46.778 Y13.149 Z-5.977
X46.161 Y13.548 Z-5.989
X45.558 Y13.959 Z-6
X44.97 Y14.38 Z-6.012
X44.395 Y14.813 Z-6.023
X43.834 Y15.257 Z-6.034
X43.287 Y15.711 Z-6.045
X42.753 Y16.177 Z-6.056
X42.233 Y16.655 Z-6.067
X41.726 Y17.143 Z-6.079
X41.232 Y17.643 Z-6.09
X40.752 Y18.154 Z-6.101
X40.284 Y18.676 Z-6.112
X39.829 Y19.209 Z-6.123
X39.387 Y19.754 Z-6.134
X38.957 Y20.311 Z-6.145
X38.54 Y20.879 Z-6.156
X38.135 Y21.458 Z-6.167
X37.742 Y22.049 Z-6.178
X37.362 Y22.651 Z-6.189
X36.993 Y23.265 Z-6.2
X36.636 Y23.891 Z-6.212
X36.291 Y24.528 Z-6.223
X35.957 Y25.177 Z-6.234
X35.634 Y25.838 Z-6.246
X35.323 Y26.51 Z-6.258
X35.023 Y27.193 Z-6.269
X34.734 Y27.888 Z-6.281
X34.455 Y28.595 Z-6.293
X34.188 Y29.313 Z-6.305
X33.931 Y30.043 Z-6.317
X33.684 Y30.783 Z-6.329
X33.448 Y31.535 Z-6.342
X33.221 Y32.298 Z-6.354
X33.005 Y33.072 Z-6.367
X32.798 Y33.857 Z-6.38
X32.601 Y34.654 Z-6.392
X32.414 Y35.46 Z-6.405
X32.235 Y36.277 Z-6.418
X32.066 Y37.105 Z-6.432
X31.905 Y37.944 Z-6.445
X31.754 Y38.788 Z-6.459
X31.475 Y40.52 Z-6.486
X31.228 Y42.286 Z-6.514
X31.011 Y44.091 Z-6.543
X30.823 Y45.934 Z-6.572
X30.662 Y47.812 Z-6.601
X30.525 Y49.725 Z-6.631
X30.411 Y51.671 Z-6.662
X30.318 Y53.651 Z-6.693
X30.244 Y55.661 Z-6.725
X30.186 Y57.701 Z-6.757
X30.144 Y59.77 Z-6.789
X30.114 Y61.867 Z-6.822
X30.096 Y63.988 Z-6.855
X30.084 Y68.311 Z-6.923
X30.092 Y72.723 Z-6.992
X30.107 Y77.216 Z-7.063
Y77.219
X30.115 Y81.783 Z-7.134
Y81.79
X30.101 Y86.416 Z-7.207
G3 Y86.427 I-1.587 J-0.004
G1 X30.057 Y91.11 Z-7.281
G3 X30.056 Y91.12 I-1.587 J-0.015
G1 X30.019 Y93.48 Z-7.318
Y93.487
X29.969 Y95.859 Z-7.355
Y95.867
X29.907 Y98.25 Z-7.393
Y98.259
X29.831 Y100.651 Z-7.43
X29.83 Y100.661
X29.74 Y103.064 Z-7.468
G3 Y103.074 I-1.586 J-0.06
G1 X29.633 Y105.485 Z-7.506
G3 Y105.495 I-1.586 J-0.07
G1 X29.511 Y107.916 Z-7.544
G3 X29.51 Y107.927 I-1.585 J-0.08
G1 X29.37 Y110.355 Z-7.583
G3 Y110.366 I-1.585 J-0.091
G1 X29.213 Y112.801 Z-7.621
G3 X29.212 Y112.813 I-1.584 J-0.102
G1 X29.036 Y115.256 Z-7.66
G3 X29.035 Y115.268 I-1.583 J-0.114
G1 X28.841 Y117.718 Z-7.698
G3 X28.839 Y117.73 Z-7.699 I-1.583 J-0.126
G1 X28.625 Y120.185 Z-7.737
G3 X28.624 Y120.197 I-1.581 J-0.138
G1 X28.39 Y122.659 Z-7.776
G3 X28.389 Y122.672 I-1.58 J-0.15
G1 X28.135 Y125.139 Z-7.815
G3 X28.133 Y125.152 Z-7.816 I-1.579 J-0.163
G1 X27.858 Y127.624 Z-7.855
G3 X27.857 Y127.636 I-1.578 J-0.176
G1 X27.56 Y130.113 Z-7.894
G3 X27.559 Y130.126 I-1.576 J-0.188
G1 X27.241 Y132.608 Z-7.933
G3 X27.239 Y132.622 Z-7.934 I-1.575 J-0.201
G1 X26.9 Y135.108 Z-7.973
G3 X26.898 Y135.121 I-1.573 J-0.215
G1 X26.537 Y137.611 Z-8.013
G3 X26.535 Y137.624 I-1.571 J-0.228
G1 X26.152 Y140.117 Z-8.052
G3 X26.15 Y140.13 Z-8.053 I-1.569 J-0.241
G1 X25.745 Y142.628 Z-8.092
G3 X25.742 Y142.642 I-1.567 J-0.254
G1 X25.315 Y145.143 Z-8.132
G3 X25.312 Y145.156 I-1.565 J-0.268
G1 X24.862 Y147.66 Z-8.172
G3 X24.86 Y147.673 Z-8.173 I-1.562 J-0.281
G1 X24.387 Y150.181 Z-8.213
G3 X24.384 Y150.194 I-1.56 J-0.294
G1 X23.889 Y152.704 Z-8.253
G3 X23.886 Y152.717 I-1.557 J-0.307
G1 X23.368 Y155.231 Z-8.293
G3 X23.365 Y155.245 Z-8.294 I-1.555 J-0.32
G1 X22.824 Y157.761 Z-8.334
G3 X22.821 Y157.774 I-1.552 J-0.334
G1 X22.258 Y160.293 Z-8.375
G3 X22.255 Y160.306 I-1.549 J-0.347
G1 X21.668 Y162.828 Z-8.416
G3 X21.665 Y162.84 I-1.546 J-0.36
G1 X21.056 Y165.364 Z-8.456
G3 X21.053 Y165.377 Z-8.457 I-1.543 J-0.372
G1 X20.421 Y167.904 Z-8.498
G3 X20.418 Y167.917 I-1.54 J-0.385
G1 X19.763 Y170.446 Z-8.539
G3 X19.76 Y170.458 I-1.537 J-0.398
G1 X19.082 Y172.989 Z-8.58
G3 X19.079 Y173.002 I-1.534 J-0.41
G1 X18.379 Y175.536 Z-8.621
G3 X18.375 Y175.548 Z-8.622 I-1.53 J-0.423
G1 X17.653 Y178.085 Z-8.663
G3 X17.649 Y178.097 I-1.527 J-0.435
G1 X16.904 Y180.636 Z-8.705
G3 X16.9 Y180.648 I-1.523 J-0.447
G1 X16.132 Y183.189 Z-8.747
G3 X16.129 Y183.201 I-1.52 J-0.459
G1 X15.338 Y185.744 Z-8.789
G3 X15.334 Y185.756 I-1.516 J-0.471
G1 X14.521 Y188.302 Z-8.831
G3 X14.517 Y188.314 I-1.512 J-0.483
G1 X14.202 Y189.276 Z-8.847
X18.8 Y190.533 Z-8.921
X18.84 Y190.543 Z-8.922
X18.851 Y190.546
X18.863 Y190.547 Z-8.923
X18.893 Y190.551
X18.905 Y190.552
X18.918
X18.94 Z-8.924
X18.961 Y190.551
X18.974 Y190.55
X18.986 Y190.548
X19.014 Y190.542 Z-8.925
X19.033 Y190.538
X19.042 Y190.536
X19.06 Y190.53 Z-8.926
X19.075 Y190.524
X19.09 Y190.518
X19.112 Y190.507 Z-8.927
X19.126 Y190.5
X19.144 Y190.489
X19.16 Y190.479
X19.168 Y190.474 Z-8.928
X19.186 Y190.459
X19.198 Y190.45
X19.208 Y190.44
X19.226 Y190.422 Z-8.929
X19.238 Y190.409
X19.246 Y190.4
X19.274 Y190.362 Z-8.93
X19.482 Y190.087 Z-8.935
G3 X19.518 Y190.042 Z-8.936 I1.266 J0.958
G1 X19.725 Y189.788 Z-8.941
G3 X19.763 Y189.743 Z-8.942 I1.23 J1.003
G1 X19.968 Y189.509 Z-8.947
G3 X20.017 Y189.457 Z-8.948 I1.193 J1.048
G1 X20.221 Y189.245 Z-8.953
G3 X20.275 Y189.191 Z-8.954 I1.144 J1.1
G1 X20.477 Y189 Z-8.959
G3 X20.54 Y188.943 Z-8.96 I1.09 J1.154
G1 X20.74 Y188.773 Z-8.964
G3 X20.814 Y188.715 Z-8.965 I1.027 J1.211
G1 X21.012 Y188.566 Z-8.969
G3 X21.099 Y188.505 Z-8.971 I0.953 J1.269
G1 X21.295 Y188.377 Z-8.975
G3 X21.396 Y188.317 Z-8.977 I0.867 J1.33
G1 X21.59 Y188.21 Z-8.98
G3 X21.706 Y188.152 Z-8.982 I0.766 J1.39
G1 X21.898 Y188.066 Z-8.985
G3 X22.024 Y188.015 Z-8.987 I0.65 J1.448
G1 X22.213 Y187.949 Z-8.991
G3 X22.364 Y187.905 Z-8.993 I0.524 J1.499
G1 X22.55 Y187.86 Z-8.996
G3 X22.708 Y187.83 Z-8.999 I0.373 J1.543
G1 X22.891 Y187.805 Z-9.001
G3 X23.07 Y187.791 Z-9.004 I0.215 J1.573
G1 X23.249 Y187.787 Z-9.007
G3 X23.42 Y187.792 Z-9.01 I0.035 J1.587
G1 X23.596 Y187.807 Z-9.013
G3 X23.779 Y187.834 Z-9.015 I-0.135 J1.582
G1 X23.95 Y187.869 Z-9.018
G3 X24.114 Y187.912 Z-9.021 I-0.319 J1.555
G1 X24.28 Y187.965 Z-9.024
G3 X24.455 Y188.032 Z-9.027 I-0.483 J1.512
G1 X24.615 Y188.105 Z-9.029
G3 X24.763 Y188.182 Z-9.032 I-0.658 J1.445
G1 X24.918 Y188.273 Z-9.035
G3 X25.049 Y188.36 Z-9.037 I-0.806 J1.368
G1 X25.197 Y188.468 Z-9.04
G3 X25.32 Y188.568 Z-9.043 I-0.937 J1.281
G1 X25.46 Y188.694 Z-9.046
G3 X25.562 Y188.794 Z-9.048 I-1.061 J1.181
G1 X25.694 Y188.936 Z-9.051
G3 X25.787 Y189.045 Z-9.053 I-1.163 J1.081
G1 X25.91 Y189.204 Z-9.056
G3 X25.985 Y189.309 Z-9.058 I-1.255 J0.972
G1 X26.098 Y189.483 Z-9.061
G3 X26.161 Y189.588 Z-9.063 I-1.33 J0.867
G1 X26.264 Y189.776 Z-9.067
G3 X26.318 Y189.886 Z-9.069 I-1.393 J0.762
G1 X26.41 Y190.089 Z-9.072
G3 X26.452 Y190.191 Z-9.074 I-1.447 J0.652
G1 X26.531 Y190.406 Z-9.078
G3 X26.566 Y190.512 Z-9.079 I-1.489 J0.55
G1 X26.633 Y190.74 Z-9.083
G3 X26.659 Y190.843 Z-9.085 I-1.524 J0.444
G1 X26.711 Y191.082 Z-9.088
G3 X26.731 Y191.184 Z-9.09 I-1.55 J0.341
G1 X26.769 Y191.434 Z-9.094
G3 X26.781 Y191.534 Z-9.096 I-1.569 J0.239
G1 X26.803 Y191.794 Z-9.1
G3 X26.809 Y191.893 Z-9.101 I-1.581 J0.139
G1 X26.816 Y192.161 Z-9.106
G3 X26.815 Y192.258 Z-9.107 I-1.587 J0.04
G1 X26.805 Y192.535 Z-9.111
G3 X26.799 Y192.631 Z-9.113 I-1.586 J-0.057
G1 X26.771 Y192.914 Z-9.117
G3 X26.76 Y193.005 Z-9.119 I-1.58 J-0.153
G1 X26.715 Y193.295 Z-9.123
G3 X26.698 Y193.385 Z-9.125 I-1.569 J-0.244
G1 X26.635 Y193.68 Z-9.13
G3 X26.613 Y193.767 Z-9.131 I-1.552 J-0.334
G1 X26.531 Y194.066 Z-9.136
G3 X26.506 Y194.149 Z-9.137 I-1.531 J-0.421
G1 X26.405 Y194.451 Z-9.142
G3 X26.376 Y194.529 Z-9.144 I-1.505 J-0.504
G1 X26.256 Y194.834 Z-9.149
G3 X26.223 Y194.911 Z-9.15 I-1.477 J-0.582
G1 X26.084 Y195.217 Z-9.155
G3 X26.048 Y195.29 Z-9.157 I-1.444 J-0.659
G1 X25.889 Y195.596 Z-9.162
G3 X25.852 Y195.663 Z-9.163 I-1.409 J-0.732
G1 X25.674 Y195.969 Z-9.169
G3 X25.635 Y196.033 Z-9.17 I-1.372 J-0.799
G1 X25.438 Y196.338 Z-9.176
G3 X25.396 Y196.399 Z-9.177 I-1.333 J-0.863
G1 X25.179 Y196.701 Z-9.183
G3 X25.137 Y196.758 Z-9.184 I-1.291 J-0.924
G1 X24.902 Y197.057 Z-9.19
G3 X24.858 Y197.11 Z-9.191 I-1.248 J-0.981
G1 X24.605 Y197.405 Z-9.197
G3 X24.559 Y197.457 Z-9.198 I-1.205 J-1.034
G1 X24.288 Y197.746 Z-9.204
G3 X24.244 Y197.791 Z-9.205 I-1.158 J-1.086
G1 X23.956 Y198.075 Z-9.211
G3 X23.909 Y198.119 Z-9.212 I-1.114 J-1.131
G1 X23.604 Y198.396 Z-9.219
G3 X23.556 Y198.438 Z-9.22 I-1.067 J-1.175
G1 X23.235 Y198.707 Z-9.226
G3 X23.186 Y198.746 Z-9.227 I-1.02 J-1.217
G1 X22.85 Y199.006 Z-9.234
G3 X22.802 Y199.041 Z-9.235 I-0.971 J-1.256
G1 X22.451 Y199.292 Z-9.242
G3 X22.4 Y199.328 Z-9.243 I-0.923 J-1.291
G1 X22.035 Y199.568 Z-9.25
G3 X21.988 Y199.597 Z-9.251 I-0.872 J-1.327
G1 X21.609 Y199.827 Z-9.257
G3 X21.556 Y199.859 Z-9.258 I-0.825 J-1.356
G1 X21.165 Y200.076 Z-9.265
G3 X21.115 Y200.102 Z-9.266 I-0.771 J-1.388
G1 X20.713 Y200.307 Z-9.273
G3 X20.662 Y200.332 Z-9.274 I-0.721 J-1.414
G1 X20.249 Y200.524 Z-9.281
G3 X20.193 Y200.549 Z-9.282 I-0.67 J-1.439
G1 X19.771 Y200.726 Z-9.29
G3 X19.716 Y200.748 Z-9.291 I-0.614 J-1.464
G1 X19.285 Y200.91 Z-9.298
G3 X19.23 Y200.929 Z-9.299 I-0.558 J-1.486
G1 X18.791 Y201.076 Z-9.306
G3 X18.735 Y201.094 Z-9.307 I-0.504 J-1.505
G1 X18.289 Y201.225 Z-9.314
G3 X18.229 Y201.241 Z-9.315 I-0.447 J-1.523
G1 X17.777 Y201.355 Z-9.322
G3 X17.716 Y201.37 Z-9.323 I-0.388 J-1.539
G1 X17.259 Y201.466 Z-9.331
G3 X17.197 Y201.477 Z-9.332 I-0.326 J-1.554
G1 X16.736 Y201.555 Z-9.339
G3 X16.675 Y201.564 Z-9.34 I-0.265 J-1.565
G1 X16.21 Y201.624 Z-9.347
G3 X16.146 Y201.631 Z-9.348 I-0.203 J-1.574
G1 X15.679 Y201.672 Z-9.356
G3 X15.611 Y201.677 Z-9.357 I-0.139 J-1.581
G1 X15.143 Y201.698 Z-9.364
G3 X15.075 Y201.699 Z-9.365 I-0.071 J-1.586
G1 X14.606 Y201.701 Z-9.373
G3 X14.539 Y201.699 Z-9.374 I-0.003 J-1.587
G1 X14.07 Y201.68 Z-9.381
G3 X13.999 Y201.676 Z-9.382 I0.064 J-1.586
G1 X13.532 Y201.636 Z-9.389
G3 X13.461 Y201.628 Z-9.391 I0.135 J-1.582
G1 X12.995 Y201.567 Z-9.398
G3 X12.925 Y201.556 Z-9.399 I0.206 J-1.574
G1 X12.462 Y201.474 Z-9.406
G3 X12.388 Y201.459 Z-9.408 I0.277 J-1.563
G1 X11.928 Y201.355 Z-9.415
G3 X11.856 Y201.337 Z-9.416 I0.35 J-1.548
G1 X11.4 Y201.211 Z-9.424
G3 X11.328 Y201.189 Z-9.425 I0.423 J-1.53
G1 X10.876 Y201.041 Z-9.432
G3 X10.806 Y201.017 Z-9.433 I0.495 J-1.508
G1 X10.36 Y200.847 Z-9.441
G3 X10.291 Y200.818 Z-9.442 I0.565 J-1.484
G1 X9.85 Y200.626 Z-9.45
G3 X9.78 Y200.594 Z-9.451 I0.634 J-1.455
G1 X9.345 Y200.379 Z-9.458
G3 X9.28 Y200.345 Z-9.46 I0.704 J-1.423
G1 X8.852 Y200.108 Z-9.467
G3 X8.789 Y200.071 Z-9.468 I0.769 J-1.389
G1 X8.368 Y199.812 Z-9.476
G3 X8.308 Y199.773 Z-9.477 I0.832 J-1.352
G1 X7.894 Y199.492 Z-9.485
G3 X7.835 Y199.45 Z-9.486 I0.892 J-1.313
G1 X7.429 Y199.146 Z-9.494
G3 X7.374 Y199.103 Z-9.495 I0.952 J-1.271
G1 X6.976 Y198.777 Z-9.503
G3 X6.927 Y198.734 Z-9.504 I1.006 J-1.228
G1 X6.537 Y198.387 Z-9.513
G3 X6.487 Y198.341 Z-9.514 I1.056 J-1.185
G1 X6.106 Y197.971 Z-9.522
G3 X6.061 Y197.925 Z-9.523 I1.106 J-1.139
G1 X5.689 Y197.533 Z-9.531
G3 X5.648 Y197.488 Z-9.532 I1.152 J-1.093
G1 X5.285 Y197.075 Z-9.541
G3 X5.247 Y197.029 Z-9.542 I1.193 J-1.048
G1 X4.893 Y196.595 Z-9.551
G3 X4.857 Y196.549 Z-9.552 I1.231 J-1.002
G1 X4.513 Y196.093 Z-9.561
G3 X4.48 Y196.048 Z-9.562 I1.268 J-0.956
G1 X4.146 Y195.571 Z-9.571
G3 X4.117 Y195.528 I1.3 J-0.911
G1 X3.793 Y195.031 Z-9.581
G3 X3.765 Y194.987 Z-9.582 I1.329 J-0.868
G1 X3.451 Y194.469 Z-9.591
G3 X3.426 Y194.427 Z-9.592 I1.357 J-0.824
G1 X3.122 Y193.889 Z-9.602
G3 X3.099 Y193.847 I1.382 J-0.782
G1 X2.805 Y193.289 Z-9.612
G3 X2.785 Y193.249 Z-9.613 I1.404 J-0.74
G1 X2.5 Y192.671 Z-9.623
G3 X2.482 Y192.633 Z-9.624 I1.425 J-0.7
G1 X2.208 Y192.036 Z-9.634
G3 X2.192 Y191.999 Z-9.635 I1.443 J-0.662
G1 X1.928 Y191.383 Z-9.645
G3 X1.914 Y191.347 Z-9.646 I1.459 J-0.625
G1 X1.66 Y190.713 Z-9.656
G3 X1.646 Y190.677 Z-9.657 I1.474 J-0.589
G1 X1.403 Y190.023 Z-9.668
G3 X1.391 Y189.991 Z-9.669 I1.488 J-0.553
G1 X1.159 Y189.32 Z-9.68
G3 X1.148 Y189.287 I1.5 J-0.521
G1 X0.925 Y188.598 Z-9.692
G3 X0.915 Y188.567 I1.511 J-0.488
G1 X0.703 Y187.86 Z-9.704
G3 X0.694 Y187.83 I1.52 J-0.457
G1 X0.492 Y187.106 Z-9.716
G3 X0.484 Y187.078 I1.529 J-0.427
G1 X0.292 Y186.337 Z-9.728
G3 X0.285 Y186.309 Z-9.729 I1.537 J-0.399
G1 X0.103 Y185.552 Z-9.741
G3 X0.097 Y185.526 I1.543 J-0.371
G1 X-0.075 Y184.753 Z-9.754
G3 X-0.081 Y184.727 I1.55 J-0.345
G1 X-0.243 Y183.937 Z-9.767
G3 X-0.248 Y183.913 I1.555 J-0.319
G1 X-0.4 Y183.108 Z-9.78
G3 X-0.404 Y183.085 Z-9.781 I1.56 J-0.295
G1 X-0.547 Y182.265 Z-9.794
G3 X-0.551 Y182.242 I1.564 J-0.272
G1 X-0.684 Y181.406 Z-9.807
G3 X-0.687 Y181.385 Z-9.808 I1.568 J-0.249
G1 X-0.81 Y180.535 Z-9.821
G3 X-0.813 Y180.514 I1.571 J-0.228
G1 X-0.927 Y179.649 Z-9.835
G3 X-0.93 Y179.629 I1.574 J-0.207
G1 X-1.034 Y178.75 Z-9.849
G3 X-1.036 Y178.731 Z-9.85 I1.576 J-0.187
G1 X-1.131 Y177.838 Z-9.864
G3 X-1.133 Y177.819 I1.579 J-0.168
G1 X-1.219 Y176.912 Z-9.878
G3 X-1.22 Y176.894 Z-9.879 I1.58 J-0.149
G1 X-1.297 Y175.973 Z-9.893
G3 X-1.298 Y175.948 I1.582 J-0.131
G1 X-1.424 Y174.067 Z-9.923
G3 X-1.426 Y174.034 Z-9.924 I1.584 J-0.106
G1 X-1.515 Y172.1 Z-9.954
G3 X-1.516 Y172.07 I1.586 J-0.073
G1 X-1.569 Y170.084 Z-9.986
G3 X-1.57 Y170.055 I1.587 J-0.043
G1 X-1.577 Y169.16 Z-10
X-1.57 Y170.055 F300
G2 X-1.569 Y170.084 I1.587 J-0.014
G1 X-1.516 Y172.07
G2 X-1.515 Y172.1 I1.587 J-0.043
G1 X-1.426 Y174.034
G2 X-1.424 Y174.067 I1.586 J-0.073
G1 X-1.298 Y175.948
G2 X-1.297 Y175.973 I1.584 J-0.106
G1 X-1.22 Y176.894
G2 X-1.219 Y176.912 I1.582 J-0.131
G1 X-1.133 Y177.819
G2 X-1.131 Y177.838 I1.58 J-0.149
G1 X-1.036 Y178.731
G2 X-1.034 Y178.75 I1.579 J-0.168
G1 X-0.93 Y179.629
G2 X-0.927 Y179.649 I1.576 J-0.187
G1 X-0.813 Y180.514
G2 X-0.81 Y180.535 I1.574 J-0.207
G1 X-0.687 Y181.385
G2 X-0.684 Y181.406 I1.571 J-0.228
G1 X-0.551 Y182.242
G2 X-0.547 Y182.265 I1.568 J-0.249
G1 X-0.404 Y183.085
G2 X-0.4 Y183.108 I1.564 J-0.272
G1 X-0.248 Y183.913
G2 X-0.243 Y183.937 I1.56 J-0.295
G1 X-0.081 Y184.727
G2 X-0.075 Y184.753 I1.555 J-0.319
G1 X0.097 Y185.526
G2 X0.103 Y185.552 I1.55 J-0.345
G1 X0.285 Y186.309
G2 X0.292 Y186.337 I1.543 J-0.371
G1 X0.484 Y187.078
G2 X0.492 Y187.106 I1.537 J-0.399
G1 X0.694 Y187.83
G2 X0.703 Y187.86 I1.529 J-0.427
G1 X0.915 Y188.567
G2 X0.925 Y188.598 I1.52 J-0.457
G1 X1.148 Y189.287
G2 X1.159 Y189.32 I1.511 J-0.488
G1 X1.391 Y189.991
G2 X1.403 Y190.023 I1.5 J-0.521
G1 X1.646 Y190.677
G2 X1.66 Y190.713 I1.488 J-0.553
G1 X1.914 Y191.347
G2 X1.928 Y191.383 I1.474 J-0.589
G1 X2.192 Y191.999
G2 X2.208 Y192.036 I1.459 J-0.625
G1 X2.482 Y192.633
G2 X2.5 Y192.671 I1.443 J-0.662
G1 X2.785 Y193.249
G2 X2.805 Y193.289 I1.425 J-0.7
G1 X3.099 Y193.847
G2 X3.122 Y193.889 I1.404 J-0.74
G1 X3.426 Y194.427
G2 X3.451 Y194.469 I1.382 J-0.782
G1 X3.765 Y194.987
G2 X3.793 Y195.031 I1.357 J-0.824
G1 X4.117 Y195.528
G2 X4.146 Y195.571 I1.329 J-0.868
G1 X4.48 Y196.048
G2 X4.513 Y196.093 I1.3 J-0.911
G1 X4.857 Y196.549
G2 X4.893 Y196.595 I1.268 J-0.956
G1 X5.247 Y197.029
G2 X5.285 Y197.075 I1.231 J-1.002
G1 X5.648 Y197.488
G2 X5.689 Y197.533 I1.193 J-1.048
G1 X6.061 Y197.925
G2 X6.106 Y197.971 I1.152 J-1.093
G1 X6.487 Y198.341
G2 X6.537 Y198.387 I1.106 J-1.139
G1 X6.927 Y198.734
G2 X6.976 Y198.777 I1.056 J-1.185
G1 X7.374 Y199.103
G2 X7.429 Y199.146 I1.006 J-1.228
G1 X7.835 Y199.45
G2 X7.894 Y199.492 I0.952 J-1.271
G1 X8.308 Y199.773
G2 X8.368 Y199.812 I0.892 J-1.313
G1 X8.789 Y200.071
G2 X8.852 Y200.108 I0.832 J-1.352
G1 X9.28 Y200.345
G2 X9.345 Y200.379 I0.769 J-1.389
G1 X9.78 Y200.594
G2 X9.85 Y200.626 I0.704 J-1.423
G1 X10.291 Y200.818
G2 X10.36 Y200.847 I0.634 J-1.455
G1 X10.806 Y201.017
G2 X10.876 Y201.041 I0.565 J-1.484
G1 X11.328 Y201.189
G2 X11.4 Y201.211 I0.495 J-1.508
G1 X11.856 Y201.337
G2 X11.928 Y201.355 I0.423 J-1.53
G1 X12.388 Y201.459
G2 X12.462 Y201.474 I0.35 J-1.548
G1 X12.925 Y201.556
G2 X12.995 Y201.567 I0.277 J-1.563
G1 X13.461 Y201.628
G2 X13.532 Y201.636 I0.206 J-1.574
G1 X13.999 Y201.676
G2 X14.07 Y201.68 I0.135 J-1.582
G1 X14.539 Y201.699
G2 X14.606 Y201.701 I0.064 J-1.586
G1 X15.075 Y201.699
G2 X15.143 Y201.698 I-0.003 J-1.587
G1 X15.611 Y201.677
G2 X15.679 Y201.672 I-0.071 J-1.586
G1 X16.146 Y201.631
G2 X16.21 Y201.624 I-0.139 J-1.581
G1 X16.675 Y201.564
G2 X16.736 Y201.555 I-0.203 J-1.574
G1 X17.197 Y201.477
G2 X17.259 Y201.466 I-0.265 J-1.565
G1 X17.716 Y201.37
G2 X17.777 Y201.355 I-0.326 J-1.554
G1 X18.229 Y201.241
G2 X18.289 Y201.225 I-0.388 J-1.539
G1 X18.735 Y201.094
G2 X18.791 Y201.076 I-0.447 J-1.523
G1 X19.23 Y200.929
G2 X19.285 Y200.91 I-0.504 J-1.505
G1 X19.716 Y200.748
G2 X19.771 Y200.726 I-0.558 J-1.486
G1 X20.193 Y200.549
G2 X20.249 Y200.524 I-0.614 J-1.464
G1 X20.662 Y200.332
G2 X20.713 Y200.307 I-0.67 J-1.439
G1 X21.115 Y200.102
G2 X21.165 Y200.076 I-0.721 J-1.414
G1 X21.556 Y199.859
G2 X21.609 Y199.827 I-0.771 J-1.388
G1 X21.988 Y199.597
G2 X22.035 Y199.568 I-0.825 J-1.356
G1 X22.4 Y199.328
G2 X22.451 Y199.292 I-0.872 J-1.327
G1 X22.802 Y199.041
G2 X22.85 Y199.006 I-0.923 J-1.291
G1 X23.186 Y198.746
G2 X23.235 Y198.707 I-0.971 J-1.256
G1 X23.556 Y198.438
G2 X23.604 Y198.396 I-1.02 J-1.217
G1 X23.909 Y198.119
G2 X23.956 Y198.075 I-1.067 J-1.175
G1 X24.244 Y197.791
G2 X24.288 Y197.746 I-1.114 J-1.131
G1 X24.559 Y197.457
G2 X24.605 Y197.405 I-1.158 J-1.086
G1 X24.858 Y197.11
G2 X24.902 Y197.057 I-1.205 J-1.034
G1 X25.137 Y196.758
G2 X25.179 Y196.701 I-1.248 J-0.981
G1 X25.396 Y196.399
G2 X25.438 Y196.338 I-1.291 J-0.924
G1 X25.635 Y196.033
G2 X25.674 Y195.969 I-1.333 J-0.863
G1 X25.852 Y195.663
G2 X25.889 Y195.596 I-1.372 J-0.799
G1 X26.048 Y195.29
G2 X26.084 Y195.217 I-1.409 J-0.732
G1 X26.223 Y194.911
G2 X26.256 Y194.834 I-1.444 J-0.659
G1 X26.376 Y194.529
G2 X26.405 Y194.451 I-1.477 J-0.582
G1 X26.506 Y194.149
G2 X26.531 Y194.066 I-1.505 J-0.504
G1 X26.613 Y193.767
G2 X26.635 Y193.68 I-1.531 J-0.421
G1 X26.698 Y193.385
G2 X26.715 Y193.295 I-1.552 J-0.334
G1 X26.76 Y193.005
G2 X26.771 Y192.914 I-1.569 J-0.244
G1 X26.799 Y192.631
G2 X26.805 Y192.535 I-1.58 J-0.153
G1 X26.815 Y192.258
G2 X26.816 Y192.161 I-1.586 J-0.057
G1 X26.809 Y191.893
G2 X26.803 Y191.794 I-1.587 J0.04
G1 X26.781 Y191.534
G2 X26.769 Y191.434 I-1.581 J0.139
G1 X26.731 Y191.184
G2 X26.711 Y191.082 I-1.569 J0.239
G1 X26.659 Y190.843
G2 X26.633 Y190.74 I-1.55 J0.341
G1 X26.566 Y190.512
G2 X26.531 Y190.406 I-1.524 J0.444
G1 X26.452 Y190.191
G2 X26.41 Y190.089 I-1.489 J0.55
G1 X26.318 Y189.886
G2 X26.264 Y189.776 I-1.447 J0.652
G1 X26.161 Y189.588
G2 X26.098 Y189.483 I-1.393 J0.762
G1 X25.985 Y189.309
G2 X25.91 Y189.204 I-1.33 J0.867
G1 X25.787 Y189.045
G2 X25.694 Y188.936 I-1.255 J0.972
G1 X25.562 Y188.794
G2 X25.46 Y188.694 I-1.163 J1.081
G1 X25.32 Y188.568
G2 X25.197 Y188.468 I-1.061 J1.181
G1 X25.049 Y188.36
G2 X24.918 Y188.273 I-0.937 J1.281
G1 X24.763 Y188.182
G2 X24.615 Y188.105 I-0.806 J1.368
G1 X24.455 Y188.032
G2 X24.28 Y187.965 I-0.658 J1.445
G1 X24.114 Y187.912
G2 X23.95 Y187.869 I-0.483 J1.512
G1 X23.779 Y187.834
G2 X23.596 Y187.807 I-0.319 J1.555
G1 X23.42 Y187.792
G2 X23.249 Y187.787 I-0.135 J1.582
G1 X23.07 Y187.791
G2 X22.891 Y187.805 I0.035 J1.587
G1 X22.708 Y187.83
G2 X22.55 Y187.86 I0.215 J1.573
G1 X22.364 Y187.905
G2 X22.213 Y187.949 I0.373 J1.543
G1 X22.024 Y188.015
G2 X21.898 Y188.066 I0.524 J1.499
G1 X21.706 Y188.152
G2 X21.59 Y188.21 I0.65 J1.448
G1 X21.396 Y188.317
G2 X21.295 Y188.377 I0.766 J1.39
G1 X21.099 Y188.505
G2 X21.012 Y188.566 I0.867 J1.33
G1 X20.814 Y188.715
G2 X20.74 Y188.773 I0.953 J1.269
G1 X20.54 Y188.943
G2 X20.477 Y189 I1.027 J1.211
G1 X20.275 Y189.191
G2 X20.221 Y189.245 I1.09 J1.154
G1 X20.017 Y189.457
G2 X19.968 Y189.509 I1.144 J1.1
G1 X19.763 Y189.743
G2 X19.725 Y189.788 I1.193 J1.048
G1 X19.518 Y190.042
G2 X19.482 Y190.087 I1.23 J1.003
G1 X19.274 Y190.362
X19.246 Y190.4
X19.238 Y190.409
X19.226 Y190.422
X19.208 Y190.44
X19.198 Y190.45
X19.186 Y190.459
X19.168 Y190.474
X19.16 Y190.479
X19.144 Y190.489
X19.126 Y190.5
X19.112 Y190.507
X19.09 Y190.518
X19.075 Y190.524
X19.06 Y190.53
X19.042 Y190.536
X19.033 Y190.538
X19.014 Y190.542
X18.986 Y190.548
X18.974 Y190.55
X18.961 Y190.551
X18.94 Y190.552
X18.918
X18.905
X18.893 Y190.551
X18.863 Y190.547
X18.851 Y190.546
X18.84 Y190.543
X18.8 Y190.533
X14.202 Y189.276
X14.517 Y188.314
G2 X14.521 Y188.302 I-1.508 J-0.495
G1 X15.334 Y185.756
G2 X15.338 Y185.744 I-1.512 J-0.483
G1 X16.129 Y183.201
G2 X16.132 Y183.189 I-1.516 J-0.471
G1 X16.9 Y180.648
G2 X16.904 Y180.636 I-1.52 J-0.459
G1 X17.649 Y178.097
G2 X17.653 Y178.085 I-1.523 J-0.447
G1 X18.375 Y175.548
G2 X18.379 Y175.536 I-1.527 J-0.435
G1 X19.079 Y173.002
G2 X19.082 Y172.989 I-1.53 J-0.423
G1 X19.76 Y170.458
G2 X19.763 Y170.446 I-1.534 J-0.41
G1 X20.418 Y167.917
G2 X20.421 Y167.904 I-1.537 J-0.398
G1 X21.053 Y165.377
G2 X21.056 Y165.364 I-1.54 J-0.385
G1 X21.665 Y162.84
G2 X21.668 Y162.828 I-1.543 J-0.372
G1 X22.255 Y160.306
G2 X22.258 Y160.293 I-1.546 J-0.36
G1 X22.821 Y157.774
G2 X22.824 Y157.761 I-1.549 J-0.347
G1 X23.365 Y155.245
G2 X23.368 Y155.231 I-1.552 J-0.334
G1 X23.886 Y152.717
G2 X23.889 Y152.704 I-1.555 J-0.32
G1 X24.384 Y150.194
G2 X24.387 Y150.181 I-1.557 J-0.307
G1 X24.86 Y147.673
G2 X24.862 Y147.66 I-1.56 J-0.294
G1 X25.312 Y145.156
G2 X25.315 Y145.143 I-1.562 J-0.281
G1 X25.742 Y142.642
G2 X25.745 Y142.628 I-1.565 J-0.268
G1 X26.15 Y140.13
G2 X26.152 Y140.117 I-1.567 J-0.254
G1 X26.535 Y137.624
G2 X26.537 Y137.611 I-1.569 J-0.241
G1 X26.898 Y135.121
G2 X26.9 Y135.108 I-1.571 J-0.228
G1 X27.239 Y132.622
G2 X27.241 Y132.608 I-1.573 J-0.215
G1 X27.559 Y130.126
G2 X27.56 Y130.113 I-1.575 J-0.201
G1 X27.857 Y127.636
G2 X27.858 Y127.624 I-1.576 J-0.188
G1 X28.133 Y125.152
G2 X28.135 Y125.139 I-1.578 J-0.176
G1 X28.389 Y122.672
G2 X28.39 Y122.659 I-1.579 J-0.163
G1 X28.624 Y120.197
G2 X28.625 Y120.185 I-1.58 J-0.15
G1 X28.839 Y117.73
G2 X28.841 Y117.718 I-1.581 J-0.138
G1 X29.035 Y115.268
G2 X29.036 Y115.256 I-1.583 J-0.126
G1 X29.212 Y112.813
G2 X29.213 Y112.801 I-1.583 J-0.114
G1 X29.37 Y110.366
G2 Y110.355 I-1.584 J-0.102
G1 X29.51 Y107.927
G2 X29.511 Y107.916 I-1.585 J-0.091
G1 X29.633 Y105.495
G2 Y105.485 I-1.585 J-0.08
G1 X29.74 Y103.074
G2 Y103.064 I-1.586 J-0.07
G1 X29.83 Y100.661
X29.831 Y100.651
X29.907 Y98.259
Y98.25
X29.969 Y95.867
Y95.859
X30.019 Y93.487
Y93.48
X30.056 Y91.12
G2 X30.057 Y91.11 I-1.587 J-0.025
G1 X30.101 Y86.427
G2 Y86.416 I-1.587 J-0.015
G1 X30.115 Y81.79
Y81.783
X30.107 Y77.219
Y77.216
X30.092 Y72.723
X30.084 Y68.311
X30.096 Y63.988
X30.114 Y61.867
X30.144 Y59.77
X30.186 Y57.701
X30.244 Y55.661
X30.318 Y53.651
X30.411 Y51.671
X30.525 Y49.725
X30.662 Y47.812
X30.823 Y45.934
X31.011 Y44.091
X31.228 Y42.286
X31.475 Y40.52
X31.754 Y38.788
X31.905 Y37.944
X32.066 Y37.105
X32.235 Y36.277
X32.414 Y35.46
X32.601 Y34.654
X32.798 Y33.857
X33.005 Y33.072
X33.221 Y32.298
X33.448 Y31.535
X33.684 Y30.783
X33.931 Y30.043
X34.188 Y29.313
X34.455 Y28.595
X34.734 Y27.888
X35.023 Y27.193
X35.323 Y26.51
X35.634 Y25.838
X35.957 Y25.177
X36.291 Y24.528
X36.636 Y23.891
X36.993 Y23.265
X37.362 Y22.651
X37.742 Y22.049
X38.135 Y21.458
X38.54 Y20.879
X38.957 Y20.311
X39.387 Y19.754
X39.829 Y19.209
X40.284 Y18.676
X40.752 Y18.154
X41.232 Y17.643
X41.726 Y17.143
X42.233 Y16.655
X42.753 Y16.177
X43.287 Y15.711
X43.834 Y15.257
X44.395 Y14.813
X44.97 Y14.38
X45.558 Y13.959
X46.161 Y13.548
X46.778 Y13.149
X47.409 Y12.761
X48.054 Y12.384
X48.714 Y12.018
X49.389 Y11.663
X50.078 Y11.319
X50.781 Y10.986
X51.5 Y10.665
X52.233 Y10.355
X52.981 Y10.055
X53.743 Y9.768
X54.521 Y9.491
X55.314 Y9.226
X56.121 Y8.972
X56.943 Y8.729
X57.781 Y8.498
X58.633 Y8.278
X59.5 Y8.07
X60.383 Y7.873
X61.28 Y7.687
X62.192 Y7.513
X63.119 Y7.35
X64.061 Y7.199
X65.018 Y7.059
X65.99 Y6.931
X66.976 Y6.815
X67.978 Y6.71
X68.994 Y6.616
X70.025 Y6.534
X71.071 Y6.464
X72.132 Y6.405
X73.207 Y6.358
X74.297 Y6.322
X75.402 Y6.299
X76.522 Y6.286
X77.656
X78.541 Y6.294
G2 X89.532 Y9.781 I6.459 J-1.294
X85.363 Y-1.577 I-4.532 J-4.781
G3 X89.532 Y9.781 Z-10.241 I-0.363 J6.577 F200
X78.541 Y6.294 Z-10.461 I-4.532 J-4.781
G1 X77.656 Y6.286 Z-10.475
X76.522 Z-10.492
X75.402 Y6.299 Z-10.51
X74.297 Y6.322 Z-10.527
X73.207 Y6.358 Z-10.544
X72.132 Y6.405 Z-10.561
X71.071 Y6.464 Z-10.578
X70.025 Y6.534 Z-10.594
X68.994 Y6.616 Z-10.611
X67.978 Y6.71 Z-10.627
X66.976 Y6.815 Z-10.642
X65.99 Y6.931 Z-10.658
X65.018 Y7.059 Z-10.673
X64.061 Y7.199 Z-10.689
X63.119 Y7.35 Z-10.704
X62.192 Y7.513 Z-10.718
X61.28 Y7.687 Z-10.733
X60.383 Y7.873 Z-10.747
X59.5 Y8.07 Z-10.761
X58.633 Y8.278 Z-10.775
X57.781 Y8.498 Z-10.789
X56.943 Y8.729 Z-10.803
X56.121 Y8.972 Z-10.816
X55.314 Y9.226 Z-10.83
X54.521 Y9.491 Z-10.843
X53.743 Y9.768 Z-10.856
X52.981 Y10.055 Z-10.868
X52.233 Y10.355 Z-10.881
X51.5 Y10.665 Z-10.894
X50.781 Y10.986 Z-10.906
X50.078 Y11.319 Z-10.918
X49.389 Y11.663 Z-10.93
X48.714 Y12.018 Z-10.942
X48.054 Y12.384 Z-10.954
X47.409 Y12.761 Z-10.966
X46.778 Y13.149 Z-10.977
X46.161 Y13.548 Z-10.989
X45.558 Y13.959 Z-11
X44.97 Y14.38 Z-11.012
X44.395 Y14.813 Z-11.023
X43.834 Y15.257 Z-11.034
X43.287 Y15.711 Z-11.045
X42.753 Y16.177 Z-11.056
X42.233 Y16.655 Z-11.067
X41.726 Y17.143 Z-11.079
X41.232 Y17.643 Z-11.09
X40.752 Y18.154 Z-11.101
X40.284 Y18.676 Z-11.112
X39.829 Y19.209 Z-11.123
X39.387 Y19.754 Z-11.134
X38.957 Y20.311 Z-11.145
X38.54 Y20.879 Z-11.156
X38.135 Y21.458 Z-11.167
X37.742 Y22.049 Z-11.178
X37.362 Y22.651 Z-11.189
X36.993 Y23.265 Z-11.2
X36.636 Y23.891 Z-11.212
X36.291 Y24.528 Z-11.223
X35.957 Y25.177 Z-11.234
X35.634 Y25.838 Z-11.246
X35.323 Y26.51 Z-11.258
X35.023 Y27.193 Z-11.269
X34.734 Y27.888 Z-11.281
X34.455 Y28.595 Z-11.293
X34.188 Y29.313 Z-11.305
X33.931 Y30.043 Z-11.317
X33.684 Y30.783 Z-11.329
X33.448 Y31.535 Z-11.342
X33.221 Y32.298 Z-11.354
X33.005 Y33.072 Z-11.367
X32.798 Y33.857 Z-11.38
X32.601 Y34.654 Z-11.392
X32.414 Y35.46 Z-11.405
X32.235 Y36.277 Z-11.418
X32.066 Y37.105 Z-11.432
X31.905 Y37.944 Z-11.445
X31.754 Y38.788 Z-11.459
X31.475 Y40.52 Z-11.486
X31.228 Y42.286 Z-11.514
X31.011 Y44.091 Z-11.543
X30.823 Y45.934 Z-11.572
X30.662 Y47.812 Z-11.601
X30.525 Y49.725 Z-11.631
X30.411 Y51.671 Z-11.662
X30.318 Y53.651 Z-11.693
X30.244 Y55.661 Z-11.725
X30.186 Y57.701 Z-11.757
X30.144 Y59.77 Z-11.789
X30.114 Y61.867 Z-11.822
X30.096 Y63.988 Z-11.855
X30.084 Y68.311 Z-11.923
X30.092 Y72.723 Z-11.992
X30.107 Y77.216 Z-12.063
Y77.219
X30.115 Y81.783 Z-12.134
Y81.79
X30.101 Y86.416 Z-12.207
G3 Y86.427 I-1.587 J-0.004
G1 X30.057 Y91.11 Z-12.281
G3 X30.056 Y91.12 I-1.587 J-0.015
G1 X30.019 Y93.48 Z-12.318
Y93.487
X29.969 Y95.859 Z-12.355
Y95.867
X29.907 Y98.25 Z-12.393
Y98.259
X29.831 Y100.651 Z-12.43
X29.83 Y100.661
X29.74 Y103.064 Z-12.468
G3 Y103.074 I-1.586 J-0.06
G1 X29.633 Y105.485 Z-12.506
G3 Y105.495 I-1.586 J-0.07
G1 X29.511 Y107.916 Z-12.544
G3 X29.51 Y107.927 I-1.585 J-0.08
G1 X29.37 Y110.355 Z-12.583
G3 Y110.366 I-1.585 J-0.091
G1 X29.213 Y112.801 Z-12.621
G3 X29.212 Y112.813 I-1.584 J-0.102
G1 X29.036 Y115.256 Z-12.66
G3 X29.035 Y115.268 I-1.583 J-0.114
G1 X28.841 Y117.718 Z-12.698
G3 X28.839 Y117.73 Z-12.699 I-1.583 J-0.126
G1 X28.625 Y120.185 Z-12.737
G3 X28.624 Y120.197 I-1.581 J-0.138
G1 X28.39 Y122.659 Z-12.776
G3 X28.389 Y122.672 I-1.58 J-0.15
G1 X28.135 Y125.139 Z-12.815
G3 X28.133 Y125.152 Z-12.816 I-1.579 J-0.163
G1 X27.858 Y127.624 Z-12.855
G3 X27.857 Y127.636 I-1.578 J-0.176
G1 X27.56 Y130.113 Z-12.894
G3 X27.559 Y130.126 I-1.576 J-0.188
G1 X27.241 Y132.608 Z-12.933
G3 X27.239 Y132.622 Z-12.934 I-1.575 J-0.201
G1 X26.9 Y135.108 Z-12.973
G3 X26.898 Y135.121 I-1.573 J-0.215
G1 X26.537 Y137.611 Z-13.013
G3 X26.535 Y137.624 I-1.571 J-0.228
G1 X26.152 Y140.117 Z-13.052
G3 X26.15 Y140.13 Z-13.053 I-1.569 J-0.241
G1 X25.745 Y142.628 Z-13.092
G3 X25.742 Y142.642 I-1.567 J-0.254
G1 X25.315 Y145.143 Z-13.132
G3 X25.312 Y145.156 I-1.565 J-0.268
G1 X24.862 Y147.66 Z-13.172
G3 X24.86 Y147.673 Z-13.173 I-1.562 J-0.281
G1 X24.387 Y150.181 Z-13.213
G3 X24.384 Y150.194 I-1.56 J-0.294
G1 X23.889 Y152.704 Z-13.253
G3 X23.886 Y152.717 I-1.557 J-0.307
G1 X23.368 Y155.231 Z-13.293
G3 X23.365 Y155.245 Z-13.294 I-1.555 J-0.32
G1 X22.824 Y157.761 Z-13.334
G3 X22.821 Y157.774 I-1.552 J-0.334
G1 X22.258 Y160.293 Z-13.375
G3 X22.255 Y160.306 I-1.549 J-0.347
G1 X21.668 Y162.828 Z-13.416
G3 X21.665 Y162.84 I-1.546 J-0.36
G1 X21.056 Y165.364 Z-13.456
G3 X21.053 Y165.377 Z-13.457 I-1.543 J-0.372
G1 X20.421 Y167.904 Z-13.498
G3 X20.418 Y167.917 I-1.54 J-0.385
G1 X19.763 Y170.446 Z-13.539
G3 X19.76 Y170.458 I-1.537 J-0.398
G1 X19.082 Y172.989 Z-13.58
G3 X19.079 Y173.002 I-1.534 J-0.41
G1 X18.379 Y175.536 Z-13.621
G3 X18.375 Y175.548 Z-13.622 I-1.53 J-0.423
G1 X17.653 Y178.085 Z-13.663
G3 X17.649 Y178.097 I-1.527 J-0.435
G1 X16.904 Y180.636 Z-13.705
G3 X16.9 Y180.648 I-1.523 J-0.447
G1 X16.132 Y183.189 Z-13.747
G3 X16.129 Y183.201 I-1.52 J-0.459
G1 X15.338 Y185.744 Z-13.789
G3 X15.334 Y185.756 I-1.516 J-0.471
G1 X14.521 Y188.302 Z-13.831
G3 X14.517 Y188.314 I-1.512 J-0.483
G1 X14.202 Y189.276 Z-13.847
X18.8 Y190.533 Z-13.921
X18.84 Y190.543 Z-13.922
X18.851 Y190.546
X18.863 Y190.547 Z-13.923
X18.893 Y190.551
X18.905 Y190.552
X18.918
X18.94 Z-13.924
X18.961 Y190.551
X18.974 Y190.55
X18.986 Y190.548
X19.014 Y190.542 Z-13.925
X19.033 Y190.538
X19.042 Y190.536
X19.06 Y190.53 Z-13.926
X19.075 Y190.524
X19.09 Y190.518
X19.112 Y190.507 Z-13.927
X19.126 Y190.5
X19.144 Y190.489
X19.16 Y190.479
X19.168 Y190.474 Z-13.928
X19.186 Y190.459
X19.198 Y190.45
X19.208 Y190.44
X19.226 Y190.422 Z-13.929
X19.238 Y190.409
X19.246 Y190.4
X19.274 Y190.362 Z-13.93
X19.482 Y190.087 Z-13.935
G3 X19.518 Y190.042 Z-13.936 I1.266 J0.958
G1 X19.725 Y189.788 Z-13.941
G3 X19.763 Y189.743 Z-13.942 I1.23 J1.003
G1 X19.968 Y189.509 Z-13.947
G3 X20.017 Y189.457 Z-13.948 I1.193 J1.048
G1 X20.221 Y189.245 Z-13.953
G3 X20.275 Y189.191 Z-13.954 I1.144 J1.1
G1 X20.477 Y189 Z-13.959
G3 X20.54 Y188.943 Z-13.96 I1.09 J1.154
G1 X20.74 Y188.773 Z-13.964
G3 X20.814 Y188.715 Z-13.965 I1.027 J1.211
G1 X21.012 Y188.566 Z-13.969
G3 X21.099 Y188.505 Z-13.971 I0.953 J1.269
G1 X21.295 Y188.377 Z-13.975
G3 X21.396 Y188.317 Z-13.977 I0.867 J1.33
G1 X21.59 Y188.21 Z-13.98
G3 X21.706 Y188.152 Z-13.982 I0.766 J1.39
G1 X21.898 Y188.066 Z-13.985
G3 X22.024 Y188.015 Z-13.987 I0.65 J1.448
G1 X22.213 Y187.949 Z-13.991
G3 X22.364 Y187.905 Z-13.993 I0.524 J1.499
G1 X22.55 Y187.86 Z-13.996
G3 X22.708 Y187.83 Z-13.999 I0.373 J1.543
G1 X22.891 Y187.805 Z-14.001
G3 X23.07 Y187.791 Z-14.004 I0.215 J1.573
G1 X23.249 Y187.787 Z-14.007
G3 X23.42 Y187.792 Z-14.01 I0.035 J1.587
G1 X23.596 Y187.807 Z-14.013
G3 X23.779 Y187.834 Z-14.015 I-0.135 J1.582
G1 X23.95 Y187.869 Z-14.018
G3 X24.114 Y187.912 Z-14.021 I-0.319 J1.555
G1 X24.28 Y187.965 Z-14.024
G3 X24.455 Y188.032 Z-14.027 I-0.483 J1.512
G1 X24.615 Y188.105 Z-14.029
G3 X24.763 Y188.182 Z-14.032 I-0.658 J1.445
G1 X24.918 Y188.273 Z-14.035
G3 X25.049 Y188.36 Z-14.037 I-0.806 J1.368
G1 X25.197 Y188.468 Z-14.04
G3 X25.32 Y188.568 Z-14.043 I-0.937 J1.281
G1 X25.46 Y188.694 Z-14.046
G3 X25.562 Y188.794 Z-14.048 I-1.061 J1.181
G1 X25.694 Y188.936 Z-14.051
G3 X25.787 Y189.045 Z-14.053 I-1.163 J1.081
G1 X25.91 Y189.204 Z-14.056
G3 X25.985 Y189.309 Z-14.058 I-1.255 J0.972
G1 X26.098 Y189.483 Z-14.061
G3 X26.161 Y189.588 Z-14.063 I-1.33 J0.867
G1 X26.264 Y189.776 Z-14.067
G3 X26.318 Y189.886 Z-14.069 I-1.393 J0.762
G1 X26.41 Y190.089 Z-14.072
G3 X26.452 Y190.191 Z-14.074 I-1.447 J0.652
G1 X26.531 Y190.406 Z-14.078
G3 X26.566 Y190.512 Z-14.079 I-1.489 J0.55
G1 X26.633 Y190.74 Z-14.083
G3 X26.659 Y190.843 Z-14.085 I-1.524 J0.444
G1 X26.711 Y191.082 Z-14.088
G3 X26.731 Y191.184 Z-14.09 I-1.55 J0.341
G1 X26.769 Y191.434 Z-14.094
G3 X26.781 Y191.534 Z-14.096 I-1.569 J0.239
G1 X26.803 Y191.794 Z-14.1
G3 X26.809 Y191.893 Z-14.101 I-1.581 J0.139
G1 X26.816 Y192.161 Z-14.106
G3 X26.815 Y192.258 Z-14.107 I-1.587 J0.04
G1 X26.805 Y192.535 Z-14.111
G3 X26.799 Y192.631 Z-14.113 I-1.586 J-0.057
G1 X26.771 Y192.914 Z-14.117
G3 X26.76 Y193.005 Z-14.119 I-1.58 J-0.153
G1 X26.715 Y193.295 Z-14.123
G3 X26.698 Y193.385 Z-14.125 I-1.569 J-0.244
G1 X26.635 Y193.68 Z-14.13
G3 X26.613 Y193.767 Z-14.131 I-1.552 J-0.334
G1 X26.531 Y194.066 Z-14.136
G3 X26.506 Y194.149 Z-14.137 I-1.531 J-0.421
G1 X26.405 Y194.451 Z-14.142
G3 X26.376 Y194.529 Z-14.144 I-1.505 J-0.504
G1 X26.256 Y194.834 Z-14.149
G3 X26.223 Y194.911 Z-14.15 I-1.477 J-0.582
G1 X26.084 Y195.217 Z-14.155
G3 X26.048 Y195.29 Z-14.157 I-1.444 J-0.659
G1 X25.889 Y195.596 Z-14.162
G3 X25.852 Y195.663 Z-14.163 I-1.409 J-0.732
G1 X25.674 Y195.969 Z-14.169
G3 X25.635 Y196.033 Z-14.17 I-1.372 J-0.799
G1 X25.438 Y196.338 Z-14.176
G3 X25.396 Y196.399 Z-14.177 I-1.333 J-0.863
G1 X25.179 Y196.701 Z-14.183
G3 X25.137 Y196.758 Z-14.184 I-1.291 J-0.924
G1 X24.902 Y197.057 Z-14.19
G3 X24.858 Y197.11 Z-14.191 I-1.248 J-0.981
G1 X24.605 Y197.405 Z-14.197
G3 X24.559 Y197.457 Z-14.198 I-1.205 J-1.034
G1 X24.288 Y197.746 Z-14.204
G3 X24.244 Y197.791 Z-14.205 I-1.158 J-1.086
G1 X23.956 Y198.075 Z-14.211
G3 X23.909 Y198.119 Z-14.212 I-1.114 J-1.131
G1 X23.604 Y198.396 Z-14.219
G3 X23.556 Y198.438 Z-14.22 I-1.067 J-1.175
G1 X23.235 Y198.707 Z-14.226
G3 X23.186 Y198.746 Z-14.227 I-1.02 J-1.217
G1 X22.85 Y199.006 Z-14.234
G3 X22.802 Y199.041 Z-14.235 I-0.971 J-1.256
G1 X22.451 Y199.292 Z-14.242
G3 X22.4 Y199.328 Z-14.243 I-0.923 J-1.291
G1 X22.035 Y199.568 Z-14.25
G3 X21.988 Y199.597 Z-14.251 I-0.872 J-1.327
G1 X21.609 Y199.827 Z-14.257
G3 X21.556 Y199.859 Z-14.258 I-0.825 J-1.356
G1 X21.165 Y200.076 Z-14.265
G3 X21.115 Y200.102 Z-14.266 I-0.771 J-1.388
G1 X20.713 Y200.307 Z-14.273
G3 X20.662 Y200.332 Z-14.274 I-0.721 J-1.414
G1 X20.249 Y200.524 Z-14.281
G3 X20.193 Y200.549 Z-14.282 I-0.67 J-1.439
G1 X19.771 Y200.726 Z-14.29
G3 X19.716 Y200.748 Z-14.291 I-0.614 J-1.464
G1 X19.285 Y200.91 Z-14.298
G3 X19.23 Y200.929 Z-14.299 I-0.558 J-1.486
G1 X18.791 Y201.076 Z-14.306
G3 X18.735 Y201.094 Z-14.307 I-0.504 J-1.505
G1 X18.289 Y201.225 Z-14.314
G3 X18.229 Y201.241 Z-14.315 I-0.447 J-1.523
G1 X17.777 Y201.355 Z-14.322
G3 X17.716 Y201.37 Z-14.323 I-0.388 J-1.539
G1 X17.259 Y201.466 Z-14.331
G3 X17.197 Y201.477 Z-14.332 I-0.326 J-1.554
G1 X16.736 Y201.555 Z-14.339
G3 X16.675 Y201.564 Z-14.34 I-0.265 J-1.565
G1 X16.21 Y201.624 Z-14.347
G3 X16.146 Y201.631 Z-14.348 I-0.203 J-1.574
G1 X15.679 Y201.672 Z-14.356
G3 X15.611 Y201.677 Z-14.357 I-0.139 J-1.581
G1 X15.143 Y201.698 Z-14.364
G3 X15.075 Y201.699 Z-14.365 I-0.071 J-1.586
G1 X14.606 Y201.701 Z-14.373
G3 X14.539 Y201.699 Z-14.374 I-0.003 J-1.587
G1 X14.07 Y201.68 Z-14.381
G3 X13.999 Y201.676 Z-14.382 I0.064 J-1.586
G1 X13.532 Y201.636 Z-14.389
G3 X13.461 Y201.628 Z-14.391 I0.135 J-1.582
G1 X12.995 Y201.567 Z-14.398
G3 X12.925 Y201.556 Z-14.399 I0.206 J-1.574
G1 X12.462 Y201.474 Z-14.406
G3 X12.388 Y201.459 Z-14.408 I0.277 J-1.563
G1 X11.928 Y201.355 Z-14.415
G3 X11.856 Y201.337 Z-14.416 I0.35 J-1.548
G1 X11.4 Y201.211 Z-14.424
G3 X11.328 Y201.189 Z-14.425 I0.423 J-1.53
G1 X10.876 Y201.041 Z-14.432
G3 X10.806 Y201.017 Z-14.433 I0.495 J-1.508
G1 X10.36 Y200.847 Z-14.441
G3 X10.291 Y200.818 Z-14.442 I0.565 J-1.484
G1 X9.85 Y200.626 Z-14.45
G3 X9.78 Y200.594 Z-14.451 I0.634 J-1.455
G1 X9.345 Y200.379 Z-14.458
G3 X9.28 Y200.345 Z-14.46 I0.704 J-1.423
G1 X8.852 Y200.108 Z-14.467
G3 X8.789 Y200.071 Z-14.468 I0.769 J-1.389
G1 X8.368 Y199.812 Z-14.476
G3 X8.308 Y199.773 Z-14.477 I0.832 J-1.352
G1 X7.894 Y199.492 Z-14.485
G3 X7.835 Y199.45 Z-14.486 I0.892 J-1.313
G1 X7.429 Y199.146 Z-14.494
G3 X7.374 Y199.103 Z-14.495 I0.952 J-1.271
G1 X6.976 Y198.777 Z-14.503
G3 X6.927 Y198.734 Z-14.504 I1.006 J-1.228
G1 X6.537 Y198.387 Z-14.513
G3 X6.487 Y198.341 Z-14.514 I1.056 J-1.185
G1 X6.106 Y197.971 Z-14.522
G3 X6.061 Y197.925 Z-14.523 I1.106 J-1.139
G1 X5.689 Y197.533 Z-14.531
G3 X5.648 Y197.488 Z-14.532 I1.152 J-1.093
G1 X5.285 Y197.075 Z-14.541
G3 X5.247 Y197.029 Z-14.542 I1.193 J-1.048
G1 X4.893 Y196.595 Z-14.551
G3 X4.857 Y196.549 Z-14.552 I1.231 J-1.002
G1 X4.513 Y196.093 Z-14.561
G3 X4.48 Y196.048 Z-14.562 I1.268 J-0.956
G1 X4.146 Y195.571 Z-14.571
G3 X4.117 Y195.528 I1.3 J-0.911
G1 X3.793 Y195.031 Z-14.581
G3 X3.765 Y194.987 Z-14.582 I1.329 J-0.868
G1 X3.451 Y194.469 Z-14.591
G3 X3.426 Y194.427 Z-14.592 I1.357 J-0.824
G1 X3.122 Y193.889 Z-14.602
G3 X3.099 Y193.847 I1.382 J-0.782
G1 X2.805 Y193.289 Z-14.612
G3 X2.785 Y193.249 Z-14.613 I1.404 J-0.74
G1 X2.5 Y192.671 Z-14.623
G3 X2.482 Y192.633 Z-14.624 I1.425 J-0.7
G1 X2.208 Y192.036 Z-14.634
G3 X2.192 Y191.999 Z-14.635 I1.443 J-0.662
G1 X1.928 Y191.383 Z-14.645
G3 X1.914 Y191.347 Z-14.646 I1.459 J-0.625
G1 X1.66 Y190.713 Z-14.656
G3 X1.646 Y190.677 Z-14.657 I1.474 J-0.589
G1 X1.403 Y190.023 Z-14.668
G3 X1.391 Y189.991 Z-14.669 I1.488 J-0.553
G1 X1.159 Y189.32 Z-14.68
G3 X1.148 Y189.287 I1.5 J-0.521
G1 X0.925 Y188.598 Z-14.692
G3 X0.915 Y188.567 I1.511 J-0.488
G1 X0.703 Y187.86 Z-14.704
G3 X0.694 Y187.83 I1.52 J-0.457
G1 X0.492 Y187.106 Z-14.716
G3 X0.484 Y187.078 I1.529 J-0.427
G1 X0.292 Y186.337 Z-14.728
G3 X0.285 Y186.309 Z-14.729 I1.537 J-0.399
G1 X0.103 Y185.552 Z-14.741
G3 X0.097 Y185.526 I1.543 J-0.371
G1 X-0.075 Y184.753 Z-14.754
G3 X-0.081 Y184.727 I1.55 J-0.345
G1 X-0.243 Y183.937 Z-14.767
G3 X-0.248 Y183.913 I1.555 J-0.319
G1 X-0.4 Y183.108 Z-14.78
G3 X-0.404 Y183.085 Z-14.781 I1.56 J-0.295
G1 X-0.547 Y182.265 Z-14.794
G3 X-0.551 Y182.242 I1.564 J-0.272
G1 X-0.684 Y181.406 Z-14.807
G3 X-0.687 Y181.385 Z-14.808 I1.568 J-0.249
G1 X-0.81 Y180.535 Z-14.821
G3 X-0.813 Y180.514 I1.571 J-0.228
G1 X-0.927 Y179.649 Z-14.835
G3 X-0.93 Y179.629 I1.574 J-0.207
G1 X-1.034 Y178.75 Z-14.849
G3 X-1.036 Y178.731 Z-14.85 I1.576 J-0.187
G1 X-1.131 Y177.838 Z-14.864
G3 X-1.133 Y177.819 I1.579 J-0.168
G1 X-1.219 Y176.912 Z-14.878
G3 X-1.22 Y176.894 Z-14.879 I1.58 J-0.149
G1 X-1.297 Y175.973 Z-14.893
G3 X-1.298 Y175.948 I1.582 J-0.131
G1 X-1.424 Y174.067 Z-14.923
G3 X-1.426 Y174.034 Z-14.924 I1.584 J-0.106
G1 X-1.515 Y172.1 Z-14.954
G3 X-1.516 Y172.07 I1.586 J-0.073
G1 X-1.569 Y170.084 Z-14.986
G3 X-1.57 Y170.055 I1.587 J-0.043
G1 X-1.577 Y169.16 Z-15
X-1.57 Y170.055 F300
G2 X-1.569 Y170.084 I1.587 J-0.014
G1 X-1.516 Y172.07
G2 X-1.515 Y172.1 I1.587 J-0.043
G1 X-1.426 Y174.034
G2 X-1.424 Y174.067 I1.586 J-0.073
G1 X-1.298 Y175.948
G2 X-1.297 Y175.973 I1.584 J-0.106
G1 X-1.22 Y176.894
G2 X-1.219 Y176.912 I1.582 J-0.131
G1 X-1.133 Y177.819
G2 X-1.131 Y177.838 I1.58 J-0.149
G1 X-1.036 Y178.731
G2 X-1.034 Y178.75 I1.579 J-0.168
G1 X-0.93 Y179.629
G2 X-0.927 Y179.649 I1.576 J-0.187
G1 X-0.813 Y180.514
G2 X-0.81 Y180.535 I1.574 J-0.207
G1 X-0.687 Y181.385
G2 X-0.684 Y181.406 I1.571 J-0.228
G1 X-0.551 Y182.242
G2 X-0.547 Y182.265 I1.568 J-0.249
G1 X-0.404 Y183.085
G2 X-0.4 Y183.108 I1.564 J-0.272
G1 X-0.248 Y183.913
G2 X-0.243 Y183.937 I1.56 J-0.295
G1 X-0.081 Y184.727
G2 X-0.075 Y184.753 I1.555 J-0.319
G1 X0.097 Y185.526
G2 X0.103 Y185.552 I1.55 J-0.345
G1 X0.285 Y186.309
G2 X0.292 Y186.337 I1.543 J-0.371
G1 X0.484 Y187.078
G2 X0.492 Y187.106 I1.537 J-0.399
G1 X0.694 Y187.83
G2 X0.703 Y187.86 I1.529 J-0.427
G1 X0.915 Y188.567
G2 X0.925 Y188.598 I1.52 J-0.457
G1 X1.148 Y189.287
G2 X1.159 Y189.32 I1.511 J-0.488
G1 X1.391 Y189.991
G2 X1.403 Y190.023 I1.5 J-0.521
G1 X1.646 Y190.677
G2 X1.66 Y190.713 I1.488 J-0.553
G1 X1.914 Y191.347
G2 X1.928 Y191.383 I1.474 J-0.589
G1 X2.192 Y191.999
G2 X2.208 Y192.036 I1.459 J-0.625
G1 X2.482 Y192.633
G2 X2.5 Y192.671 I1.443 J-0.662
G1 X2.785 Y193.249
G2 X2.805 Y193.289 I1.425 J-0.7
G1 X3.099 Y193.847
G2 X3.122 Y193.889 I1.404 J-0.74
G1 X3.426 Y194.427
G2 X3.451 Y194.469 I1.382 J-0.782
G1 X3.765 Y194.987
G2 X3.793 Y195.031 I1.357 J-0.824
G1 X4.117 Y195.528
G2 X4.146 Y195.571 I1.329 J-0.868
G1 X4.48 Y196.048
G2 X4.513 Y196.093 I1.3 J-0.911
G1 X4.857 Y196.549
G2 X4.893 Y196.595 I1.268 J-0.956
G1 X5.247 Y197.029
G2 X5.285 Y197.075 I1.231 J-1.002
G1 X5.648 Y197.488
G2 X5.689 Y197.533 I1.193 J-1.048
G1 X6.061 Y197.925
G2 X6.106 Y197.971 I1.152 J-1.093
G1 X6.487 Y198.341
G2 X6.537 Y198.387 I1.106 J-1.139
G1 X6.927 Y198.734
G2 X6.976 Y198.777 I1.056 J-1.185
G1 X7.374 Y199.103
G2 X7.429 Y199.146 I1.006 J-1.228
G1 X7.835 Y199.45
G2 X7.894 Y199.492 I0.952 J-1.271
G1 X8.308 Y199.773
G2 X8.368 Y199.812 I0.892 J-1.313
G1 X8.789 Y200.071
G2 X8.852 Y200.108 I0.832 J-1.352
G1 X9.28 Y200.345
G2 X9.345 Y200.379 I0.769 J-1.389
G1 X9.78 Y200.594
G2 X9.85 Y200.626 I0.704 J-1.423
G1 X10.291 Y200.818
G2 X10.36 Y200.847 I0.634 J-1.455
G1 X10.806 Y201.017
G2 X10.876 Y201.041 I0.565 J-1.484
G1 X11.328 Y201.189
G2 X11.4 Y201.211 I0.495 J-1.508
G1 X11.856 Y201.337
G2 X11.928 Y201.355 I0.423 J-1.53
G1 X12.388 Y201.459
G2 X12.462 Y201.474 I0.35 J-1.548
G1 X12.925 Y201.556
G2 X12.995 Y201.567 I0.277 J-1.563
G1 X13.461 Y201.628
G2 X13.532 Y201.636 I0.206 J-1.574
G1 X13.999 Y201.676
G2 X14.07 Y201.68 I0.135 J-1.582
G1 X14.539 Y201.699
G2 X14.606 Y201.701 I0.064 J-1.586
G1 X15.075 Y201.699
G2 X15.143 Y201.698 I-0.003 J-1.587
G1 X15.611 Y201.677
G2 X15.679 Y201.672 I-0.071 J-1.586
G1 X16.146 Y201.631
G2 X16.21 Y201.624 I-0.139 J-1.581
G1 X16.675 Y201.564
G2 X16.736 Y201.555 I-0.203 J-1.574
G1 X17.197 Y201.477
G2 X17.259 Y201.466 I-0.265 J-1.565
G1 X17.716 Y201.37
G2 X17.777 Y201.355 I-0.326 J-1.554
G1 X18.229 Y201.241
G2 X18.289 Y201.225 I-0.388 J-1.539
G1 X18.735 Y201.094
G2 X18.791 Y201.076 I-0.447 J-1.523
G1 X19.23 Y200.929
G2 X19.285 Y200.91 I-0.504 J-1.505
G1 X19.716 Y200.748
G2 X19.771 Y200.726 I-0.558 J-1.486
G1 X20.193 Y200.549
G2 X20.249 Y200.524 I-0.614 J-1.464
G1 X20.662 Y200.332
G2 X20.713 Y200.307 I-0.67 J-1.439
G1 X21.115 Y200.102
G2 X21.165 Y200.076 I-0.721 J-1.414
G1 X21.556 Y199.859
G2 X21.609 Y199.827 I-0.771 J-1.388
G1 X21.988 Y199.597
G2 X22.035 Y199.568 I-0.825 J-1.356
G1 X22.4 Y199.328
G2 X22.451 Y199.292 I-0.872 J-1.327
G1 X22.802 Y199.041
G2 X22.85 Y199.006 I-0.923 J-1.291
G1 X23.186 Y198.746
G2 X23.235 Y198.707 I-0.971 J-1.256
G1 X23.556 Y198.438
G2 X23.604 Y198.396 I-1.02 J-1.217
G1 X23.909 Y198.119
G2 X23.956 Y198.075 I-1.067 J-1.175
G1 X24.244 Y197.791
G2 X24.288 Y197.746 I-1.114 J-1.131
G1 X24.559 Y197.457
G2 X24.605 Y197.405 I-1.158 J-1.086
G1 X24.858 Y197.11
G2 X24.902 Y197.057 I-1.205 J-1.034
G1 X25.137 Y196.758
G2 X25.179 Y196.701 I-1.248 J-0.981
G1 X25.396 Y196.399
G2 X25.438 Y196.338 I-1.291 J-0.924
G1 X25.635 Y196.033
G2 X25.674 Y195.969 I-1.333 J-0.863
G1 X25.852 Y195.663
G2 X25.889 Y195.596 I-1.372 J-0.799
G1 X26.048 Y195.29
G2 X26.084 Y195.217 I-1.409 J-0.732
G1 X26.223 Y194.911
G2 X26.256 Y194.834 I-1.444 J-0.659
G1 X26.376 Y194.529
G2 X26.405 Y194.451 I-1.477 J-0.582
G1 X26.506 Y194.149
G2 X26.531 Y194.066 I-1.505 J-0.504
G1 X26.613 Y193.767
G2 X26.635 Y193.68 I-1.531 J-0.421
G1 X26.698 Y193.385
G2 X26.715 Y193.295 I-1.552 J-0.334
G1 X26.76 Y193.005
G2 X26.771 Y192.914 I-1.569 J-0.244
G1 X26.799 Y192.631
G2 X26.805 Y192.535 I-1.58 J-0.153
G1 X26.815 Y192.258
G2 X26.816 Y192.161 I-1.586 J-0.057
G1 X26.809 Y191.893
G2 X26.803 Y191.794 I-1.587 J0.04
G1 X26.781 Y191.534
G2 X26.769 Y191.434 I-1.581 J0.139
G1 X26.731 Y191.184
G2 X26.711 Y191.082 I-1.569 J0.239
G1 X26.659 Y190.843
G2 X26.633 Y190.74 I-1.55 J0.341
G1 X26.566 Y190.512
G2 X26.531 Y190.406 I-1.524 J0.444
G1 X26.452 Y190.191
G2 X26.41 Y190.089 I-1.489 J0.55
G1 X26.318 Y189.886
G2 X26.264 Y189.776 I-1.447 J0.652
G1 X26.161 Y189.588
G2 X26.098 Y189.483 I-1.393 J0.762
G1 X25.985 Y189.309
G2 X25.91 Y189.204 I-1.33 J0.867
G1 X25.787 Y189.045
G2 X25.694 Y188.936 I-1.255 J0.972
G1 X25.562 Y188.794
G2 X25.46 Y188.694 I-1.163 J1.081
G1 X25.32 Y188.568
G2 X25.197 Y188.468 I-1.061 J1.181
G1 X25.049 Y188.36
G2 X24.918 Y188.273 I-0.937 J1.281
G1 X24.763 Y188.182
G2 X24.615 Y188.105 I-0.806 J1.368
G1 X24.455 Y188.032
G2 X24.28 Y187.965 I-0.658 J1.445
G1 X24.114 Y187.912
G2 X23.95 Y187.869 I-0.483 J1.512
G1 X23.779 Y187.834
G2 X23.596 Y187.807 I-0.319 J1.555
G1 X23.42 Y187.792
G2 X23.249 Y187.787 I-0.135 J1.582
G1 X23.07 Y187.791
G2 X22.891 Y187.805 I0.035 J1.587
G1 X22.708 Y187.83
G2 X22.55 Y187.86 I0.215 J1.573
G1 X22.364 Y187.905
G2 X22.213 Y187.949 I0.373 J1.543
G1 X22.024 Y188.015
G2 X21.898 Y188.066 I0.524 J1.499
G1 X21.706 Y188.152
G2 X21.59 Y188.21 I0.65 J1.448
G1 X21.396 Y188.317
G2 X21.295 Y188.377 I0.766 J1.39
G1 X21.099 Y188.505
G2 X21.012 Y188.566 I0.867 J1.33
G1 X20.814 Y188.715
G2 X20.74 Y188.773 I0.953 J1.269
G1 X20.54 Y188.943
G2 X20.477 Y189 I1.027 J1.211
G1 X20.275 Y189.191
G2 X20.221 Y189.245 I1.09 J1.154
G1 X20.017 Y189.457
G2 X19.968 Y189.509 I1.144 J1.1
G1 X19.763 Y189.743
G2 X19.725 Y189.788 I1.193 J1.048
G1 X19.518 Y190.042
G2 X19.482 Y190.087 I1.23 J1.003
G1 X19.274 Y190.362
X19.246 Y190.4
X19.238 Y190.409
X19.226 Y190.422
X19.208 Y190.44
X19.198 Y190.45
X19.186 Y190.459
X19.168 Y190.474
X19.16 Y190.479
X19.144 Y190.489
X19.126 Y190.5
X19.112 Y190.507
X19.09 Y190.518
X19.075 Y190.524
X19.06 Y190.53
X19.042 Y190.536
X19.033 Y190.538
X19.014 Y190.542
X18.986 Y190.548
X18.974 Y190.55
X18.961 Y190.551
X18.94 Y190.552
X18.918
X18.905
X18.893 Y190.551
X18.863 Y190.547
X18.851 Y190.546
X18.84 Y190.543
X18.8 Y190.533
X14.202 Y189.276
X14.517 Y188.314
G2 X14.521 Y188.302 I-1.508 J-0.495
G1 X15.334 Y185.756
G2 X15.338 Y185.744 I-1.512 J-0.483
G1 X16.129 Y183.201
G2 X16.132 Y183.189 I-1.516 J-0.471
G1 X16.9 Y180.648
G2 X16.904 Y180.636 I-1.52 J-0.459
G1 X17.649 Y178.097
G2 X17.653 Y178.085 I-1.523 J-0.447
G1 X18.375 Y175.548
G2 X18.379 Y175.536 I-1.527 J-0.435
G1 X19.079 Y173.002
G2 X19.082 Y172.989 I-1.53 J-0.423
G1 X19.76 Y170.458
G2 X19.763 Y170.446 I-1.534 J-0.41
G1 X20.418 Y167.917
G2 X20.421 Y167.904 I-1.537 J-0.398
G1 X21.053 Y165.377
G2 X21.056 Y165.364 I-1.54 J-0.385
G1 X21.665 Y162.84
G2 X21.668 Y162.828 I-1.543 J-0.372
G1 X22.255 Y160.306
G2 X22.258 Y160.293 I-1.546 J-0.36
G1 X22.821 Y157.774
G2 X22.824 Y157.761 I-1.549 J-0.347
G1 X23.365 Y155.245
G2 X23.368 Y155.231 I-1.552 J-0.334
G1 X23.886 Y152.717
G2 X23.889 Y152.704 I-1.555 J-0.32
G1 X24.384 Y150.194
G2 X24.387 Y150.181 I-1.557 J-0.307
G1 X24.86 Y147.673
G2 X24.862 Y147.66 I-1.56 J-0.294
G1 X25.312 Y145.156
G2 X25.315 Y145.143 I-1.562 J-0.281
G1 X25.742 Y142.642
G2 X25.745 Y142.628 I-1.565 J-0.268
G1 X26.15 Y140.13
G2 X26.152 Y140.117 I-1.567 J-0.254
G1 X26.535 Y137.624
G2 X26.537 Y137.611 I-1.569 J-0.241
G1 X26.898 Y135.121
G2 X26.9 Y135.108 I-1.571 J-0.228
G1 X27.239 Y132.622
G2 X27.241 Y132.608 I-1.573 J-0.215
G1 X27.559 Y130.126
G2 X27.56 Y130.113 I-1.575 J-0.201
G1 X27.857 Y127.636
G2 X27.858 Y127.624 I-1.576 J-0.188
G1 X28.133 Y125.152
G2 X28.135 Y125.139 I-1.578 J-0.176
G1 X28.389 Y122.672
G2 X28.39 Y122.659 I-1.579 J-0.163
G1 X28.624 Y120.197
G2 X28.625 Y120.185 I-1.58 J-0.15
G1 X28.839 Y117.73
G2 X28.841 Y117.718 I-1.581 J-0.138
G1 X29.035 Y115.268
G2 X29.036 Y115.256 I-1.583 J-0.126
G1 X29.212 Y112.813
G2 X29.213 Y112.801 I-1.583 J-0.114
G1 X29.37 Y110.366
G2 Y110.355 I-1.584 J-0.102
G1 X29.51 Y107.927
G2 X29.511 Y107.916 I-1.585 J-0.091
G1 X29.633 Y105.495
G2 Y105.485 I-1.585 J-0.08
G1 X29.74 Y103.074
G2 Y103.064 I-1.586 J-0.07
G1 X29.83 Y100.661
X29.831 Y100.651
X29.907 Y98.259
Y98.25
X29.969 Y95.867
Y95.859
X30.019 Y93.487
Y93.48
X30.056 Y91.12
G2 X30.057 Y91.11 I-1.587 J-0.025
G1 X30.101 Y86.427
G2 Y86.416 I-1.587 J-0.015
G1 X30.115 Y81.79
Y81.783
X30.107 Y77.219
Y77.216
X30.092 Y72.723
X30.084 Y68.311
X30.096 Y63.988
X30.114 Y61.867
X30.144 Y59.77
X30.186 Y57.701
X30.244 Y55.661
X30.318 Y53.651
X30.411 Y51.671
X30.525 Y49.725
X30.662 Y47.812
X30.823 Y45.934
X31.011 Y44.091
X31.228 Y42.286
X31.475 Y40.52
X31.754 Y38.788
X31.905 Y37.944
X32.066 Y37.105
X32.235 Y36.277
X32.414 Y35.46
X32.601 Y34.654
X32.798 Y33.857
X33.005 Y33.072
X33.221 Y32.298
X33.448 Y31.535
X33.684 Y30.783
X33.931 Y30.043
X34.188 Y29.313
X34.455 Y28.595
X34.734 Y27.888
X35.023 Y27.193
X35.323 Y26.51
X35.634 Y25.838
X35.957 Y25.177
X36.291 Y24.528
X36.636 Y23.891
X36.993 Y23.265
X37.362 Y22.651
X37.742 Y22.049
X38.135 Y21.458
X38.54 Y20.879
X38.957 Y20.311
X39.387 Y19.754
X39.829 Y19.209
X40.284 Y18.676
X40.752 Y18.154
X41.232 Y17.643
X41.726 Y17.143
X42.233 Y16.655
X42.753 Y16.177
X43.287 Y15.711
X43.834 Y15.257
X44.395 Y14.813
X44.97 Y14.38
X45.558 Y13.959
X46.161 Y13.548
X46.778 Y13.149
X47.409 Y12.761
X48.054 Y12.384
X48.714 Y12.018
X49.389 Y11.663
X50.078 Y11.319
X50.781 Y10.986
X51.5 Y10.665
X52.233 Y10.355
X52.981 Y10.055
X53.743 Y9.768
X54.521 Y9.491
X55.314 Y9.226
X56.121 Y8.972
X56.943 Y8.729
X57.781 Y8.498
X58.633 Y8.278
X59.5 Y8.07
X60.383 Y7.873
X61.28 Y7.687
X62.192 Y7.513
X63.119 Y7.35
X64.061 Y7.199
X65.018 Y7.059
X65.99 Y6.931
X66.976 Y6.815
X67.978 Y6.71
X68.994 Y6.616
X70.025 Y6.534
X71.071 Y6.464
X72.132 Y6.405
X73.207 Y6.358
X74.297 Y6.322
X75.402 Y6.299
X76.522 Y6.286
X77.656
X78.541 Y6.294
G2 X89.532 Y9.781 I6.459 J-1.294
X85.363 Y-1.577 I-4.532 J-4.781
G3 X89.532 Y9.781 Z-15.241 I-0.363 J6.577 F200
X78.541 Y6.294 Z-15.461 I-4.532 J-4.781
G1 X77.656 Y6.286 Z-15.475
X76.522 Z-15.492
X75.402 Y6.299 Z-15.51
X74.297 Y6.322 Z-15.527
X73.207 Y6.358 Z-15.544
X72.132 Y6.405 Z-15.561
X71.071 Y6.464 Z-15.578
X70.025 Y6.534 Z-15.594
X68.994 Y6.616 Z-15.611
X67.978 Y6.71 Z-15.627
X66.976 Y6.815 Z-15.642
X65.99 Y6.931 Z-15.658
X65.018 Y7.059 Z-15.673
X64.061 Y7.199 Z-15.689
X63.119 Y7.35 Z-15.704
X62.192 Y7.513 Z-15.718
X61.28 Y7.687 Z-15.733
X60.383 Y7.873 Z-15.747
X59.5 Y8.07 Z-15.761
X58.633 Y8.278 Z-15.775
X57.781 Y8.498 Z-15.789
X56.943 Y8.729 Z-15.803
X56.121 Y8.972 Z-15.816
X55.314 Y9.226 Z-15.83
X54.521 Y9.491 Z-15.843
X53.743 Y9.768 Z-15.856
X52.981 Y10.055 Z-15.868
X52.233 Y10.355 Z-15.881
X51.5 Y10.665 Z-15.894
X50.781 Y10.986 Z-15.906
X50.078 Y11.319 Z-15.918
X49.389 Y11.663 Z-15.93
X48.714 Y12.018 Z-15.942
X48.054 Y12.384 Z-15.954
X47.409 Y12.761 Z-15.966
X46.778 Y13.149 Z-15.977
X46.161 Y13.548 Z-15.989
X45.558 Y13.959 Z-16
X44.97 Y14.38 Z-16.012
X44.395 Y14.813 Z-16.023
X43.834 Y15.257 Z-16.034
X43.287 Y15.711 Z-16.045
X42.753 Y16.177 Z-16.056
X42.233 Y16.655 Z-16.067
X41.726 Y17.143 Z-16.079
X41.232 Y17.643 Z-16.09
X40.752 Y18.154 Z-16.101
X40.284 Y18.676 Z-16.112
X39.829 Y19.209 Z-16.123
X39.387 Y19.754 Z-16.134
X38.957 Y20.311 Z-16.145
X38.54 Y20.879 Z-16.156
X38.135 Y21.458 Z-16.167
X37.742 Y22.049 Z-16.178
X37.362 Y22.651 Z-16.189
X36.993 Y23.265 Z-16.2
X36.636 Y23.891 Z-16.212
X36.291 Y24.528 Z-16.223
X35.957 Y25.177 Z-16.234
X35.634 Y25.838 Z-16.246
X35.323 Y26.51 Z-16.258
X35.023 Y27.193 Z-16.269
X34.734 Y27.888 Z-16.281
X34.455 Y28.595 Z-16.293
X34.188 Y29.313 Z-16.305
X33.931 Y30.043 Z-16.317
X33.684 Y30.783 Z-16.329
X33.448 Y31.535 Z-16.342
X33.221 Y32.298 Z-16.354
X33.005 Y33.072 Z-16.367
X32.798 Y33.857 Z-16.38
X32.601 Y34.654 Z-16.392
X32.414 Y35.46 Z-16.405
X32.235 Y36.277 Z-16.418
X32.066 Y37.105 Z-16.432
X31.905 Y37.944 Z-16.445
X31.754 Y38.788 Z-16.459
X31.475 Y40.52 Z-16.486
X31.228 Y42.286 Z-16.514
X31.011 Y44.091 Z-16.543
X30.823 Y45.934 Z-16.572
X30.662 Y47.812 Z-16.601
X30.525 Y49.725 Z-16.631
X30.411 Y51.671 Z-16.662
X30.318 Y53.651 Z-16.693
X30.244 Y55.661 Z-16.725
X30.186 Y57.701 Z-16.757
X30.144 Y59.77 Z-16.789
X30.114 Y61.867 Z-16.822
X30.096 Y63.988 Z-16.855
X30.084 Y68.311 Z-16.923
X30.092 Y72.723 Z-16.992
X30.107 Y77.216 Z-17.063
Y77.219
X30.115 Y81.783 Z-17.134
Y81.79
X30.101 Y86.416 Z-17.207
G3 Y86.427 I-1.587 J-0.004
G1 X30.057 Y91.11 Z-17.281
G3 X30.056 Y91.12 I-1.587 J-0.015
G1 X30.019 Y93.48 Z-17.318
Y93.487
X29.969 Y95.859 Z-17.355
Y95.867
X29.907 Y98.25 Z-17.393
Y98.259
X29.831 Y100.651 Z-17.43
X29.83 Y100.661
X29.74 Y103.064 Z-17.468
G3 Y103.074 I-1.586 J-0.06
G1 X29.633 Y105.485 Z-17.506
G3 Y105.495 I-1.586 J-0.07
G1 X29.511 Y107.916 Z-17.544
G3 X29.51 Y107.927 I-1.585 J-0.08
G1 X29.37 Y110.355 Z-17.583
G3 Y110.366 I-1.585 J-0.091
G1 X29.213 Y112.801 Z-17.621
G3 X29.212 Y112.813 I-1.584 J-0.102
G1 X29.036 Y115.256 Z-17.66
G3 X29.035 Y115.268 I-1.583 J-0.114
G1 X28.841 Y117.718 Z-17.698
G3 X28.839 Y117.73 Z-17.699 I-1.583 J-0.126
G1 X28.625 Y120.185 Z-17.737
G3 X28.624 Y120.197 I-1.581 J-0.138
G1 X28.39 Y122.659 Z-17.776
G3 X28.389 Y122.672 I-1.58 J-0.15
G1 X28.135 Y125.139 Z-17.815
G3 X28.133 Y125.152 Z-17.816 I-1.579 J-0.163
G1 X27.858 Y127.624 Z-17.855
G3 X27.857 Y127.636 I-1.578 J-0.176
G1 X27.56 Y130.113 Z-17.894
G3 X27.559 Y130.126 I-1.576 J-0.188
G1 X27.241 Y132.608 Z-17.933
G3 X27.239 Y132.622 Z-17.934 I-1.575 J-0.201
G1 X26.9 Y135.108 Z-17.973
G3 X26.898 Y135.121 I-1.573 J-0.215
G1 X26.537 Y137.611 Z-18.013
G3 X26.535 Y137.624 I-1.571 J-0.228
G1 X26.152 Y140.117 Z-18.052
G3 X26.15 Y140.13 Z-18.053 I-1.569 J-0.241
G1 X25.745 Y142.628 Z-18.092
G3 X25.742 Y142.642 I-1.567 J-0.254
G1 X25.315 Y145.143 Z-18.132
G3 X25.312 Y145.156 I-1.565 J-0.268
G1 X24.862 Y147.66 Z-18.172
G3 X24.86 Y147.673 Z-18.173 I-1.562 J-0.281
G1 X24.387 Y150.181 Z-18.213
G3 X24.384 Y150.194 I-1.56 J-0.294
G1 X23.889 Y152.704 Z-18.253
G3 X23.886 Y152.717 I-1.557 J-0.307
G1 X23.368 Y155.231 Z-18.293
G3 X23.365 Y155.245 Z-18.294 I-1.555 J-0.32
G1 X22.824 Y157.761 Z-18.334
G3 X22.821 Y157.774 I-1.552 J-0.334
G1 X22.258 Y160.293 Z-18.375
G3 X22.255 Y160.306 I-1.549 J-0.347
G1 X21.668 Y162.828 Z-18.416
G3 X21.665 Y162.84 I-1.546 J-0.36
G1 X21.056 Y165.364 Z-18.456
G3 X21.053 Y165.377 Z-18.457 I-1.543 J-0.372
G1 X20.421 Y167.904 Z-18.498
G3 X20.418 Y167.917 I-1.54 J-0.385
G1 X19.763 Y170.446 Z-18.539
G3 X19.76 Y170.458 I-1.537 J-0.398
G1 X19.082 Y172.989 Z-18.58
G3 X19.079 Y173.002 I-1.534 J-0.41
G1 X18.379 Y175.536 Z-18.621
G3 X18.375 Y175.548 Z-18.622 I-1.53 J-0.423
G1 X17.653 Y178.085 Z-18.663
G3 X17.649 Y178.097 I-1.527 J-0.435
G1 X16.904 Y180.636 Z-18.705
G3 X16.9 Y180.648 I-1.523 J-0.447
G1 X16.132 Y183.189 Z-18.747
G3 X16.129 Y183.201 I-1.52 J-0.459
G1 X15.338 Y185.744 Z-18.789
G3 X15.334 Y185.756 I-1.516 J-0.471
G1 X14.521 Y188.302 Z-18.831
G3 X14.517 Y188.314 I-1.512 J-0.483
G1 X14.202 Y189.276 Z-18.847
X18.8 Y190.533 Z-18.921
X18.84 Y190.543 Z-18.922
X18.851 Y190.546
X18.863 Y190.547 Z-18.923
X18.893 Y190.551
X18.905 Y190.552
X18.918
X18.94 Z-18.924
X18.961 Y190.551
X18.974 Y190.55
X18.986 Y190.548
X19.014 Y190.542 Z-18.925
X19.033 Y190.538
X19.042 Y190.536
X19.06 Y190.53 Z-18.926
X19.075 Y190.524
X19.09 Y190.518
X19.112 Y190.507 Z-18.927
X19.126 Y190.5
X19.144 Y190.489
X19.16 Y190.479
X19.168 Y190.474 Z-18.928
X19.186 Y190.459
X19.198 Y190.45
X19.208 Y190.44
X19.226 Y190.422 Z-18.929
X19.238 Y190.409
X19.246 Y190.4
X19.274 Y190.362 Z-18.93
X19.482 Y190.087 Z-18.935
G3 X19.518 Y190.042 Z-18.936 I1.266 J0.958
G1 X19.725 Y189.788 Z-18.941
G3 X19.763 Y189.743 Z-18.942 I1.23 J1.003
G1 X19.968 Y189.509 Z-18.947
G3 X20.017 Y189.457 Z-18.948 I1.193 J1.048
G1 X20.221 Y189.245 Z-18.953
G3 X20.275 Y189.191 Z-18.954 I1.144 J1.1
G1 X20.477 Y189 Z-18.959
G3 X20.54 Y188.943 Z-18.96 I1.09 J1.154
G1 X20.74 Y188.773 Z-18.964
G3 X20.814 Y188.715 Z-18.965 I1.027 J1.211
G1 X21.012 Y188.566 Z-18.969
G3 X21.099 Y188.505 Z-18.971 I0.953 J1.269
G1 X21.295 Y188.377 Z-18.975
G3 X21.396 Y188.317 Z-18.977 I0.867 J1.33
G1 X21.59 Y188.21 Z-18.98
G3 X21.706 Y188.152 Z-18.982 I0.766 J1.39
G1 X21.898 Y188.066 Z-18.985
G3 X22.024 Y188.015 Z-18.987 I0.65 J1.448
G1 X22.213 Y187.949 Z-18.991
G3 X22.364 Y187.905 Z-18.993 I0.524 J1.499
G1 X22.55 Y187.86 Z-18.996
G3 X22.708 Y187.83 Z-18.999 I0.373 J1.543
G1 X22.891 Y187.805 Z-19.001
G3 X23.07 Y187.791 Z-19.004 I0.215 J1.573
G1 X23.249 Y187.787 Z-19.007
G3 X23.42 Y187.792 Z-19.01 I0.035 J1.587
G1 X23.596 Y187.807 Z-19.013
G3 X23.779 Y187.834 Z-19.015 I-0.135 J1.582
G1 X23.95 Y187.869 Z-19.018
G3 X24.114 Y187.912 Z-19.021 I-0.319 J1.555
G1 X24.28 Y187.965 Z-19.024
G3 X24.455 Y188.032 Z-19.027 I-0.483 J1.512
G1 X24.615 Y188.105 Z-19.029
G3 X24.763 Y188.182 Z-19.032 I-0.658 J1.445
G1 X24.918 Y188.273 Z-19.035
G3 X25.049 Y188.36 Z-19.037 I-0.806 J1.368
G1 X25.197 Y188.468 Z-19.04
G3 X25.32 Y188.568 Z-19.043 I-0.937 J1.281
G1 X25.46 Y188.694 Z-19.046
G3 X25.562 Y188.794 Z-19.048 I-1.061 J1.181
G1 X25.694 Y188.936 Z-19.051
G3 X25.787 Y189.045 Z-19.053 I-1.163 J1.081
G1 X25.91 Y189.204 Z-19.056
G3 X25.985 Y189.309 Z-19.058 I-1.255 J0.972
G1 X26.098 Y189.483 Z-19.061
G3 X26.161 Y189.588 Z-19.063 I-1.33 J0.867
G1 X26.264 Y189.776 Z-19.067
G3 X26.318 Y189.886 Z-19.069 I-1.393 J0.762
G1 X26.41 Y190.089 Z-19.072
G3 X26.452 Y190.191 Z-19.074 I-1.447 J0.652
G1 X26.531 Y190.406 Z-19.078
G3 X26.566 Y190.512 Z-19.079 I-1.489 J0.55
G1 X26.633 Y190.74 Z-19.083
G3 X26.659 Y190.843 Z-19.085 I-1.524 J0.444
G1 X26.711 Y191.082 Z-19.088
G3 X26.731 Y191.184 Z-19.09 I-1.55 J0.341
G1 X26.769 Y191.434 Z-19.094
G3 X26.781 Y191.534 Z-19.096 I-1.569 J0.239
G1 X26.803 Y191.794 Z-19.1
G3 X26.809 Y191.893 Z-19.101 I-1.581 J0.139
G1 X26.816 Y192.161 Z-19.106
G3 X26.815 Y192.258 Z-19.107 I-1.587 J0.04
G1 X26.805 Y192.535 Z-19.111
G3 X26.799 Y192.631 Z-19.113 I-1.586 J-0.057
G1 X26.771 Y192.914 Z-19.117
G3 X26.76 Y193.005 Z-19.119 I-1.58 J-0.153
G1 X26.715 Y193.295 Z-19.123
G3 X26.698 Y193.385 Z-19.125 I-1.569 J-0.244
G1 X26.635 Y193.68 Z-19.13
G3 X26.613 Y193.767 Z-19.131 I-1.552 J-0.334
G1 X26.531 Y194.066 Z-19.136
G3 X26.506 Y194.149 Z-19.137 I-1.531 J-0.421
G1 X26.405 Y194.451 Z-19.142
G3 X26.376 Y194.529 Z-19.144 I-1.505 J-0.504
G1 X26.256 Y194.834 Z-19.149
G3 X26.223 Y194.911 Z-19.15 I-1.477 J-0.582
G1 X26.084 Y195.217 Z-19.155
G3 X26.048 Y195.29 Z-19.157 I-1.444 J-0.659
G1 X25.889 Y195.596 Z-19.162
G3 X25.852 Y195.663 Z-19.163 I-1.409 J-0.732
G1 X25.674 Y195.969 Z-19.169
G3 X25.635 Y196.033 Z-19.17 I-1.372 J-0.799
G1 X25.438 Y196.338 Z-19.176
G3 X25.396 Y196.399 Z-19.177 I-1.333 J-0.863
G1 X25.179 Y196.701 Z-19.183
G3 X25.137 Y196.758 Z-19.184 I-1.291 J-0.924
G1 X24.902 Y197.057 Z-19.19
G3 X24.858 Y197.11 Z-19.191 I-1.248 J-0.981
G1 X24.605 Y197.405 Z-19.197
G3 X24.559 Y197.457 Z-19.198 I-1.205 J-1.034
G1 X24.288 Y197.746 Z-19.204
G3 X24.244 Y197.791 Z-19.205 I-1.158 J-1.086
G1 X23.956 Y198.075 Z-19.211
G3 X23.909 Y198.119 Z-19.212 I-1.114 J-1.131
G1 X23.604 Y198.396 Z-19.219
G3 X23.556 Y198.438 Z-19.22 I-1.067 J-1.175
G1 X23.235 Y198.707 Z-19.226
G3 X23.186 Y198.746 Z-19.227 I-1.02 J-1.217
G1 X22.85 Y199.006 Z-19.234
G3 X22.802 Y199.041 Z-19.235 I-0.971 J-1.256
G1 X22.451 Y199.292 Z-19.242
G3 X22.4 Y199.328 Z-19.243 I-0.923 J-1.291
G1 X22.035 Y199.568 Z-19.25
G3 X21.988 Y199.597 Z-19.251 I-0.872 J-1.327
G1 X21.609 Y199.827 Z-19.257
G3 X21.556 Y199.859 Z-19.258 I-0.825 J-1.356
G1 X21.165 Y200.076 Z-19.265
G3 X21.115 Y200.102 Z-19.266 I-0.771 J-1.388
G1 X20.713 Y200.307 Z-19.273
G3 X20.662 Y200.332 Z-19.274 I-0.721 J-1.414
G1 X20.249 Y200.524 Z-19.281
G3 X20.193 Y200.549 Z-19.282 I-0.67 J-1.439
G1 X19.771 Y200.726 Z-19.29
G3 X19.716 Y200.748 Z-19.291 I-0.614 J-1.464
G1 X19.285 Y200.91 Z-19.298
G3 X19.23 Y200.929 Z-19.299 I-0.558 J-1.486
G1 X18.791 Y201.076 Z-19.306
G3 X18.735 Y201.094 Z-19.307 I-0.504 J-1.505
G1 X18.289 Y201.225 Z-19.314
G3 X18.229 Y201.241 Z-19.315 I-0.447 J-1.523
G1 X17.777 Y201.355 Z-19.322
G3 X17.716 Y201.37 Z-19.323 I-0.388 J-1.539
G1 X17.259 Y201.466 Z-19.331
G3 X17.197 Y201.477 Z-19.332 I-0.326 J-1.554
G1 X16.736 Y201.555 Z-19.339
G3 X16.675 Y201.564 Z-19.34 I-0.265 J-1.565
G1 X16.21 Y201.624 Z-19.347
G3 X16.146 Y201.631 Z-19.348 I-0.203 J-1.574
G1 X15.679 Y201.672 Z-19.356
G3 X15.611 Y201.677 Z-19.357 I-0.139 J-1.581
G1 X15.143 Y201.698 Z-19.364
G3 X15.075 Y201.699 Z-19.365 I-0.071 J-1.586
G1 X14.606 Y201.701 Z-19.373
G3 X14.539 Y201.699 Z-19.374 I-0.003 J-1.587
G1 X14.07 Y201.68 Z-19.381
G3 X13.999 Y201.676 Z-19.382 I0.064 J-1.586
G1 X13.532 Y201.636 Z-19.389
G3 X13.461 Y201.628 Z-19.391 I0.135 J-1.582
G1 X12.995 Y201.567 Z-19.398
G3 X12.925 Y201.556 Z-19.399 I0.206 J-1.574
G1 X12.462 Y201.474 Z-19.406
G3 X12.388 Y201.459 Z-19.408 I0.277 J-1.563
G1 X11.928 Y201.355 Z-19.415
G3 X11.856 Y201.337 Z-19.416 I0.35 J-1.548
G1 X11.4 Y201.211 Z-19.424
G3 X11.328 Y201.189 Z-19.425 I0.423 J-1.53
G1 X10.876 Y201.041 Z-19.432
G3 X10.806 Y201.017 Z-19.433 I0.495 J-1.508
G1 X10.36 Y200.847 Z-19.441
G3 X10.291 Y200.818 Z-19.442 I0.565 J-1.484
G1 X9.85 Y200.626 Z-19.45
G3 X9.78 Y200.594 Z-19.451 I0.634 J-1.455
G1 X9.345 Y200.379 Z-19.458
G3 X9.28 Y200.345 Z-19.46 I0.704 J-1.423
G1 X8.852 Y200.108 Z-19.467
G3 X8.789 Y200.071 Z-19.468 I0.769 J-1.389
G1 X8.368 Y199.812 Z-19.476
G3 X8.308 Y199.773 Z-19.477 I0.832 J-1.352
G1 X7.894 Y199.492 Z-19.485
G3 X7.835 Y199.45 Z-19.486 I0.892 J-1.313
G1 X7.429 Y199.146 Z-19.494
G3 X7.374 Y199.103 Z-19.495 I0.952 J-1.271
G1 X6.976 Y198.777 Z-19.503
G3 X6.927 Y198.734 Z-19.504 I1.006 J-1.228
G1 X6.537 Y198.387 Z-19.513
G3 X6.487 Y198.341 Z-19.514 I1.056 J-1.185
G1 X6.106 Y197.971 Z-19.522
G3 X6.061 Y197.925 Z-19.523 I1.106 J-1.139
G1 X5.689 Y197.533 Z-19.531
G3 X5.648 Y197.488 Z-19.532 I1.152 J-1.093
G1 X5.285 Y197.075 Z-19.541
G3 X5.247 Y197.029 Z-19.542 I1.193 J-1.048
G1 X4.893 Y196.595 Z-19.551
G3 X4.857 Y196.549 Z-19.552 I1.231 J-1.002
G1 X4.513 Y196.093 Z-19.561
G3 X4.48 Y196.048 Z-19.562 I1.268 J-0.956
G1 X4.146 Y195.571 Z-19.571
G3 X4.117 Y195.528 I1.3 J-0.911
G1 X3.793 Y195.031 Z-19.581
G3 X3.765 Y194.987 Z-19.582 I1.329 J-0.868
G1 X3.451 Y194.469 Z-19.591
G3 X3.426 Y194.427 Z-19.592 I1.357 J-0.824
G1 X3.122 Y193.889 Z-19.602
G3 X3.099 Y193.847 I1.382 J-0.782
G1 X2.805 Y193.289 Z-19.612
G3 X2.785 Y193.249 Z-19.613 I1.404 J-0.74
G1 X2.5 Y192.671 Z-19.623
G3 X2.482 Y192.633 Z-19.624 I1.425 J-0.7
G1 X2.208 Y192.036 Z-19.634
G3 X2.192 Y191.999 Z-19.635 I1.443 J-0.662
G1 X1.928 Y191.383 Z-19.645
G3 X1.914 Y191.347 Z-19.646 I1.459 J-0.625
G1 X1.66 Y190.713 Z-19.656
G3 X1.646 Y190.677 Z-19.657 I1.474 J-0.589
G1 X1.403 Y190.023 Z-19.668
G3 X1.391 Y189.991 Z-19.669 I1.488 J-0.553
G1 X1.159 Y189.32 Z-19.68
G3 X1.148 Y189.287 I1.5 J-0.521
G1 X0.925 Y188.598 Z-19.692
G3 X0.915 Y188.567 I1.511 J-0.488
G1 X0.703 Y187.86 Z-19.704
G3 X0.694 Y187.83 I1.52 J-0.457
G1 X0.492 Y187.106 Z-19.716
G3 X0.484 Y187.078 I1.529 J-0.427
G1 X0.292 Y186.337 Z-19.728
G3 X0.285 Y186.309 Z-19.729 I1.537 J-0.399
G1 X0.103 Y185.552 Z-19.741
G3 X0.097 Y185.526 I1.543 J-0.371
G1 X-0.075 Y184.753 Z-19.754
G3 X-0.081 Y184.727 I1.55 J-0.345
G1 X-0.243 Y183.937 Z-19.767
G3 X-0.248 Y183.913 I1.555 J-0.319
G1 X-0.4 Y183.108 Z-19.78
G3 X-0.404 Y183.085 Z-19.781 I1.56 J-0.295
G1 X-0.547 Y182.265 Z-19.794
G3 X-0.551 Y182.242 I1.564 J-0.272
G1 X-0.684 Y181.406 Z-19.807
G3 X-0.687 Y181.385 Z-19.808 I1.568 J-0.249
G1 X-0.81 Y180.535 Z-19.821
G3 X-0.813 Y180.514 I1.571 J-0.228
G1 X-0.927 Y179.649 Z-19.835
G3 X-0.93 Y179.629 I1.574 J-0.207
G1 X-1.034 Y178.75 Z-19.849
G3 X-1.036 Y178.731 Z-19.85 I1.576 J-0.187
G1 X-1.131 Y177.838 Z-19.864
G3 X-1.133 Y177.819 I1.579 J-0.168
G1 X-1.219 Y176.912 Z-19.878
G3 X-1.22 Y176.894 Z-19.879 I1.58 J-0.149
G1 X-1.297 Y175.973 Z-19.893
G3 X-1.298 Y175.948 I1.582 J-0.131
G1 X-1.424 Y174.067 Z-19.923
G3 X-1.426 Y174.034 Z-19.924 I1.584 J-0.106
G1 X-1.515 Y172.1 Z-19.954
G3 X-1.516 Y172.07 I1.586 J-0.073
G1 X-1.569 Y170.084 Z-19.986
G3 X-1.57 Y170.055 I1.587 J-0.043
G1 X-1.577 Y169.16 Z-20
X-1.57 Y170.055 F300
G2 X-1.569 Y170.084 I1.587 J-0.014
G1 X-1.516 Y172.07
G2 X-1.515 Y172.1 I1.587 J-0.043
G1 X-1.426 Y174.034
G2 X-1.424 Y174.067 I1.586 J-0.073
G1 X-1.298 Y175.948
G2 X-1.297 Y175.973 I1.584 J-0.106
G1 X-1.22 Y176.894
G2 X-1.219 Y176.912 I1.582 J-0.131
G1 X-1.133 Y177.819
G2 X-1.131 Y177.838 I1.58 J-0.149
G1 X-1.036 Y178.731
G2 X-1.034 Y178.75 I1.579 J-0.168
G1 X-0.93 Y179.629
G2 X-0.927 Y179.649 I1.576 J-0.187
G1 X-0.813 Y180.514
G2 X-0.81 Y180.535 I1.574 J-0.207
G1 X-0.687 Y181.385
G2 X-0.684 Y181.406 I1.571 J-0.228
G1 X-0.551 Y182.242
G2 X-0.547 Y182.265 I1.568 J-0.249
G1 X-0.404 Y183.085
G2 X-0.4 Y183.108 I1.564 J-0.272
G1 X-0.248 Y183.913
G2 X-0.243 Y183.937 I1.56 J-0.295
G1 X-0.081 Y184.727
G2 X-0.075 Y184.753 I1.555 J-0.319
G1 X0.097 Y185.526
G2 X0.103 Y185.552 I1.55 J-0.345
G1 X0.285 Y186.309
G2 X0.292 Y186.337 I1.543 J-0.371
G1 X0.484 Y187.078
G2 X0.492 Y187.106 I1.537 J-0.399
G1 X0.694 Y187.83
G2 X0.703 Y187.86 I1.529 J-0.427
G1 X0.915 Y188.567
G2 X0.925 Y188.598 I1.52 J-0.457
G1 X1.148 Y189.287
G2 X1.159 Y189.32 I1.511 J-0.488
G1 X1.391 Y189.991
G2 X1.403 Y190.023 I1.5 J-0.521
G1 X1.646 Y190.677
G2 X1.66 Y190.713 I1.488 J-0.553
G1 X1.914 Y191.347
G2 X1.928 Y191.383 I1.474 J-0.589
G1 X2.192 Y191.999
G2 X2.208 Y192.036 I1.459 J-0.625
G1 X2.482 Y192.633
G2 X2.5 Y192.671 I1.443 J-0.662
G1 X2.785 Y193.249
G2 X2.805 Y193.289 I1.425 J-0.7
G1 X3.099 Y193.847
G2 X3.122 Y193.889 I1.404 J-0.74
G1 X3.426 Y194.427
G2 X3.451 Y194.469 I1.382 J-0.782
G1 X3.765 Y194.987
G2 X3.793 Y195.031 I1.357 J-0.824
G1 X4.117 Y195.528
G2 X4.146 Y195.571 I1.329 J-0.868
G1 X4.48 Y196.048
G2 X4.513 Y196.093 I1.3 J-0.911
G1 X4.857 Y196.549
G2 X4.893 Y196.595 I1.268 J-0.956
G1 X5.247 Y197.029
G2 X5.285 Y197.075 I1.231 J-1.002
G1 X5.648 Y197.488
G2 X5.689 Y197.533 I1.193 J-1.048
G1 X6.061 Y197.925
G2 X6.106 Y197.971 I1.152 J-1.093
G1 X6.487 Y198.341
G2 X6.537 Y198.387 I1.106 J-1.139
G1 X6.927 Y198.734
G2 X6.976 Y198.777 I1.056 J-1.185
G1 X7.374 Y199.103
G2 X7.429 Y199.146 I1.006 J-1.228
G1 X7.835 Y199.45
G2 X7.894 Y199.492 I0.952 J-1.271
G1 X8.308 Y199.773
G2 X8.368 Y199.812 I0.892 J-1.313
G1 X8.789 Y200.071
G2 X8.852 Y200.108 I0.832 J-1.352
G1 X9.28 Y200.345
G2 X9.345 Y200.379 I0.769 J-1.389
G1 X9.78 Y200.594
G2 X9.85 Y200.626 I0.704 J-1.423
G1 X10.291 Y200.818
G2 X10.36 Y200.847 I0.634 J-1.455
G1 X10.806 Y201.017
G2 X10.876 Y201.041 I0.565 J-1.484
G1 X11.328 Y201.189
G2 X11.4 Y201.211 I0.495 J-1.508
G1 X11.856 Y201.337
G2 X11.928 Y201.355 I0.423 J-1.53
G1 X12.388 Y201.459
G2 X12.462 Y201.474 I0.35 J-1.548
G1 X12.925 Y201.556
G2 X12.995 Y201.567 I0.277 J-1.563
G1 X13.461 Y201.628
G2 X13.532 Y201.636 I0.206 J-1.574
G1 X13.999 Y201.676
G2 X14.07 Y201.68 I0.135 J-1.582
G1 X14.539 Y201.699
G2 X14.606 Y201.701 I0.064 J-1.586
G1 X15.075 Y201.699
G2 X15.143 Y201.698 I-0.003 J-1.587
G1 X15.611 Y201.677
G2 X15.679 Y201.672 I-0.071 J-1.586
G1 X16.146 Y201.631
G2 X16.21 Y201.624 I-0.139 J-1.581
G1 X16.675 Y201.564
G2 X16.736 Y201.555 I-0.203 J-1.574
G1 X17.197 Y201.477
G2 X17.259 Y201.466 I-0.265 J-1.565
G1 X17.716 Y201.37
G2 X17.777 Y201.355 I-0.326 J-1.554
G1 X18.229 Y201.241
G2 X18.289 Y201.225 I-0.388 J-1.539
G1 X18.735 Y201.094
G2 X18.791 Y201.076 I-0.447 J-1.523
G1 X19.23 Y200.929
G2 X19.285 Y200.91 I-0.504 J-1.505
G1 X19.716 Y200.748
G2 X19.771 Y200.726 I-0.558 J-1.486
G1 X20.193 Y200.549
G2 X20.249 Y200.524 I-0.614 J-1.464
G1 X20.662 Y200.332
G2 X20.713 Y200.307 I-0.67 J-1.439
G1 X21.115 Y200.102
G2 X21.165 Y200.076 I-0.721 J-1.414
G1 X21.556 Y199.859
G2 X21.609 Y199.827 I-0.771 J-1.388
G1 X21.988 Y199.597
G2 X22.035 Y199.568 I-0.825 J-1.356
G1 X22.4 Y199.328
G2 X22.451 Y199.292 I-0.872 J-1.327
G1 X22.802 Y199.041
G2 X22.85 Y199.006 I-0.923 J-1.291
G1 X23.186 Y198.746
G2 X23.235 Y198.707 I-0.971 J-1.256
G1 X23.556 Y198.438
G2 X23.604 Y198.396 I-1.02 J-1.217
G1 X23.909 Y198.119
G2 X23.956 Y198.075 I-1.067 J-1.175
G1 X24.244 Y197.791
G2 X24.288 Y197.746 I-1.114 J-1.131
G1 X24.559 Y197.457
G2 X24.605 Y197.405 I-1.158 J-1.086
G1 X24.858 Y197.11
G2 X24.902 Y197.057 I-1.205 J-1.034
G1 X25.137 Y196.758
G2 X25.179 Y196.701 I-1.248 J-0.981
G1 X25.396 Y196.399
G2 X25.438 Y196.338 I-1.291 J-0.924
G1 X25.635 Y196.033
G2 X25.674 Y195.969 I-1.333 J-0.863
G1 X25.852 Y195.663
G2 X25.889 Y195.596 I-1.372 J-0.799
G1 X26.048 Y195.29
G2 X26.084 Y195.217 I-1.409 J-0.732
G1 X26.223 Y194.911
G2 X26.256 Y194.834 I-1.444 J-0.659
G1 X26.376 Y194.529
G2 X26.405 Y194.451 I-1.477 J-0.582
G1 X26.506 Y194.149
G2 X26.531 Y194.066 I-1.505 J-0.504
G1 X26.613 Y193.767
G2 X26.635 Y193.68 I-1.531 J-0.421
G1 X26.698 Y193.385
G2 X26.715 Y193.295 I-1.552 J-0.334
G1 X26.76 Y193.005
G2 X26.771 Y192.914 I-1.569 J-0.244
G1 X26.799 Y192.631
G2 X26.805 Y192.535 I-1.58 J-0.153
G1 X26.815 Y192.258
G2 X26.816 Y192.161 I-1.586 J-0.057
G1 X26.809 Y191.893
G2 X26.803 Y191.794 I-1.587 J0.04
G1 X26.781 Y191.534
G2 X26.769 Y191.434 I-1.581 J0.139
G1 X26.731 Y191.184
G2 X26.711 Y191.082 I-1.569 J0.239
G1 X26.659 Y190.843
G2 X26.633 Y190.74 I-1.55 J0.341
G1 X26.566 Y190.512
G2 X26.531 Y190.406 I-1.524 J0.444
G1 X26.452 Y190.191
G2 X26.41 Y190.089 I-1.489 J0.55
G1 X26.318 Y189.886
G2 X26.264 Y189.776 I-1.447 J0.652
G1 X26.161 Y189.588
G2 X26.098 Y189.483 I-1.393 J0.762
G1 X25.985 Y189.309
G2 X25.91 Y189.204 I-1.33 J0.867
G1 X25.787 Y189.045
G2 X25.694 Y188.936 I-1.255 J0.972
G1 X25.562 Y188.794
G2 X25.46 Y188.694 I-1.163 J1.081
G1 X25.32 Y188.568
G2 X25.197 Y188.468 I-1.061 J1.181
G1 X25.049 Y188.36
G2 X24.918 Y188.273 I-0.937 J1.281
G1 X24.763 Y188.182
G2 X24.615 Y188.105 I-0.806 J1.368
G1 X24.455 Y188.032
G2 X24.28 Y187.965 I-0.658 J1.445
G1 X24.114 Y187.912
G2 X23.95 Y187.869 I-0.483 J1.512
G1 X23.779 Y187.834
G2 X23.596 Y187.807 I-0.319 J1.555
G1 X23.42 Y187.792
G2 X23.249 Y187.787 I-0.135 J1.582
G1 X23.07 Y187.791
G2 X22.891 Y187.805 I0.035 J1.587
G1 X22.708 Y187.83
G2 X22.55 Y187.86 I0.215 J1.573
G1 X22.364 Y187.905
G2 X22.213 Y187.949 I0.373 J1.543
G1 X22.024 Y188.015
G2 X21.898 Y188.066 I0.524 J1.499
G1 X21.706 Y188.152
G2 X21.59 Y188.21 I0.65 J1.448
G1 X21.396 Y188.317
G2 X21.295 Y188.377 I0.766 J1.39
G1 X21.099 Y188.505
G2 X21.012 Y188.566 I0.867 J1.33
G1 X20.814 Y188.715
G2 X20.74 Y188.773 I0.953 J1.269
G1 X20.54 Y188.943
G2 X20.477 Y189 I1.027 J1.211
G1 X20.275 Y189.191
G2 X20.221 Y189.245 I1.09 J1.154
G1 X20.017 Y189.457
G2 X19.968 Y189.509 I1.144 J1.1
G1 X19.763 Y189.743
G2 X19.725 Y189.788 I1.193 J1.048
G1 X19.518 Y190.042
G2 X19.482 Y190.087 I1.23 J1.003
G1 X19.274 Y190.362
X19.246 Y190.4
X19.238 Y190.409
X19.226 Y190.422
X19.208 Y190.44
X19.198 Y190.45
X19.186 Y190.459
X19.168 Y190.474
X19.16 Y190.479
X19.144 Y190.489
X19.126 Y190.5
X19.112 Y190.507
X19.09 Y190.518
X19.075 Y190.524
X19.06 Y190.53
X19.042 Y190.536
X19.033 Y190.538
X19.014 Y190.542
X18.986 Y190.548
X18.974 Y190.55
X18.961 Y190.551
X18.94 Y190.552
X18.918
X18.905
X18.893 Y190.551
X18.863 Y190.547
X18.851 Y190.546
X18.84 Y190.543
X18.8 Y190.533
X14.202 Y189.276
X14.517 Y188.314
G2 X14.521 Y188.302 I-1.508 J-0.495
G1 X15.334 Y185.756
G2 X15.338 Y185.744 I-1.512 J-0.483
G1 X16.129 Y183.201
G2 X16.132 Y183.189 I-1.516 J-0.471
G1 X16.9 Y180.648
G2 X16.904 Y180.636 I-1.52 J-0.459
G1 X17.649 Y178.097
G2 X17.653 Y178.085 I-1.523 J-0.447
G1 X18.375 Y175.548
G2 X18.379 Y175.536 I-1.527 J-0.435
G1 X19.079 Y173.002
G2 X19.082 Y172.989 I-1.53 J-0.423
G1 X19.76 Y170.458
G2 X19.763 Y170.446 I-1.534 J-0.41
G1 X20.418 Y167.917
G2 X20.421 Y167.904 I-1.537 J-0.398
G1 X21.053 Y165.377
G2 X21.056 Y165.364 I-1.54 J-0.385
G1 X21.665 Y162.84
G2 X21.668 Y162.828 I-1.543 J-0.372
G1 X22.255 Y160.306
G2 X22.258 Y160.293 I-1.546 J-0.36
G1 X22.821 Y157.774
G2 X22.824 Y157.761 I-1.549 J-0.347
G1 X23.365 Y155.245
G2 X23.368 Y155.231 I-1.552 J-0.334
G1 X23.886 Y152.717
G2 X23.889 Y152.704 I-1.555 J-0.32
G1 X24.384 Y150.194
G2 X24.387 Y150.181 I-1.557 J-0.307
G1 X24.86 Y147.673
G2 X24.862 Y147.66 I-1.56 J-0.294
G1 X25.312 Y145.156
G2 X25.315 Y145.143 I-1.562 J-0.281
G1 X25.742 Y142.642
G2 X25.745 Y142.628 I-1.565 J-0.268
G1 X26.15 Y140.13
G2 X26.152 Y140.117 I-1.567 J-0.254
G1 X26.535 Y137.624
G2 X26.537 Y137.611 I-1.569 J-0.241
G1 X26.898 Y135.121
G2 X26.9 Y135.108 I-1.571 J-0.228
G1 X27.239 Y132.622
G2 X27.241 Y132.608 I-1.573 J-0.215
G1 X27.559 Y130.126
G2 X27.56 Y130.113 I-1.575 J-0.201
G1 X27.857 Y127.636
G2 X27.858 Y127.624 I-1.576 J-0.188
G1 X28.133 Y125.152
G2 X28.135 Y125.139 I-1.578 J-0.176
G1 X28.389 Y122.672
G2 X28.39 Y122.659 I-1.579 J-0.163
G1 X28.624 Y120.197
G2 X28.625 Y120.185 I-1.58 J-0.15
G1 X28.839 Y117.73
G2 X28.841 Y117.718 I-1.581 J-0.138
G1 X29.035 Y115.268
G2 X29.036 Y115.256 I-1.583 J-0.126
G1 X29.212 Y112.813
G2 X29.213 Y112.801 I-1.583 J-0.114
G1 X29.37 Y110.366
G2 Y110.355 I-1.584 J-0.102
G1 X29.51 Y107.927
G2 X29.511 Y107.916 I-1.585 J-0.091
G1 X29.633 Y105.495
G2 Y105.485 I-1.585 J-0.08
G1 X29.74 Y103.074
G2 Y103.064 I-1.586 J-0.07
G1 X29.83 Y100.661
X29.831 Y100.651
X29.907 Y98.259
Y98.25
X29.969 Y95.867
Y95.859
X30.019 Y93.487
Y93.48
X30.056 Y91.12
G2 X30.057 Y91.11 I-1.587 J-0.025
G1 X30.101 Y86.427
G2 Y86.416 I-1.587 J-0.015
G1 X30.115 Y81.79
Y81.783
X30.107 Y77.219
Y77.216
X30.092 Y72.723
X30.084 Y68.311
X30.096 Y63.988
X30.114 Y61.867
X30.144 Y59.77
X30.186 Y57.701
X30.244 Y55.661
X30.318 Y53.651
X30.411 Y51.671
X30.525 Y49.725
X30.662 Y47.812
X30.823 Y45.934
X31.011 Y44.091
X31.228 Y42.286
X31.475 Y40.52
X31.754 Y38.788
X31.905 Y37.944
X32.066 Y37.105
X32.235 Y36.277
X32.414 Y35.46
X32.601 Y34.654
X32.798 Y33.857
X33.005 Y33.072
X33.221 Y32.298
X33.448 Y31.535
X33.684 Y30.783
X33.931 Y30.043
X34.188 Y29.313
X34.455 Y28.595
X34.734 Y27.888
X35.023 Y27.193
X35.323 Y26.51
X35.634 Y25.838
X35.957 Y25.177
X36.291 Y24.528
X36.636 Y23.891
X36.993 Y23.265
X37.362 Y22.651
X37.742 Y22.049
X38.135 Y21.458
X38.54 Y20.879
X38.957 Y20.311
X39.387 Y19.754
X39.829 Y19.209
X40.284 Y18.676
X40.752 Y18.154
X41.232 Y17.643
X41.726 Y17.143
X42.233 Y16.655
X42.753 Y16.177
X43.287 Y15.711
X43.834 Y15.257
X44.395 Y14.813
X44.97 Y14.38
X45.558 Y13.959
X46.161 Y13.548
X46.778 Y13.149
X47.409 Y12.761
X48.054 Y12.384
X48.714 Y12.018
X49.389 Y11.663
X50.078 Y11.319
X50.781 Y10.986
X51.5 Y10.665
X52.233 Y10.355
X52.981 Y10.055
X53.743 Y9.768
X54.521 Y9.491
X55.314 Y9.226
X56.121 Y8.972
X56.943 Y8.729
X57.781 Y8.498
X58.633 Y8.278
X59.5 Y8.07
X60.383 Y7.873
X61.28 Y7.687
X62.192 Y7.513
X63.119 Y7.35
X64.061 Y7.199
X65.018 Y7.059
X65.99 Y6.931
X66.976 Y6.815
X67.978 Y6.71
X68.994 Y6.616
X70.025 Y6.534
X71.071 Y6.464
X72.132 Y6.405
X73.207 Y6.358
X74.297 Y6.322
X75.402 Y6.299
X76.522 Y6.286
X77.656
X78.541 Y6.294
G2 X89.532 Y9.781 I6.459 J-1.294
X85.363 Y-1.577 I-4.532 J-4.781
G3 X89.532 Y9.781 Z-20.241 I-0.363 J6.577 F200
X78.541 Y6.294 Z-20.461 I-4.532 J-4.781
G1 X77.656 Y6.286 Z-20.475
X76.522 Z-20.492
X75.402 Y6.299 Z-20.51
X74.297 Y6.322 Z-20.527
X73.207 Y6.358 Z-20.544
X72.132 Y6.405 Z-20.561
X71.071 Y6.464 Z-20.578
X70.025 Y6.534 Z-20.594
X68.994 Y6.616 Z-20.611
X67.978 Y6.71 Z-20.627
X66.976 Y6.815 Z-20.642
X65.99 Y6.931 Z-20.658
X65.018 Y7.059 Z-20.673
X64.061 Y7.199 Z-20.689
X63.119 Y7.35 Z-20.704
X62.192 Y7.513 Z-20.718
X61.28 Y7.687 Z-20.733
X60.383 Y7.873 Z-20.747
X59.5 Y8.07 Z-20.761
X58.633 Y8.278 Z-20.775
X57.781 Y8.498 Z-20.789
X56.943 Y8.729 Z-20.803
X56.121 Y8.972 Z-20.816
X55.314 Y9.226 Z-20.83
X54.521 Y9.491 Z-20.843
X53.743 Y9.768 Z-20.856
X52.981 Y10.055 Z-20.868
X52.233 Y10.355 Z-20.881
X51.5 Y10.665 Z-20.894
X50.781 Y10.986 Z-20.906
X50.078 Y11.319 Z-20.918
X49.389 Y11.663 Z-20.93
X48.714 Y12.018 Z-20.942
X48.054 Y12.384 Z-20.954
X47.409 Y12.761 Z-20.966
X46.778 Y13.149 Z-20.977
X46.161 Y13.548 Z-20.989
X45.558 Y13.959 Z-21
X44.97 Y14.38 Z-21.012
X44.395 Y14.813 Z-21.023
X43.834 Y15.257 Z-21.034
X43.287 Y15.711 Z-21.045
X42.753 Y16.177 Z-21.056
X42.233 Y16.655 Z-21.067
X41.726 Y17.143 Z-21.079
X41.232 Y17.643 Z-21.09
X40.752 Y18.154 Z-21.101
X40.284 Y18.676 Z-21.112
X39.829 Y19.209 Z-21.123
X39.387 Y19.754 Z-21.134
X38.957 Y20.311 Z-21.145
X38.54 Y20.879 Z-21.156
X38.135 Y21.458 Z-21.167
X37.742 Y22.049 Z-21.178
X37.362 Y22.651 Z-21.189
X36.993 Y23.265 Z-21.2
X36.636 Y23.891 Z-21.212
X36.291 Y24.528 Z-21.223
X35.957 Y25.177 Z-21.234
X35.634 Y25.838 Z-21.246
X35.323 Y26.51 Z-21.258
X35.023 Y27.193 Z-21.269
X34.734 Y27.888 Z-21.281
X34.455 Y28.595 Z-21.293
X34.188 Y29.313 Z-21.305
X33.931 Y30.043 Z-21.317
X33.684 Y30.783 Z-21.329
X33.448 Y31.535 Z-21.342
X33.221 Y32.298 Z-21.354
X33.005 Y33.072 Z-21.367
X32.798 Y33.857 Z-21.38
X32.601 Y34.654 Z-21.392
X32.414 Y35.46 Z-21.405
X32.235 Y36.277 Z-21.418
X32.066 Y37.105 Z-21.432
X31.905 Y37.944 Z-21.445
X31.754 Y38.788 Z-21.459
X31.475 Y40.52 Z-21.486
X31.228 Y42.286 Z-21.514
X31.011 Y44.091 Z-21.543
X30.823 Y45.934 Z-21.572
X30.662 Y47.812 Z-21.601
X30.525 Y49.725 Z-21.631
X30.411 Y51.671 Z-21.662
X30.318 Y53.651 Z-21.693
X30.244 Y55.661 Z-21.725
X30.186 Y57.701 Z-21.757
X30.144 Y59.77 Z-21.789
X30.114 Y61.867 Z-21.822
X30.096 Y63.988 Z-21.855
X30.084 Y68.311 Z-21.923
X30.092 Y72.723 Z-21.992
X30.107 Y77.216 Z-22.063
Y77.219
X30.115 Y81.783 Z-22.134
Y81.79
X30.101 Y86.416 Z-22.207
G3 Y86.427 I-1.587 J-0.004
G1 X30.057 Y91.11 Z-22.281
G3 X30.056 Y91.12 I-1.587 J-0.015
G1 X30.019 Y93.48 Z-22.318
Y93.487
X29.969 Y95.859 Z-22.355
Y95.867
X29.907 Y98.25 Z-22.393
Y98.259
X29.831 Y100.651 Z-22.43
X29.83 Y100.661
X29.74 Y103.064 Z-22.468
G3 Y103.074 I-1.586 J-0.06
G1 X29.633 Y105.485 Z-22.506
G3 Y105.495 I-1.586 J-0.07
G1 X29.511 Y107.916 Z-22.544
G3 X29.51 Y107.927 I-1.585 J-0.08
G1 X29.37 Y110.355 Z-22.583
G3 Y110.366 I-1.585 J-0.091
G1 X29.213 Y112.801 Z-22.621
G3 X29.212 Y112.813 I-1.584 J-0.102
G1 X29.036 Y115.256 Z-22.66
G3 X29.035 Y115.268 I-1.583 J-0.114
G1 X28.841 Y117.718 Z-22.698
G3 X28.839 Y117.73 Z-22.699 I-1.583 J-0.126
G1 X28.625 Y120.185 Z-22.737
G3 X28.624 Y120.197 I-1.581 J-0.138
G1 X28.39 Y122.659 Z-22.776
G3 X28.389 Y122.672 I-1.58 J-0.15
G1 X28.135 Y125.139 Z-22.815
G3 X28.133 Y125.152 Z-22.816 I-1.579 J-0.163
G1 X27.858 Y127.624 Z-22.855
G3 X27.857 Y127.636 I-1.578 J-0.176
G1 X27.56 Y130.113 Z-22.894
G3 X27.559 Y130.126 I-1.576 J-0.188
G1 X27.241 Y132.608 Z-22.933
G3 X27.239 Y132.622 Z-22.934 I-1.575 J-0.201
G1 X26.9 Y135.108 Z-22.973
G3 X26.898 Y135.121 I-1.573 J-0.215
G1 X26.537 Y137.611 Z-23.013
G3 X26.535 Y137.624 I-1.571 J-0.228
G1 X26.152 Y140.117 Z-23.052
G3 X26.15 Y140.13 Z-23.053 I-1.569 J-0.241
G1 X25.745 Y142.628 Z-23.092
G3 X25.742 Y142.642 I-1.567 J-0.254
G1 X25.315 Y145.143 Z-23.132
G3 X25.312 Y145.156 I-1.565 J-0.268
G1 X24.862 Y147.66 Z-23.172
G3 X24.86 Y147.673 Z-23.173 I-1.562 J-0.281
G1 X24.387 Y150.181 Z-23.213
G3 X24.384 Y150.194 I-1.56 J-0.294
G1 X23.889 Y152.704 Z-23.253
G3 X23.886 Y152.717 I-1.557 J-0.307
G1 X23.368 Y155.231 Z-23.293
G3 X23.365 Y155.245 Z-23.294 I-1.555 J-0.32
G1 X22.824 Y157.761 Z-23.334
G3 X22.821 Y157.774 I-1.552 J-0.334
G1 X22.258 Y160.293 Z-23.375
G3 X22.255 Y160.306 I-1.549 J-0.347
G1 X21.668 Y162.828 Z-23.416
G3 X21.665 Y162.84 I-1.546 J-0.36
G1 X21.056 Y165.364 Z-23.456
G3 X21.053 Y165.377 Z-23.457 I-1.543 J-0.372
G1 X20.421 Y167.904 Z-23.498
G3 X20.418 Y167.917 I-1.54 J-0.385
G1 X19.763 Y170.446 Z-23.539
G3 X19.76 Y170.458 I-1.537 J-0.398
G1 X19.082 Y172.989 Z-23.58
G3 X19.079 Y173.002 I-1.534 J-0.41
G1 X18.379 Y175.536 Z-23.621
G3 X18.375 Y175.548 Z-23.622 I-1.53 J-0.423
G1 X17.653 Y178.085 Z-23.663
G3 X17.649 Y178.097 I-1.527 J-0.435
G1 X16.904 Y180.636 Z-23.705
G3 X16.9 Y180.648 I-1.523 J-0.447
G1 X16.132 Y183.189 Z-23.747
G3 X16.129 Y183.201 I-1.52 J-0.459
G1 X15.338 Y185.744 Z-23.789
G3 X15.334 Y185.756 I-1.516 J-0.471
G1 X14.521 Y188.302 Z-23.831
G3 X14.517 Y188.314 I-1.512 J-0.483
G1 X14.202 Y189.276 Z-23.847
X18.8 Y190.533 Z-23.921
X18.84 Y190.543 Z-23.922
X18.851 Y190.546
X18.863 Y190.547 Z-23.923
X18.893 Y190.551
X18.905 Y190.552
X18.918
X18.94 Z-23.924
X18.961 Y190.551
X18.974 Y190.55
X18.986 Y190.548
X19.014 Y190.542 Z-23.925
X19.033 Y190.538
X19.042 Y190.536
X19.06 Y190.53 Z-23.926
X19.075 Y190.524
X19.09 Y190.518
X19.112 Y190.507 Z-23.927
X19.126 Y190.5
X19.144 Y190.489
X19.16 Y190.479
X19.168 Y190.474 Z-23.928
X19.186 Y190.459
X19.198 Y190.45
X19.208 Y190.44
X19.226 Y190.422 Z-23.929
X19.238 Y190.409
X19.246 Y190.4
X19.274 Y190.362 Z-23.93
X19.482 Y190.087 Z-23.935
G3 X19.518 Y190.042 Z-23.936 I1.266 J0.958
G1 X19.725 Y189.788 Z-23.941
G3 X19.763 Y189.743 Z-23.942 I1.23 J1.003
G1 X19.968 Y189.509 Z-23.947
G3 X20.017 Y189.457 Z-23.948 I1.193 J1.048
G1 X20.221 Y189.245 Z-23.953
G3 X20.275 Y189.191 Z-23.954 I1.144 J1.1
G1 X20.477 Y189 Z-23.959
G3 X20.54 Y188.943 Z-23.96 I1.09 J1.154
G1 X20.74 Y188.773 Z-23.964
G3 X20.814 Y188.715 Z-23.965 I1.027 J1.211
G1 X21.012 Y188.566 Z-23.969
G3 X21.099 Y188.505 Z-23.971 I0.953 J1.269
G1 X21.295 Y188.377 Z-23.975
G3 X21.396 Y188.317 Z-23.977 I0.867 J1.33
G1 X21.59 Y188.21 Z-23.98
G3 X21.706 Y188.152 Z-23.982 I0.766 J1.39
G1 X21.898 Y188.066 Z-23.985
G3 X22.024 Y188.015 Z-23.987 I0.65 J1.448
G1 X22.213 Y187.949 Z-23.991
G3 X22.364 Y187.905 Z-23.993 I0.524 J1.499
G1 X22.55 Y187.86 Z-23.996
G3 X22.708 Y187.83 Z-23.999 I0.373 J1.543
G1 X22.891 Y187.805 Z-24.001
G3 X23.07 Y187.791 Z-24.004 I0.215 J1.573
G1 X23.249 Y187.787 Z-24.007
G3 X23.42 Y187.792 Z-24.01 I0.035 J1.587
G1 X23.596 Y187.807 Z-24.013
G3 X23.779 Y187.834 Z-24.015 I-0.135 J1.582
G1 X23.95 Y187.869 Z-24.018
G3 X24.114 Y187.912 Z-24.021 I-0.319 J1.555
G1 X24.28 Y187.965 Z-24.024
G3 X24.455 Y188.032 Z-24.027 I-0.483 J1.512
G1 X24.615 Y188.105 Z-24.029
G3 X24.763 Y188.182 Z-24.032 I-0.658 J1.445
G1 X24.918 Y188.273 Z-24.035
G3 X25.049 Y188.36 Z-24.037 I-0.806 J1.368
G1 X25.197 Y188.468 Z-24.04
G3 X25.32 Y188.568 Z-24.043 I-0.937 J1.281
G1 X25.46 Y188.694 Z-24.046
G3 X25.562 Y188.794 Z-24.048 I-1.061 J1.181
G1 X25.694 Y188.936 Z-24.051
G3 X25.787 Y189.045 Z-24.053 I-1.163 J1.081
G1 X25.91 Y189.204 Z-24.056
G3 X25.985 Y189.309 Z-24.058 I-1.255 J0.972
G1 X26.098 Y189.483 Z-24.061
G3 X26.161 Y189.588 Z-24.063 I-1.33 J0.867
G1 X26.264 Y189.776 Z-24.067
G3 X26.318 Y189.886 Z-24.069 I-1.393 J0.762
G1 X26.41 Y190.089 Z-24.072
G3 X26.452 Y190.191 Z-24.074 I-1.447 J0.652
G1 X26.531 Y190.406 Z-24.078
G3 X26.566 Y190.512 Z-24.079 I-1.489 J0.55
G1 X26.633 Y190.74 Z-24.083
G3 X26.659 Y190.843 Z-24.085 I-1.524 J0.444
G1 X26.711 Y191.082 Z-24.088
G3 X26.731 Y191.184 Z-24.09 I-1.55 J0.341
G1 X26.769 Y191.434 Z-24.094
G3 X26.781 Y191.534 Z-24.096 I-1.569 J0.239
G1 X26.803 Y191.794 Z-24.1
G3 X26.809 Y191.893 Z-24.101 I-1.581 J0.139
G1 X26.816 Y192.161 Z-24.106
G3 X26.815 Y192.258 Z-24.107 I-1.587 J0.04
G1 X26.805 Y192.535 Z-24.111
G3 X26.799 Y192.631 Z-24.113 I-1.586 J-0.057
G1 X26.771 Y192.914 Z-24.117
G3 X26.76 Y193.005 Z-24.119 I-1.58 J-0.153
G1 X26.715 Y193.295 Z-24.123
G3 X26.698 Y193.385 Z-24.125 I-1.569 J-0.244
G1 X26.635 Y193.68 Z-24.13
G3 X26.613 Y193.767 Z-24.131 I-1.552 J-0.334
G1 X26.531 Y194.066 Z-24.136
G3 X26.506 Y194.149 Z-24.137 I-1.531 J-0.421
G1 X26.405 Y194.451 Z-24.142
G3 X26.376 Y194.529 Z-24.144 I-1.505 J-0.504
G1 X26.256 Y194.834 Z-24.149
G3 X26.223 Y194.911 Z-24.15 I-1.477 J-0.582
G1 X26.084 Y195.217 Z-24.155
G3 X26.048 Y195.29 Z-24.157 I-1.444 J-0.659
G1 X25.889 Y195.596 Z-24.162
G3 X25.852 Y195.663 Z-24.163 I-1.409 J-0.732
G1 X25.674 Y195.969 Z-24.169
G3 X25.635 Y196.033 Z-24.17 I-1.372 J-0.799
G1 X25.438 Y196.338 Z-24.176
G3 X25.396 Y196.399 Z-24.177 I-1.333 J-0.863
G1 X25.179 Y196.701 Z-24.183
G3 X25.137 Y196.758 Z-24.184 I-1.291 J-0.924
G1 X24.902 Y197.057 Z-24.19
G3 X24.858 Y197.11 Z-24.191 I-1.248 J-0.981
G1 X24.605 Y197.405 Z-24.197
